;FLAVOR:Marlin
;TIME:11024
;Filament used: 5.72916m
;Layer height: 0.175
;MINX:25.201
;MINY:25.392
;MINZ:0.263
;MAXX:94.799
;MAXY:94.608
;MAXZ:3.938
;Generated with Cura_SteamEngine 4.8.0
M140 S65
M105
M190 S65
M104 S205
M105
M109 S205
M82 ;absolute extrusion mode
G21;(metric values)
G90;(absolute positioning)
M82;(set extruder to absolute mode)
M107;(start with the fan off)
G28;(Home the printer)
G92 E0;(Reset the extruder to 0)
G0 Z5 E5 F500;(Move up and prime the nozzle)
G0 X-1 Z0;(Move outside the printable area)
G1 Y60 E8 F500;(Draw a priming/wiping line to the rear)
G1 X-1;(Move a little closer to the print area)
G1 Y10 E16 F500;(draw more priming/wiping)
G1 E15 F250;(Small retract)
G92 E0;(Zero the extruder)
G92 E0
G92 E0
G1 F2400 E-2.5
;LAYER_COUNT:22
;LAYER:0
M107
;MESH:backplate.stl
G0 F4320 X46.247 Y46.054 Z0.263
;TYPE:WALL-INNER
G1 F2400 E0
G1 F1800 X45.666 Y46.962 E0.04125
G1 X45.666 Y48.038 E0.08243
G1 X46.247 Y48.946 E0.12369
G1 X47.228 Y49.392 E0.16493
G1 X48.294 Y49.24 E0.20614
G1 X49.108 Y48.534 E0.24737
G1 X49.412 Y47.5 E0.28862
G1 X49.108 Y46.466 E0.32986
G1 X48.294 Y45.76 E0.3711
G1 X47.228 Y45.608 E0.41231
G1 X46.879 Y45.767 E0.42699
G0 F1620 X46.247 Y46.054
G1 F2400 E-2.07301
G0 F4320 X47.297 Y46.085
G0 X48.094 Y46.198
G0 X49.585 Y47.5
G0 X47.808 Y47.5
G0 X55.335 Y51.918
G0 X54.477 Y50.434
G0 X56.638 Y49.652
G1 F2400 E0.42699
G1 F1800 X54.56 Y50.578 E0.51405
G1 X52.72 Y51.915 E0.60109
G1 X51.198 Y53.605 E0.68813
G1 X50.061 Y55.575 E0.77518
G1 X49.358 Y57.738 E0.86222
G1 X49.12 Y60 E0.94926
G1 X49.358 Y62.262 E1.03631
G1 X50.061 Y64.425 E1.12335
G1 X51.198 Y66.395 E1.2104
G1 X52.72 Y68.085 E1.29743
G1 X54.56 Y69.422 E1.38448
G1 X56.638 Y70.348 E1.47154
G1 X58.863 Y70.82 E1.55859
G1 X61.137 Y70.82 E1.64561
G1 X63.362 Y70.348 E1.73266
G1 X65.44 Y69.422 E1.81972
G1 X67.28 Y68.085 E1.90676
G1 X68.802 Y66.395 E1.9938
G1 X69.939 Y64.425 E2.08085
G1 X70.642 Y62.262 E2.16789
G1 X70.88 Y60 E2.25494
G1 X70.642 Y57.738 E2.34198
G1 X69.939 Y55.575 E2.42902
G1 X68.802 Y53.605 E2.51607
G1 X67.28 Y51.915 E2.60311
G1 X65.44 Y50.578 E2.69015
G1 X63.362 Y49.652 E2.77721
G1 X61.137 Y49.18 E2.86426
G1 X58.863 Y49.18 E2.95128
G1 X57.317 Y49.508 E3.01177
G0 F1620 X56.638 Y49.652
G1 F2400 E0.51177
G0 F4320 X63.413 Y49.494
G0 X62.883 Y51.124
G0 X72.204 Y47.412
G0 X70.5 Y46.913
G0 X71.247 Y46.054
G1 F2400 E3.01177
G1 F1800 X70.666 Y46.962 E3.05302
G1 X70.666 Y48.038 E3.0942
G1 X71.247 Y48.946 E3.13545
G1 X72.228 Y49.392 E3.17669
G1 X73.294 Y49.24 E3.2179
G1 X74.108 Y48.534 E3.25914
G1 X74.412 Y47.5 E3.30038
G1 X74.108 Y46.466 E3.34163
G1 X73.294 Y45.76 E3.38287
G1 X72.228 Y45.608 E3.42408
G1 X71.879 Y45.767 E3.43875
G0 F1620 X71.247 Y46.054
G1 F2400 E0.93875
G0 F4320 X72.203 Y45.436
G0 X72.455 Y47.194
G0 X77.977 Y29.214
G0 X76.963 Y30.611
G0 X70.545 Y27.55
G1 F2400 E3.43875
G1 F1800 X77.058 Y30.451 E3.71161
G1 X82.831 Y34.645 E3.98469
G1 X87.608 Y39.949 E4.25787
G1 X91.169 Y46.119 E4.5305
G1 X93.375 Y52.906 E4.80361
G1 X94.12 Y60 E5.07659
G1 X93.375 Y67.094 E5.34957
G1 X91.169 Y73.881 E5.62268
G1 X87.608 Y80.051 E5.89531
G1 X82.831 Y85.355 E6.16849
G1 X77.058 Y89.549 E6.44157
G1 X70.545 Y92.45 E6.71443
G1 X63.565 Y93.933 E6.98751
G1 X56.435 Y93.933 E7.26038
G1 X49.455 Y92.45 E7.53347
G1 X42.942 Y89.549 E7.80633
G1 X37.169 Y85.355 E8.07941
G1 X32.392 Y80.051 E8.35258
G1 X28.831 Y73.881 E8.62521
G1 X26.625 Y67.094 E8.89832
G1 X25.88 Y60 E9.1713
G1 X26.625 Y52.906 E9.44428
G1 X28.831 Y46.119 E9.7174
G1 X32.392 Y39.949 E9.99003
G1 X37.169 Y34.645 E10.2632
G1 X42.942 Y30.451 E10.53628
G1 X49.455 Y27.55 E10.80914
G1 X56.435 Y26.067 E11.08223
G1 X63.565 Y26.067 E11.35509
G1 X69.867 Y27.406 E11.60165
G0 F1620 X70.545 Y27.55
G1 F2400 E9.10165
G0 F4320 X76.963 Y30.611
G0 X77.977 Y29.214
G0 X72.455 Y72.194
G0 X72.203 Y70.436
G0 X71.247 Y71.054
G1 F2400 E11.60165
G1 F1800 X70.666 Y71.962 E11.64291
G1 X70.666 Y73.038 E11.68409
G1 X71.247 Y73.946 E11.72534
G1 X72.228 Y74.392 E11.76658
G1 X73.294 Y74.24 E11.80779
G1 X74.108 Y73.534 E11.84903
G1 X74.412 Y72.5 E11.89027
G1 X74.108 Y71.466 E11.93152
G1 X73.294 Y70.76 E11.97275
G1 X72.228 Y70.608 E12.01396
G1 X71.879 Y70.767 E12.02864
G0 F1620 X71.247 Y71.054
G1 F2400 E9.52864
G0 F4320 X70.5 Y71.913
G0 X72.204 Y72.412
G0 X47.808 Y72.5
G0 X49.585 Y72.5
G0 X48.094 Y71.198
G0 X46.247 Y71.054
G1 F2400 E12.02864
G1 F1800 X45.666 Y71.962 E12.06989
G1 X45.666 Y73.038 E12.11107
G1 X46.247 Y73.946 E12.15233
G1 X47.228 Y74.392 E12.19357
G1 X48.294 Y74.24 E12.23477
G1 X49.108 Y73.534 E12.27601
G1 X49.412 Y72.5 E12.31726
G1 X49.108 Y71.466 E12.3585
G1 X48.294 Y70.76 E12.39974
G1 X47.228 Y70.608 E12.44095
G1 X46.879 Y70.767 E12.45562
G0 F1620 X46.247 Y71.054
G0 F4320 X46.486 Y71.33
G1 F1800 X46.016 Y72.064 E12.48898
G1 X46.016 Y72.936 E12.52235
G1 X46.486 Y73.67 E12.55571
G1 X47.28 Y74.031 E12.58909
G1 X48.143 Y73.908 E12.62245
G1 X48.801 Y73.337 E12.65579
G1 X49.047 Y72.5 E12.68917
G1 X48.801 Y71.663 E12.72256
G1 X48.143 Y71.092 E12.7559
G1 X47.28 Y70.969 E12.78926
G1 X47.072 Y71.064 E12.79801
G0 F1620 X46.486 Y71.33
G1 F2400 E10.29801
G0 F4320 X48.366 Y70.603
G0 X47.63 Y72.219
G0 X52.45 Y65.486
G0 X51.064 Y66.493
G0 X49.811 Y62.166
G0 X49.583 Y60
G0 X49.811 Y57.834
G0 X50.484 Y55.763
G0 X51.573 Y53.878
G0 X53.03 Y52.26
G0 X54.614 Y51.108
G0 X56.747 Y49.987
G1 F2400 E12.79801
G1 F1800 X54.736 Y50.883 E12.88227
G1 X52.955 Y52.177 E12.96652
G1 X51.483 Y53.812 E13.05071
G1 X50.382 Y55.718 E13.13495
G1 X49.702 Y57.811 E13.21917
G1 X49.472 Y60 E13.3034
G1 X49.702 Y62.189 E13.38764
G1 X50.382 Y64.282 E13.47186
G1 X51.483 Y66.188 E13.5561
G1 X52.955 Y67.823 E13.64029
G1 X54.736 Y69.117 E13.72454
G1 X56.747 Y70.013 E13.80879
G1 X58.9 Y70.47 E13.89302
G1 X61.1 Y70.47 E13.97722
G1 X63.253 Y70.013 E14.06145
G1 X65.264 Y69.117 E14.1457
G1 X67.045 Y67.823 E14.22995
G1 X68.517 Y66.188 E14.31415
G1 X69.618 Y64.282 E14.39838
G1 X70.298 Y62.189 E14.48261
G1 X70.528 Y60 E14.56684
G1 X70.298 Y57.811 E14.65107
G1 X69.618 Y55.718 E14.73529
G1 X68.517 Y53.812 E14.81953
G1 X67.045 Y52.177 E14.90373
G1 X65.264 Y50.883 E14.98797
G1 X63.253 Y49.987 E15.07223
G1 X61.1 Y49.53 E15.15646
G1 X58.9 Y49.53 E15.24065
G1 X57.426 Y49.843 E15.29832
G0 F1620 X56.747 Y49.987
G1 F2400 E12.79832
G0 F4320 X54.477 Y50.434
G0 X55.335 Y51.918
G0 X47.759 Y47.669
G0 X49.254 Y48.628
G0 X48.702 Y46.726
G0 X48.094 Y46.198
G0 X47.377 Y46.097
G0 X46.486 Y46.33
G1 F2400 E15.29832
G1 F1800 X46.016 Y47.064 E15.33168
G1 X46.016 Y47.936 E15.36505
G1 X46.486 Y48.67 E15.3984
G1 X47.28 Y49.031 E15.43178
G1 X48.143 Y48.908 E15.46514
G1 X48.801 Y48.337 E15.49848
G1 X49.047 Y47.5 E15.53187
G1 X48.801 Y46.663 E15.56526
G1 X48.143 Y46.092 E15.5986
G1 X47.28 Y45.969 E15.63196
G1 X47.072 Y46.064 E15.64071
G0 F1620 X46.486 Y46.33
G1 F2400 E13.14071
G0 F4320 X47.297 Y46.085
G0 X48.094 Y46.198
G0 X49.585 Y47.5
G0 X47.808 Y47.5
G0 X72.204 Y47.412
G0 X70.5 Y46.913
G0 X71.486 Y46.33
G1 F2400 E15.64071
G1 F1800 X71.016 Y47.064 E15.67407
G1 X71.016 Y47.936 E15.70744
G1 X71.486 Y48.67 E15.74079
G1 X72.28 Y49.031 E15.77417
G1 X73.143 Y48.908 E15.80753
G1 X73.801 Y48.337 E15.84088
G1 X74.047 Y47.5 E15.87426
G1 X73.801 Y46.663 E15.90765
G1 X73.143 Y46.092 E15.94099
G1 X72.28 Y45.969 E15.97435
G1 X72.072 Y46.064 E15.9831
G0 F1620 X71.486 Y46.33
G1 F2400 E13.4831
G0 F4320 X72.203 Y45.436
G0 X72.455 Y47.194
G0 X77.977 Y29.214
G0 X76.963 Y30.611
G0 X70.655 Y27.216
G1 F2400 E15.9831
G1 F1800 X77.234 Y30.146 E16.25872
G1 X83.066 Y34.383 E16.53459
G1 X87.893 Y39.743 E16.81064
G1 X91.491 Y45.977 E17.0861
G1 X93.719 Y52.832 E17.36195
G1 X94.472 Y60 E17.63778
G1 X93.719 Y67.168 E17.91361
G1 X91.491 Y74.023 E18.18946
G1 X87.893 Y80.257 E18.46491
G1 X83.066 Y85.617 E18.74096
G1 X77.234 Y89.854 E19.01684
G1 X70.655 Y92.784 E19.29245
G1 X63.6 Y94.283 E19.56848
G1 X56.4 Y94.283 E19.84402
G1 X49.345 Y92.784 E20.12004
G1 X42.766 Y89.854 E20.39566
G1 X36.934 Y85.617 E20.67153
G1 X32.107 Y80.257 E20.94758
G1 X28.509 Y74.023 E21.22304
G1 X26.281 Y67.168 E21.49889
G1 X25.528 Y60 E21.77472
G1 X26.281 Y52.832 E22.05055
G1 X28.509 Y45.977 E22.32639
G1 X32.107 Y39.743 E22.60185
G1 X36.934 Y34.383 E22.8779
G1 X42.766 Y30.146 E23.15377
G1 X49.345 Y27.216 E23.42939
G1 X56.4 Y25.717 E23.70541
G1 X63.6 Y25.717 E23.98096
G1 X69.977 Y27.072 E24.23045
G0 F1620 X70.655 Y27.216
G1 F2400 E21.73045
G0 F4320 X76.963 Y30.611
G0 X77.977 Y29.214
G0 X72.455 Y72.194
G0 X72.203 Y70.436
G0 X71.486 Y71.33
G1 F2400 E24.23045
G1 F1800 X71.016 Y72.064 E24.26381
G1 X71.016 Y72.936 E24.29718
G1 X71.486 Y73.67 E24.33054
G1 X72.28 Y74.031 E24.36392
G1 X73.143 Y73.908 E24.39728
G1 X73.801 Y73.337 E24.43062
G1 X74.047 Y72.5 E24.464
G1 X73.801 Y71.663 E24.49739
G1 X73.143 Y71.092 E24.53073
G1 X72.28 Y70.969 E24.56409
G1 X72.072 Y71.064 E24.57284
G0 F1620 X71.486 Y71.33
G0 F4320 X71.708 Y71.586
;TYPE:WALL-OUTER
G1 F1800 X71.341 Y72.159 E24.59889
G1 X71.341 Y72.841 E24.62499
G1 X71.708 Y73.414 E24.65103
G1 X72.328 Y73.696 E24.67709
G1 X73.002 Y73.6 E24.70315
G1 X73.516 Y73.154 E24.72919
G1 X73.708 Y72.5 E24.75528
G1 X73.516 Y71.846 E24.78136
G1 X73.002 Y71.4 E24.8074
G1 X72.328 Y71.304 E24.83346
G1 X72.165 Y71.378 E24.84031
G0 F1620 X71.708 Y71.586
G0 F4320 X71.601 Y71.754
G1 F2400 E22.34031
G0 F4320 X71.37 Y71.604
G0 X70.5 Y71.913
G0 X72.204 Y72.412
G0 X47.808 Y72.5
G0 X49.585 Y72.5
G0 X48.094 Y71.198
G0 X47.297 Y71.085
G0 X46.477 Y71.437
G0 X46.708 Y71.586
G1 F2400 E24.84031
G1 F1800 X46.341 Y72.159 E24.86635
G1 X46.341 Y72.841 E24.89245
G1 X46.708 Y73.414 E24.91849
G1 X47.328 Y73.696 E24.94456
G1 X48.002 Y73.6 E24.97061
G1 X48.516 Y73.154 E24.99665
G1 X48.708 Y72.5 E25.02274
G1 X48.516 Y71.846 E25.04882
G1 X48.002 Y71.4 E25.07487
G1 X47.328 Y71.304 E25.10092
G1 X47.165 Y71.378 E25.10777
G0 F1620 X46.708 Y71.586
G0 F4320 X46.601 Y71.754
G1 F2400 E22.60777
G0 F4320 X46.37 Y71.604
G0 X47.203 Y70.436
G0 X47.455 Y72.194
G0 X51.475 Y63.796
G0 X49.909 Y64.493
G0 X49.583 Y60
G0 X49.811 Y57.834
G0 X50.416 Y55.971
G0 X51.544 Y53.821
G0 X51.747 Y54.004
G1 F2400 E25.10777
G1 F1800 X50.681 Y55.851 E25.18939
G1 X50.022 Y57.879 E25.27099
G1 X49.799 Y60 E25.35261
G1 X50.022 Y62.121 E25.43423
G1 X50.681 Y64.149 E25.51583
G1 X51.747 Y65.996 E25.59745
G1 X53.174 Y67.58 E25.67904
G1 X54.899 Y68.834 E25.76065
G1 X56.848 Y69.702 E25.8423
G1 X58.934 Y70.145 E25.92392
G1 X61.066 Y70.145 E26.00551
G1 X63.152 Y69.702 E26.08712
G1 X65.101 Y68.834 E26.16877
G1 X66.826 Y67.58 E26.25039
G1 X68.253 Y65.996 E26.33198
G1 X69.319 Y64.149 E26.41359
G1 X69.978 Y62.121 E26.4952
G1 X70.201 Y60 E26.57681
G1 X69.978 Y57.879 E26.65843
G1 X69.319 Y55.851 E26.74004
G1 X68.253 Y54.004 E26.82165
G1 X66.826 Y52.42 E26.90324
G1 X65.101 Y51.166 E26.98486
G1 X63.152 Y50.298 E27.06651
G1 X61.066 Y49.855 E27.14812
G1 X58.934 Y49.855 E27.22971
G1 X56.848 Y50.298 E27.31132
G1 X54.899 Y51.166 E27.39297
G1 X53.174 Y52.42 E27.47459
G1 X52.211 Y53.489 E27.52965
G0 F1620 X51.747 Y54.004
G0 F4320 X51.647 Y54.177
G1 F2400 E25.02965
G0 F4320 X51.411 Y54.038
G0 X52.511 Y51.872
G0 X53.753 Y53.067
G0 X47.759 Y47.669
G0 X49.254 Y48.628
G0 X48.702 Y46.726
G0 X48.094 Y46.198
G0 X47.297 Y46.085
G0 X46.477 Y46.437
G0 X46.708 Y46.586
G1 F2400 E27.52965
G1 F1800 X46.341 Y47.159 E27.55569
G1 X46.341 Y47.841 E27.58179
G1 X46.708 Y48.414 E27.60783
G1 X47.328 Y48.696 E27.6339
G1 X48.002 Y48.6 E27.65995
G1 X48.516 Y48.154 E27.686
G1 X48.708 Y47.5 E27.71208
G1 X48.516 Y46.846 E27.73817
G1 X48.002 Y46.4 E27.76421
G1 X47.328 Y46.304 E27.79027
G1 X47.165 Y46.378 E27.79712
G0 F1620 X46.708 Y46.586
G0 F4320 X46.601 Y46.754
G1 F2400 E25.29712
G0 F4320 X46.37 Y46.604
G0 X47.297 Y46.085
G0 X48.094 Y46.198
G0 X49.585 Y47.5
G0 X47.808 Y47.5
G0 X72.204 Y47.412
G0 X70.5 Y46.913
G0 X71.477 Y46.437
G0 X71.708 Y46.586
G1 F2400 E27.79712
G1 F1800 X71.341 Y47.159 E27.82316
G1 X71.341 Y47.841 E27.84926
G1 X71.708 Y48.414 E27.8753
G1 X72.328 Y48.696 E27.90136
G1 X73.002 Y48.6 E27.92742
G1 X73.516 Y48.154 E27.95346
G1 X73.708 Y47.5 E27.97955
G1 X73.516 Y46.846 E28.00563
G1 X73.002 Y46.4 E28.03168
G1 X72.328 Y46.304 E28.05773
G1 X72.165 Y46.378 E28.06458
G0 F1620 X71.708 Y46.586
G0 F4320 X71.601 Y46.754
G1 F2400 E25.56458
G0 F4320 X71.37 Y46.604
G0 X72.203 Y45.436
G0 X72.455 Y47.194
G0 X77.977 Y29.214
G0 X76.963 Y30.611
G0 X70.669 Y27.167
G0 X70.755 Y26.905
G1 F2400 E28.06458
G1 F1800 X77.398 Y29.863 E28.34287
G1 X83.285 Y34.14 E28.62135
G1 X88.155 Y39.548 E28.89986
G1 X91.79 Y45.846 E29.17815
G1 X94.038 Y52.764 E29.45653
G1 X94.799 Y60 E29.73498
G1 X94.038 Y67.236 E30.01343
G1 X91.79 Y74.154 E30.29181
G1 X88.155 Y80.452 E30.57009
G1 X83.285 Y85.86 E30.84861
G1 X77.398 Y90.137 E31.12708
G1 X70.755 Y93.095 E31.40538
G1 X63.635 Y94.608 E31.68394
G1 X56.365 Y94.608 E31.96216
G1 X49.245 Y93.095 E32.24073
G1 X42.602 Y90.137 E32.51902
G1 X36.715 Y85.86 E32.7975
G1 X31.845 Y80.452 E33.07601
G1 X28.21 Y74.154 E33.3543
G1 X25.962 Y67.236 E33.63268
G1 X25.201 Y60 E33.91113
G1 X25.962 Y52.764 E34.18958
G1 X28.21 Y45.846 E34.46795
G1 X31.845 Y39.548 E34.74624
G1 X36.715 Y34.14 E35.02476
G1 X42.602 Y29.863 E35.30323
G1 X49.245 Y26.905 E35.58152
G1 X56.365 Y25.392 E35.86009
G1 X63.635 Y25.392 E36.13831
G1 X70.077 Y26.761 E36.39035
G0 F1620 X70.755 Y26.905
G0 F4320 X70.937 Y26.986
G0 X70.825 Y27.237
G0 X70.435 Y27.874
;TYPE:SKIN
G1 F1800 X76.887 Y30.748 E36.66066
G1 X82.603 Y34.9 E36.93103
G1 X87.331 Y40.15 E37.20141
G1 X90.858 Y46.259 E37.47137
G1 X93.041 Y52.976 E37.74167
G1 X93.778 Y60 E38.01195
G1 X93.041 Y67.024 E38.28223
G1 X90.858 Y73.741 E38.55253
G1 X87.331 Y79.85 E38.82249
G1 X82.603 Y85.1 E39.09287
G1 X76.887 Y89.252 E39.36324
G1 X70.435 Y92.126 E39.63355
G1 X63.533 Y93.593 E39.90359
G1 X56.467 Y93.593 E40.174
G1 X49.565 Y92.126 E40.44404
G1 X43.113 Y89.252 E40.71435
G1 X37.397 Y85.1 E40.98472
G1 X32.669 Y79.85 E41.2551
G1 X29.142 Y73.741 E41.52506
G1 X26.959 Y67.024 E41.79535
G1 X26.222 Y60 E42.06564
G1 X26.959 Y52.976 E42.33592
G1 X29.142 Y46.259 E42.60621
G1 X32.669 Y40.15 E42.87617
G1 X37.397 Y34.9 E43.14656
G1 X43.113 Y30.748 E43.41693
G1 X49.565 Y27.874 E43.68723
G1 X56.467 Y26.407 E43.95727
G1 X63.533 Y26.407 E44.22769
G1 X69.757 Y27.73 E44.4712
G0 F1620 X70.435 Y27.874
G1 F2400 E41.9712
G0 F4320 X70.488 Y27.626
G0 X76.963 Y30.611
G0 X77.977 Y29.214
G0 X72.63 Y47.219
G0 X73.366 Y45.603
G0 X72.216 Y45.52
G0 X72.178 Y45.258
G1 F2400 E44.4712
G1 F1800 X71.014 Y45.786 E44.52012
G1 X70.326 Y46.863 E44.56903
G1 X70.326 Y48.137 E44.61778
G1 X71.014 Y49.214 E44.66669
G1 X72.178 Y49.742 E44.71561
G1 X73.441 Y49.563 E44.76442
G1 X74.406 Y48.726 E44.81331
G1 X74.766 Y47.5 E44.86221
G1 X74.406 Y46.274 E44.91111
G1 X73.441 Y45.437 E44.96
G1 X72.865 Y45.355 E44.98226
G0 F1620 X72.178 Y45.258
G1 F2400 E42.48226
G0 F4320 X72.216 Y45.52
G0 X70.5 Y46.913
G0 X72.204 Y47.412
G0 X64.665 Y51.918
G0 X65.523 Y50.434
G0 X63.389 Y49.57
G0 X63.467 Y49.327
G1 F2400 E44.98226
G1 F1800 X61.172 Y48.84 E45.07205
G1 X58.828 Y48.84 E45.16175
G1 X56.533 Y49.327 E45.25154
G1 X54.389 Y50.282 E45.34136
G1 X52.491 Y51.661 E45.43114
G1 X50.922 Y53.404 E45.52089
G1 X49.748 Y55.436 E45.6107
G1 X49.024 Y57.666 E45.70043
G1 X48.778 Y60 E45.79025
G1 X49.024 Y62.334 E45.88006
G1 X49.748 Y64.564 E45.96979
G1 X50.922 Y66.596 E46.0596
G1 X52.491 Y68.339 E46.14935
G1 X54.389 Y69.718 E46.23914
G1 X56.533 Y70.673 E46.32896
G1 X58.828 Y71.16 E46.41874
G1 X61.172 Y71.16 E46.50845
G1 X63.467 Y70.673 E46.59823
G1 X65.611 Y69.718 E46.68806
G1 X67.509 Y68.339 E46.77784
G1 X69.078 Y66.596 E46.86759
G1 X70.252 Y64.564 E46.9574
G1 X70.976 Y62.334 E47.04713
G1 X71.222 Y60 E47.13694
G1 X70.976 Y57.666 E47.22676
G1 X70.252 Y55.436 E47.31649
G1 X69.078 Y53.404 E47.4063
G1 X67.509 Y51.661 E47.49605
G1 X65.611 Y50.282 E47.58583
G1 X64.1 Y49.609 E47.64913
G0 F1620 X63.467 Y49.327
G1 F2400 E45.14913
G0 F4320 X63.389 Y49.57
G0 X56.587 Y49.494
G0 X57.117 Y51.124
G0 X47.808 Y47.5
G0 X49.585 Y47.5
G0 X49.182 Y46.416
G0 X49.406 Y46.274
G1 F2400 E47.64913
G1 F1800 X48.441 Y45.437 E47.69802
G1 X47.178 Y45.258 E47.74684
G1 X46.014 Y45.786 E47.79575
G1 X45.326 Y46.863 E47.84466
G1 X45.326 Y48.137 E47.89342
G1 X46.014 Y49.214 E47.94233
G1 X47.178 Y49.742 E47.99124
