;FLAVOR:Marlin
;TIME:11001
;Filament used: 5.41751m
;Layer height: 0.175
;MINX:25.201
;MINY:25.392
;MINZ:0.263
;MAXX:94.799
;MAXY:94.608
;MAXZ:4.938
;Generated with Cura_SteamEngine 4.8.0
M140 S65
M105
M190 S65
M104 S195
M105
M109 S195
M82 ;absolute extrusion mode
G21;(metric values)
G90;(absolute positioning)
M82;(set extruder to absolute mode)
M107;(start with the fan off)
G28;(Home the printer)
G92 E0;(Reset the extruder to 0)
G0 Z5 E5 F500;(Move up and prime the nozzle)
G0 X-1 Z0;(Move outside the printable area)
G1 Y60 E8 F500;(Draw a priming/wiping line to the rear)
G1 X-1;(Move a little closer to the print area)
G1 Y10 E16 F500;(draw more priming/wiping)
G1 E15 F250;(Small retract)
G92 E0;(Zero the extruder)
G92 E0
G92 E0
G1 F2400 E-2.5
;LAYER_COUNT:22
;LAYER:0
M107
G1 F600 Z1.263
;MESH:backplate.stl
G0 F4320 X45.921 Y45.676 Z1.263
;TYPE:WALL-INNER
G1 F600 Z0.263
G1 F2400 E0
G1 F1800 X45.186 Y46.82 E0.05204
G1 X45.186 Y48.18 E0.10409
G1 X45.921 Y49.324 E0.15612
G1 X47.157 Y49.887 E0.2081
G1 X48.503 Y49.694 E0.26014
G1 X49.529 Y48.804 E0.31212
G1 X49.912 Y47.5 E0.36413
G1 X49.529 Y46.196 E0.41614
G1 X48.503 Y45.306 E0.46812
G1 X47.157 Y45.113 E0.52016
G1 X46.552 Y45.389 E0.54561
G0 F1620 X45.921 Y45.676
G1 F2400 E-1.95439
G1 F600 Z1.263
G0 F4320 X46.069 Y45.789 Z1.263
G0 X46.912 Y57.218
G1 F600 Z0.263
G1 F2400 E0.54561
G1 F1800 X46.62 Y60 E0.65266
G1 X46.912 Y62.782 E0.75971
G1 X47.777 Y65.442 E0.86676
G1 X49.175 Y67.864 E0.97378
G1 X51.047 Y69.943 E1.08084
G1 X53.31 Y71.587 E1.18789
G1 X55.865 Y72.725 E1.29493
G1 X58.601 Y73.307 E1.40198
G1 X61.399 Y73.307 E1.50906
G1 X64.135 Y72.725 E1.61611
G1 X66.69 Y71.587 E1.72315
G1 X68.953 Y69.943 E1.83019
G1 X70.825 Y67.864 E1.93726
G1 X72.223 Y65.442 E2.04428
G1 X73.088 Y62.782 E2.15133
G1 X73.38 Y60 E2.25838
G1 X73.088 Y57.218 E2.36543
G1 X72.223 Y54.558 E2.47247
G1 X70.825 Y52.136 E2.5795
G1 X68.953 Y50.057 E2.68656
G1 X66.69 Y48.413 E2.79361
G1 X64.135 Y47.275 E2.90065
G1 X61.399 Y46.693 E3.0077
G1 X58.601 Y46.693 E3.11478
G1 X55.865 Y47.275 E3.22183
G1 X53.31 Y48.413 E3.32887
G1 X51.047 Y50.057 E3.43591
G1 X49.175 Y52.136 E3.54298
G1 X47.777 Y54.558 E3.65
G1 X47.126 Y56.558 E3.73049
G0 F1620 X46.912 Y57.218
G1 F2400 E1.23049
G1 F600 Z1.263
G0 F4320 X47.062 Y57.25 Z1.263
G0 X45.921 Y70.676
G1 F600 Z0.263
G1 F2400 E3.73049
G1 F1800 X45.186 Y71.82 E3.78253
G1 X45.186 Y73.18 E3.83458
G1 X45.921 Y74.324 E3.88661
G1 X47.157 Y74.887 E3.93859
G1 X48.503 Y74.694 E3.99063
G1 X49.529 Y73.804 E4.04261
G1 X49.912 Y72.5 E4.09462
G1 X49.529 Y71.196 E4.14663
G1 X48.503 Y70.306 E4.19861
G1 X47.157 Y70.113 E4.25065
G1 X46.552 Y70.389 E4.2761
G0 F1620 X45.921 Y70.676
G1 F2400 E1.7761
G1 F600 Z1.263
G0 F4320 X46.069 Y70.789 Z1.263
G0 X70.921 Y70.676
G1 F600 Z0.263
G1 F2400 E4.2761
G1 F1800 X70.186 Y71.82 E4.32814
G1 X70.186 Y73.18 E4.38018
G1 X70.921 Y74.324 E4.43222
G1 X72.157 Y74.887 E4.4842
G1 X73.503 Y74.694 E4.53624
G1 X74.529 Y73.804 E4.58822
G1 X74.912 Y72.5 E4.64023
G1 X74.529 Y71.196 E4.69224
G1 X73.503 Y70.306 E4.74422
G1 X72.157 Y70.113 E4.79626
G1 X71.552 Y70.389 E4.82171
G0 F1620 X70.921 Y70.676
G1 F2400 E2.32171
G1 F600 Z1.263
G0 F4320 X71.069 Y70.789 Z1.263
G0 X70.921 Y45.676
G1 F600 Z0.263
G1 F2400 E4.82171
G1 F1800 X70.186 Y46.82 E4.87375
G1 X70.186 Y48.18 E4.92579
G1 X70.921 Y49.324 E4.97783
G1 X72.157 Y49.887 E5.02981
G1 X73.503 Y49.694 E5.08185
G1 X74.529 Y48.804 E5.13383
G1 X74.912 Y47.5 E5.18584
G1 X74.529 Y46.196 E5.23785
G1 X73.503 Y45.306 E5.28983
G1 X72.157 Y45.113 E5.34187
G1 X71.552 Y45.389 E5.36732
G0 F1620 X70.921 Y45.676
G1 F2400 E2.86732
G1 F600 Z1.263
G0 F4320 X71.069 Y45.789 Z1.263
G0 X70.545 Y27.55
G1 F600 Z0.263
G1 F2400 E5.36732
G1 F1800 X77.058 Y30.451 E5.64018
G1 X82.831 Y34.645 E5.91326
G1 X87.608 Y39.949 E6.18643
G1 X91.169 Y46.119 E6.45906
G1 X93.375 Y52.906 E6.73217
G1 X94.12 Y60 E7.00515
G1 X93.375 Y67.094 E7.27813
G1 X91.169 Y73.881 E7.55125
G1 X87.608 Y80.051 E7.82388
G1 X82.831 Y85.355 E8.09705
G1 X77.058 Y89.549 E8.37013
G1 X70.545 Y92.45 E8.64299
G1 X63.565 Y93.933 E8.91608
G1 X56.435 Y93.933 E9.18894
G1 X49.455 Y92.45 E9.46203
G1 X42.942 Y89.549 E9.73489
G1 X37.169 Y85.355 E10.00797
G1 X32.392 Y80.051 E10.28114
G1 X28.831 Y73.881 E10.55377
G1 X26.625 Y67.094 E10.82689
G1 X25.88 Y60 E11.09987
G1 X26.625 Y52.906 E11.37285
G1 X28.831 Y46.119 E11.64596
G1 X32.392 Y39.949 E11.91859
G1 X37.169 Y34.645 E12.19177
G1 X42.942 Y30.451 E12.46485
G1 X49.455 Y27.55 E12.73771
G1 X56.435 Y26.067 E13.01079
G1 X63.565 Y26.067 E13.28366
G1 X69.867 Y27.406 E13.53022
G0 F1620 X70.545 Y27.55
G0 F4320 X70.655 Y27.216
G1 F1800 X77.234 Y30.146 E13.80584
G1 X83.066 Y34.383 E14.08171
G1 X87.893 Y39.743 E14.35776
G1 X91.491 Y45.977 E14.63322
G1 X93.719 Y52.832 E14.90907
G1 X94.472 Y60 E15.18489
G1 X93.719 Y67.168 E15.46072
G1 X91.491 Y74.023 E15.73657
G1 X87.893 Y80.257 E16.01203
G1 X83.066 Y85.617 E16.28808
G1 X77.234 Y89.854 E16.56395
G1 X70.655 Y92.784 E16.83957
G1 X63.6 Y94.283 E17.11559
G1 X56.4 Y94.283 E17.39114
G1 X49.345 Y92.784 E17.66716
G1 X42.766 Y89.854 E17.94278
G1 X36.934 Y85.617 E18.21865
G1 X32.107 Y80.257 E18.4947
G1 X28.509 Y74.023 E18.77016
G1 X26.281 Y67.168 E19.046
G1 X25.528 Y60 E19.32183
G1 X26.281 Y52.832 E19.59766
G1 X28.509 Y45.977 E19.87351
G1 X32.107 Y39.743 E20.14897
G1 X36.934 Y34.383 E20.42502
G1 X42.766 Y30.146 E20.70089
G1 X49.345 Y27.216 E20.97651
G1 X56.4 Y25.717 E21.25253
G1 X63.6 Y25.717 E21.52807
G1 X69.977 Y27.072 E21.77757
G0 F1620 X70.655 Y27.216
G1 F2400 E19.27757
G1 F600 Z1.263
G0 F4320 X70.596 Y27.395 Z1.263
G0 X71.16 Y45.952
G1 F600 Z0.263
G1 F2400 E21.77757
G1 F1800 X70.536 Y46.923 E21.82174
G1 X70.536 Y48.077 E21.86591
G1 X71.16 Y49.048 E21.91008
G1 X72.209 Y49.526 E21.95419
G1 X73.351 Y49.362 E21.99835
G1 X74.222 Y48.607 E22.04246
G1 X74.547 Y47.5 E22.08661
G1 X74.222 Y46.393 E22.13077
G1 X73.351 Y45.638 E22.17488
G1 X72.209 Y45.474 E22.21903
G1 X71.791 Y45.665 E22.23662
G0 F1620 X71.16 Y45.952
G1 F2400 E19.73662
G1 F600 Z1.263
G0 F4320 X71.034 Y45.806 Z1.263
G0 X71.16 Y70.952
G1 F600 Z0.263
G1 F2400 E22.23662
G1 F1800 X70.536 Y71.923 E22.28079
G1 X70.536 Y73.077 E22.32495
G1 X71.16 Y74.048 E22.36913
G1 X72.209 Y74.526 E22.41324
G1 X73.351 Y74.362 E22.45739
G1 X74.222 Y73.607 E22.50151
G1 X74.547 Y72.5 E22.54566
G1 X74.222 Y71.393 E22.58981
G1 X73.351 Y70.638 E22.63393
G1 X72.209 Y70.474 E22.67808
G1 X71.791 Y70.665 E22.69567
G0 F1620 X71.16 Y70.952
G1 F2400 E20.19567
G1 F600 Z1.263
G0 F4320 X71.034 Y70.806 Z1.263
G0 X46.16 Y70.952
G1 F600 Z0.263
G1 F2400 E22.69567
G1 F1800 X45.536 Y71.923 E22.73984
G1 X45.536 Y73.077 E22.784
G1 X46.16 Y74.048 E22.82817
G1 X47.209 Y74.526 E22.87229
G1 X48.351 Y74.362 E22.91644
G1 X49.222 Y73.607 E22.96056
G1 X49.547 Y72.5 E23.00471
G1 X49.222 Y71.393 E23.04886
G1 X48.351 Y70.638 E23.09297
G1 X47.209 Y70.474 E23.13713
G1 X46.791 Y70.665 E23.15472
G0 F1620 X46.16 Y70.952
G1 F2400 E20.65472
G1 F600 Z1.263
G0 F4320 X46.034 Y70.806 Z1.263
G0 X47.256 Y57.291
G1 F600 Z0.263
G1 F2400 E23.15472
G1 F1800 X46.972 Y60 E23.25896
G1 X47.256 Y62.709 E23.3632
G1 X48.098 Y65.299 E23.46742
G1 X49.46 Y67.657 E23.57164
G1 X51.282 Y69.681 E23.67586
G1 X53.486 Y71.282 E23.78011
G1 X55.974 Y72.39 E23.88434
G1 X58.638 Y72.957 E23.98857
G1 X61.362 Y72.957 E24.09282
G1 X64.026 Y72.39 E24.19705
G1 X66.514 Y71.282 E24.30129
G1 X68.718 Y69.681 E24.40554
G1 X70.54 Y67.657 E24.50976
G1 X71.902 Y65.299 E24.61397
G1 X72.744 Y62.709 E24.7182
G1 X73.028 Y60 E24.82244
G1 X72.744 Y57.291 E24.92668
G1 X71.902 Y54.701 E25.0309
G1 X70.54 Y52.343 E25.13512
G1 X68.718 Y50.319 E25.23934
G1 X66.514 Y48.718 E25.34359
G1 X64.026 Y47.61 E25.44782
G1 X61.362 Y47.043 E25.55205
G1 X58.638 Y47.043 E25.6563
G1 X55.974 Y47.61 E25.76054
G1 X53.486 Y48.718 E25.86477
G1 X51.282 Y50.319 E25.96902
G1 X49.46 Y52.343 E26.07324
G1 X48.098 Y54.701 E26.17745
G1 X47.47 Y56.631 E26.25512
G0 F1620 X47.256 Y57.291
G1 F2400 E23.75512
G1 F600 Z1.263
G0 F4320 X47.074 Y57.251 Z1.263
G0 X46.16 Y45.952
G1 F600 Z0.263
G1 F2400 E26.25512
G1 F1800 X45.536 Y46.923 E26.29929
G1 X45.536 Y48.077 E26.34346
G1 X46.16 Y49.048 E26.38763
G1 X47.209 Y49.526 E26.43175
G1 X48.351 Y49.362 E26.4759
G1 X49.222 Y48.607 E26.52001
G1 X49.547 Y47.5 E26.56416
G1 X49.222 Y46.393 E26.60832
G1 X48.351 Y45.638 E26.65243
G1 X47.209 Y45.474 E26.69658
G1 X46.791 Y45.665 E26.71417
G0 F1620 X46.16 Y45.952
G0 F4320 X45.631 Y46.869
G0 X45.861 Y47.018
;TYPE:WALL-OUTER
G1 F1800 X45.861 Y47.982 E26.75106
G1 X46.382 Y48.792 E26.78792
G1 X47.257 Y49.191 E26.82472
G1 X48.21 Y49.054 E26.86157
G1 X48.937 Y48.424 E26.89839
G1 X49.208 Y47.5 E26.93524
G1 X48.937 Y46.576 E26.97209
G1 X48.21 Y45.946 E27.0089
G1 X47.257 Y45.809 E27.04575
G1 X46.382 Y46.208 E27.08255
G1 X46.236 Y46.435 E27.09288
G0 F1620 X45.861 Y47.018
G0 F4320 X45.861 Y47.218
G1 F2400 E24.59288
G1 F600 Z1.263
G0 F4320 X45.351 Y47.218 Z1.263
G0 X47.576 Y57.359
G1 F600 Z0.263
G1 F2400 E27.09288
G1 F1800 X47.299 Y60 E27.19451
G1 X47.576 Y62.641 E27.29613
G1 X48.397 Y65.166 E27.39774
G1 X49.724 Y67.465 E27.49933
G1 X51.501 Y69.438 E27.60095
G1 X53.649 Y70.999 E27.70257
G1 X56.075 Y72.079 E27.80419
G1 X58.672 Y72.632 E27.90581
G1 X61.328 Y72.632 E28.00745
G1 X63.925 Y72.079 E28.10907
G1 X66.351 Y70.999 E28.2107
G1 X68.499 Y69.438 E28.31231
G1 X70.276 Y67.465 E28.41393
G1 X71.603 Y65.166 E28.51552
G1 X72.424 Y62.641 E28.61713
G1 X72.701 Y60 E28.71875
G1 X72.424 Y57.359 E28.82038
G1 X71.603 Y54.834 E28.92199
G1 X70.276 Y52.535 E29.02358
G1 X68.499 Y50.562 E29.1252
G1 X66.351 Y49.001 E29.22681
G1 X63.925 Y47.921 E29.32844
G1 X61.328 Y47.368 E29.43006
G1 X58.672 Y47.368 E29.5317
G1 X56.075 Y47.921 E29.63332
G1 X53.649 Y49.001 E29.73494
G1 X51.501 Y50.562 E29.83656
G1 X49.724 Y52.535 E29.93818
G1 X48.397 Y54.834 E30.03977
G1 X47.79 Y56.699 E30.11483
G0 F1620 X47.576 Y57.359
G0 F4320 X47.556 Y57.557
G1 F2400 E27.61483
G1 F600 Z1.263
G0 F4320 X47.047 Y57.503 Z1.263
G0 X45.861 Y72.018
G1 F600 Z0.263
G1 F2400 E30.11483
G1 F1800 X45.861 Y72.982 E30.15172
G1 X46.382 Y73.792 E30.18857
G1 X47.257 Y74.191 E30.22538
G1 X48.21 Y74.054 E30.26222
G1 X48.937 Y73.424 E30.29904
G1 X49.208 Y72.5 E30.33589
G1 X48.937 Y71.576 E30.37274
G1 X48.21 Y70.946 E30.40956
G1 X47.257 Y70.809 E30.4464
G1 X46.382 Y71.208 E30.48321
G1 X46.236 Y71.435 E30.49354
G0 F1620 X45.861 Y72.018
G0 F4320 X45.861 Y72.218
G1 F2400 E27.99354
G1 F600 Z1.263
G0 F4320 X45.351 Y72.218 Z1.263
G0 X70.861 Y72.018
G1 F600 Z0.263
G1 F2400 E30.49354
G1 F1800 X70.861 Y72.982 E30.53043
G1 X71.382 Y73.792 E30.56729
G1 X72.257 Y74.191 E30.60409
G1 X73.21 Y74.054 E30.64093
G1 X73.937 Y73.424 E30.67775
G1 X74.208 Y72.5 E30.7146
G1 X73.937 Y71.576 E30.75145
G1 X73.21 Y70.946 E30.78827
G1 X72.257 Y70.809 E30.82511
G1 X71.382 Y71.208 E30.86192
G1 X71.236 Y71.435 E30.87225
G0 F1620 X70.861 Y72.018
G0 F4320 X70.861 Y72.218
G1 F2400 E28.37225
G1 F600 Z1.263
G0 F4320 X70.351 Y72.218 Z1.263
G0 X70.861 Y47.018
G1 F600 Z0.263
G1 F2400 E30.87225
G1 F1800 X70.861 Y47.982 E30.90914
G1 X71.382 Y48.792 E30.946
G1 X72.257 Y49.191 E30.9828
G1 X73.21 Y49.054 E31.01965
G1 X73.937 Y48.424 E31.05646
G1 X74.208 Y47.5 E31.09331
G1 X73.937 Y46.576 E31.13016
G1 X73.21 Y45.946 E31.16698
G1 X72.257 Y45.809 E31.20382
G1 X71.382 Y46.208 E31.24063
G1 X71.236 Y46.435 E31.25096
G0 F1620 X70.861 Y47.018
G0 F4320 X70.861 Y47.218
G1 F2400 E28.75096
G1 F600 Z1.263
G0 F4320 X70.351 Y47.218 Z1.263
G0 X70.755 Y26.905
G1 F600 Z0.263
G1 F2400 E31.25096
G1 F1800 X77.398 Y29.863 E31.52925
G1 X83.285 Y34.14 E31.80772
G1 X88.155 Y39.548 E32.08624
G1 X91.79 Y45.846 E32.36453
G1 X94.038 Y52.764 E32.64291
G1 X94.799 Y60 E32.92135
G1 X94.038 Y67.236 E33.1998
G1 X91.79 Y74.154 E33.47818
G1 X88.155 Y80.452 E33.75647
G1 X83.285 Y85.86 E34.03498
G1 X77.398 Y90.137 E34.31346
G1 X70.755 Y93.095 E34.59175
G1 X63.635 Y94.608 E34.87032
G1 X56.365 Y94.608 E35.14854
G1 X49.245 Y93.095 E35.42711
G1 X42.602 Y90.137 E35.7054
G1 X36.715 Y85.86 E35.98387
G1 X31.845 Y80.452 E36.26239
G1 X28.21 Y74.154 E36.54068
G1 X25.962 Y67.236 E36.81905
G1 X25.201 Y60 E37.0975
G1 X25.962 Y52.764 E37.37595
G1 X28.21 Y45.846 E37.65433
G1 X31.845 Y39.548 E37.93262
G1 X36.715 Y34.14 E38.21113
G1 X42.602 Y29.863 E38.48961
G1 X49.245 Y26.905 E38.7679
G1 X56.365 Y25.392 E39.04647
G1 X63.635 Y25.392 E39.32469
G1 X70.077 Y26.761 E39.57673
G0 F1620 X70.755 Y26.905
G0 F4320 X70.937 Y26.986
G0 X70.825 Y27.237
G0 X70.435 Y27.874
;TYPE:SKIN
G1 F1800 X76.887 Y30.748 E39.84704
G1 X82.603 Y34.9 E40.11741
G1 X87.331 Y40.15 E40.38779
G1 X90.858 Y46.259 E40.65775
G1 X93.041 Y52.976 E40.92804
G1 X93.778 Y60 E41.19833
G1 X93.041 Y67.024 E41.46861
G1 X90.858 Y73.741 E41.7389
G1 X87.331 Y79.85 E42.00886
G1 X82.603 Y85.1 E42.27924
G1 X76.887 Y89.252 E42.54961
G1 X70.435 Y92.126 E42.81992
G1 X63.533 Y93.593 E43.08996
G1 X56.467 Y93.593 E43.36038
G1 X49.565 Y92.126 E43.63042
G1 X43.113 Y89.252 E43.90072
G1 X37.397 Y85.1 E44.17109
G1 X32.669 Y79.85 E44.44148
G1 X29.142 Y73.741 E44.71143
G1 X26.959 Y67.024 E44.98173
G1 X26.222 Y60 E45.25201
G1 X26.959 Y52.976 E45.5223
G1 X29.142 Y46.259 E45.79259
G1 X32.669 Y40.15 E46.06255
G1 X37.397 Y34.9 E46.33293
G1 X43.113 Y30.748 E46.6033
G1 X49.565 Y27.874 E46.87361
G1 X56.467 Y26.407 E47.14365
G1 X63.533 Y26.407 E47.41406
G1 X69.757 Y27.73 E47.65758
G0 F1620 X70.435 Y27.874
G1 F2400 E45.15758
G1 F600 Z1.263
G0 F4320 X70.537 Y27.395 Z1.263
G0 X72.107 Y44.762
G1 F600 Z0.263
G1 F2400 E47.65758
G1 F1800 X70.689 Y45.408 E47.71721
G1 X69.846 Y46.721 E47.77692
G1 X69.846 Y48.279 E47.83655
G1 X70.689 Y49.592 E47.89626
G1 X72.107 Y50.238 E47.9559
G1 X73.65 Y50.016 E48.01555
G1 X74.827 Y48.996 E48.07516
G1 X75.266 Y47.5 E48.13482
G1 X74.827 Y46.004 E48.19449
G1 X73.65 Y44.984 E48.25409
G1 X72.794 Y44.86 E48.2872
G0 F1620 X72.107 Y44.762
G1 F2400 E45.7872
G1 F600 Z1.263
G0 F4320 X72.185 Y45.281 Z1.263
G0 X64.24 Y46.95
G1 F600 Z0.263
G1 F2400 E48.2872
G1 F1800 X61.434 Y46.353 E48.39698
G1 X58.566 Y46.353 E48.50674
G1 X55.76 Y46.95 E48.61653
G1 X53.139 Y48.117 E48.72633
G1 X50.818 Y49.803 E48.83612
G1 X48.899 Y51.935 E48.94589
G1 X47.464 Y54.418 E49.05564
G1 X46.578 Y57.147 E49.16545
G1 X46.278 Y60 E49.27524
G1 X46.578 Y62.853 E49.38502
G1 X47.464 Y65.582 E49.49483
G1 X48.899 Y68.065 E49.60458
G1 X50.818 Y70.197 E49.71435
G1 X53.139 Y71.883 E49.82414
G1 X55.76 Y73.05 E49.93394
G1 X58.566 Y73.647 E50.04373
G1 X61.434 Y73.647 E50.15349
G1 X64.24 Y73.05 E50.26328
G1 X66.861 Y71.883 E50.37307
G1 X69.182 Y70.197 E50.48286
G1 X71.101 Y68.065 E50.59264
G1 X72.536 Y65.582 E50.70239
G1 X73.422 Y62.853 E50.81219
G1 X73.722 Y60 E50.92198
G1 X73.422 Y57.147 E51.03177
G1 X72.536 Y54.418 E51.14157
G1 X71.101 Y51.935 E51.25132
G1 X69.182 Y49.803 E51.3611
G1 X66.861 Y48.117 E51.47088
G1 X64.874 Y47.232 E51.55413
G0 F1620 X64.24 Y46.95
G1 F2400 E49.05413
G1 F600 Z1.263
G0 F4320 X64.087 Y47.422 Z1.263
G0 X49.827 Y46.004
G1 F600 Z0.263
G1 F2400 E51.55413
G1 F1800 X48.65 Y44.984 E51.61373
G1 X47.107 Y44.762 E51.67339
G1 X45.689 Y45.408 E51.73302
G1 X44.846 Y46.721 E51.79274
G1 X44.846 Y48.279 E51.85236
G1 X45.689 Y49.592 E51.91208
G1 X47.107 Y50.238 E51.97171
G1 X48.65 Y50.016 E52.03137
G1 X49.827 Y48.996 E52.09097
G1 X50.266 Y47.5 E52.15064
G1 X50.022 Y46.669 E52.18378
G0 F1620 X49.827 Y46.004
G1 F2400 E49.68378
G1 F600 Z1.263
G0 F4320 X49.383 Y46.284 Z1.263
G0 X48.65 Y69.984
G1 F600 Z0.263
G1 F2400 E52.18378
G1 F1800 X47.107 Y69.762 E52.24344
G1 X45.689 Y70.408 E52.30307
G1 X44.846 Y71.721 E52.36279
G1 X44.846 Y73.279 E52.42241
G1 X45.689 Y74.592 E52.48213
G1 X47.107 Y75.238 E52.54176
G1 X48.65 Y75.016 E52.60142
G1 X49.827 Y73.996 E52.66102
G1 X50.266 Y72.5 E52.72069
G1 X49.827 Y71.004 E52.78035
G1 X49.174 Y70.438 E52.81342
G0 F1620 X48.65 Y69.984
G1 F2400 E50.31342
G1 F600 Z1.263
G0 F4320 X48.436 Y70.463 Z1.263
G0 X72.107 Y69.762
G1 F600 Z0.263
G1 F2400 E52.81342
G1 F1800 X70.689 Y70.408 E52.87306
G1 X69.846 Y71.721 E52.93277
G1 X69.846 Y73.279 E52.9924
G1 X70.689 Y74.592 E53.05211
G1 X72.107 Y75.238 E53.11174
G1 X73.65 Y75.016 E53.1714
G1 X74.827 Y73.996 E53.23101
G1 X75.266 Y72.5 E53.29067
G1 X74.827 Y71.004 E53.35034
G1 X73.65 Y69.984 E53.40994
