;FLAVOR:Marlin
;TIME:10977
;Filament used: 6.02344m
;Layer height: 0.175
;MINX:17.405
;MINY:30.629
;MINZ:0.263
;MAXX:97.555
;MAXY:82.089
;MAXZ:14.963
;Generated with Cura_SteamEngine 4.13.0
M140 S65
M105
M190 S65
M104 S205
M105
M109 S205
M82 ;absolute extrusion mode
G21;(metric values)
G90;(absolute positioning)
M82;(set extruder to absolute mode)
M107;(start with the fan off)
G28;(Home the printer)
G92 E0;(Reset the extruder to 0)
G0 Z5 E5 F500;(Move up and prime the nozzle)
G0 X-1 Z0;(Move outside the printable area)
G1 Y60 E8 F500;(Draw a priming/wiping line to the rear)
G1 X-1;(Move a little closer to the print area)
G1 Y10 E16 F500;(draw more priming/wiping)
G1 E15 F250;(Small retract)
G92 E0;(Zero the extruder)
G92 E0
G92 E0
G1 F2400 E-2.5
;LAYER_COUNT:85
;LAYER:0
M107
G0 F4320 X19.758 Y31.421 Z0.263
;TYPE:SKIRT
G1 F2400 E0
G1 F1800 X20.315 Y31.114 E0.02434
G1 X20.907 Y30.879 E0.04872
G1 X21.524 Y30.72 E0.0731
G1 X22.156 Y30.639 E0.09748
G1 X22.48 Y30.629 E0.10989
G1 X79.485 Y30.63 E2.29147
G1 X80.156 Y30.675 E2.3172
G1 X80.936 Y30.779 E2.34732
G1 X81.56 Y30.902 E2.37166
G1 X82.214 Y31.123 E2.39808
G1 X82.928 Y31.42 E2.42767
G1 X83.5 Y31.701 E2.45206
G1 X84.075 Y32.085 E2.47852
G1 X84.701 Y32.567 E2.50876
G1 X85.18 Y32.986 E2.53311
G1 X85.632 Y33.499 E2.55928
G1 X86.106 Y34.117 E2.58909
G1 X86.215 Y34.279 E2.59656
G1 X88.48 Y34.279 E2.68324
G1 X89.116 Y34.319 E2.70763
G1 X89.741 Y34.438 E2.73198
G1 X90.347 Y34.635 E2.75636
G1 X90.923 Y34.906 E2.78072
G1 X91.461 Y35.247 E2.8051
G1 X92.069 Y35.765 E2.83567
G1 X96.069 Y39.765 E3.05215
G1 X96.49 Y40.243 E3.07653
G1 X96.848 Y40.77 E3.10091
G1 X97.137 Y41.337 E3.12527
G1 X97.353 Y41.936 E3.14964
G1 X97.492 Y42.558 E3.17403
G1 X97.555 Y43.354 E3.20459
G1 X97.555 Y49.354 E3.43421
G1 X97.515 Y49.99 E3.45859
G1 X97.396 Y50.615 E3.48294
G1 X97.199 Y51.221 E3.50733
G1 X96.928 Y51.797 E3.53169
G1 X96.587 Y52.335 E3.55607
G1 X96.181 Y52.826 E3.58045
G1 X95.717 Y53.262 E3.60482
G1 X95.202 Y53.637 E3.6292
G1 X94.645 Y53.944 E3.65354
G1 X94.053 Y54.179 E3.67791
G1 X93.436 Y54.338 E3.70229
G1 X92.804 Y54.419 E3.72668
G1 X92.48 Y54.429 E3.73908
G1 X90.48 Y54.429 E3.81562
G1 X89.844 Y54.389 E3.84001
G1 X89.219 Y54.27 E3.86436
G1 X88.613 Y54.073 E3.88875
G1 X88.037 Y53.802 E3.91311
G1 X87.499 Y53.461 E3.93748
G1 X86.891 Y52.943 E3.96805
G1 X84.891 Y50.943 E4.0763
G1 X84.47 Y50.465 E4.10067
G1 X84.112 Y49.938 E4.12505
G1 X83.823 Y49.371 E4.14941
G1 X83.607 Y48.772 E4.17378
G1 X83.468 Y48.15 E4.19817
G1 X83.466 Y48.129 E4.19898
G1 X22.48 Y48.129 E6.53291
G1 X21.844 Y48.089 E6.5573
G1 X21.219 Y47.97 E6.58164
G1 X20.613 Y47.773 E6.60603
G1 X20.037 Y47.502 E6.63039
G1 X19.499 Y47.161 E6.65477
G1 X19.008 Y46.755 E6.67915
G1 X18.572 Y46.291 E6.70352
G1 X18.197 Y45.776 E6.7279
G1 X17.89 Y45.219 E6.75224
G1 X17.655 Y44.627 E6.77661
G1 X17.496 Y44.01 E6.801
G1 X17.415 Y43.378 E6.82538
G1 X17.405 Y43.054 E6.83779
G1 X17.405 Y35.704 E7.11907
G1 X17.445 Y35.068 E7.14346
G1 X17.564 Y34.443 E7.16781
G1 X17.761 Y33.837 E7.19219
G1 X18.032 Y33.261 E7.21655
G1 X18.373 Y32.723 E7.24093
G1 X18.779 Y32.232 E7.26531
G1 X19.202 Y31.835 E7.28751
G0 F1620 X19.243 Y31.796
G0 X19.758 Y31.421
G0 F4320 X20.093 Y31.626
G1 F1800 X20.642 Y31.351 E7.31101
G1 X21.223 Y31.149 E7.33455
G1 X21.824 Y31.025 E7.35804
G1 X22.48 Y30.979 E7.38321
G1 X79.485 Y30.98 E9.56478
G1 X80.109 Y31.021 E9.58872
G1 X80.889 Y31.125 E9.61883
G1 X81.492 Y31.246 E9.64237
G1 X82.08 Y31.446 E9.66614
G1 X82.794 Y31.743 E9.69573
G1 X83.345 Y32.016 E9.71926
G1 X83.862 Y32.362 E9.74307
G1 X84.488 Y32.844 E9.77331
G1 X84.949 Y33.25 E9.79682
G1 X85.354 Y33.712 E9.82033
G1 X85.828 Y34.33 E9.85013
G1 X86.028 Y34.629 E9.8639
G1 X88.48 Y34.629 E9.95774
G1 X89.093 Y34.669 E9.98125
G1 X89.696 Y34.788 E10.00477
G1 X90.278 Y34.985 E10.02828
G1 X90.83 Y35.255 E10.0518
G1 X91.342 Y35.595 E10.07532
G1 X91.821 Y36.013 E10.09965
G1 X95.821 Y40.013 E10.31614
G1 X96.226 Y40.475 E10.33965
G1 X96.568 Y40.985 E10.36315
G1 X96.841 Y41.536 E10.38668
G1 X97.04 Y42.117 E10.41019
G1 X97.162 Y42.72 E10.43373
G1 X97.205 Y43.354 E10.45805
G1 X97.205 Y49.354 E10.68767
G1 X97.165 Y49.967 E10.71118
G1 X97.046 Y50.57 E10.7347
G1 X96.849 Y51.152 E10.75822
G1 X96.579 Y51.704 E10.78173
G1 X96.239 Y52.216 E10.80525
G1 X95.836 Y52.68 E10.82877
G1 X95.376 Y53.087 E10.85228
G1 X94.867 Y53.432 E10.87581
G1 X94.318 Y53.707 E10.89931
G1 X93.737 Y53.909 E10.92285
G1 X93.136 Y54.033 E10.94634
G1 X92.48 Y54.079 E10.9715
G1 X90.48 Y54.079 E11.04804
G1 X89.867 Y54.039 E11.07155
G1 X89.264 Y53.92 E11.09507
G1 X88.682 Y53.723 E11.11859
G1 X88.13 Y53.453 E11.1421
G1 X87.618 Y53.113 E11.16563
G1 X87.139 Y52.695 E11.18996
G1 X85.139 Y50.695 E11.2982
G1 X84.734 Y50.233 E11.32171
G1 X84.392 Y49.723 E11.34521
G1 X84.119 Y49.172 E11.36874
G1 X83.92 Y48.591 E11.39225
G1 X83.798 Y47.988 E11.41579
G1 X83.783 Y47.779 E11.42381
G1 X22.48 Y47.779 E13.76987
G1 X21.867 Y47.739 E13.79338
G1 X21.264 Y47.62 E13.8169
G1 X20.682 Y47.423 E13.84042
G1 X20.13 Y47.153 E13.86394
G1 X19.618 Y46.813 E13.88746
G1 X19.154 Y46.41 E13.91098
G1 X18.747 Y45.95 E13.93448
G1 X18.402 Y45.441 E13.95801
G1 X18.127 Y44.892 E13.98151
G1 X17.925 Y44.311 E14.00505
G1 X17.801 Y43.71 E14.02854
G1 X17.755 Y43.054 E14.0537
G1 X17.755 Y35.704 E14.33499
G1 X17.795 Y35.091 E14.3585
G1 X17.914 Y34.488 E14.38202
G1 X18.111 Y33.906 E14.40553
G1 X18.381 Y33.354 E14.42905
G1 X18.721 Y32.842 E14.45257
G1 X19.124 Y32.378 E14.47609
G1 X19.525 Y32.024 E14.49656
G0 F1620 X19.584 Y31.971
G0 X20.093 Y31.626
G0 F4320 X19.924 Y32.154
G1 F1800 X20.426 Y31.841 E14.5192
G1 X20.965 Y31.6 E14.5418
G1 X21.533 Y31.433 E14.56446
G1 X22.117 Y31.344 E14.58706
G1 X22.48 Y31.329 E14.60097
G1 X79.485 Y31.33 E16.78254
G1 X80.063 Y31.368 E16.80471
G1 X80.843 Y31.472 E16.83483
G1 X81.423 Y31.59 E16.85748
G1 X81.945 Y31.77 E16.87861
G1 X82.659 Y32.067 E16.9082
G1 X83.189 Y32.33 E16.93085
G1 X83.648 Y32.64 E16.95204
G1 X84.274 Y33.122 E16.98228
G1 X84.717 Y33.513 E17.00489
G1 X85.076 Y33.925 E17.02581
G1 X85.55 Y34.543 E17.05561
G1 X85.84 Y34.979 E17.07565
G1 X88.48 Y34.979 E17.17668
G1 X89.07 Y35.019 E17.19932
G1 X89.649 Y35.138 E17.22194
G1 X90.207 Y35.334 E17.24457
G1 X90.733 Y35.604 E17.2672
G1 X91.218 Y35.942 E17.28982
G1 X91.574 Y36.26 E17.30809
G1 X95.574 Y40.26 E17.52458
G1 X95.962 Y40.706 E17.5472
G1 X96.288 Y41.2 E17.56985
G1 X96.543 Y41.733 E17.59246
G1 X96.725 Y42.295 E17.61507
G1 X96.829 Y42.877 E17.6377
G1 X96.855 Y43.354 E17.65598
G1 X96.855 Y49.354 E17.8856
G1 X96.815 Y49.944 E17.90823
G1 X96.696 Y50.523 E17.93085
G1 X96.5 Y51.081 E17.95348
G1 X96.23 Y51.607 E17.97611
G1 X95.892 Y52.092 E17.99873
G1 X95.492 Y52.527 E18.02135
G1 X95.036 Y52.904 E18.04399
G1 X94.534 Y53.217 E18.06663
G1 X93.995 Y53.458 E18.08923
G1 X93.427 Y53.625 E18.11189
G1 X92.843 Y53.714 E18.13449
G1 X92.48 Y53.729 E18.1484
G1 X90.48 Y53.729 E18.22494
G1 X89.89 Y53.689 E18.24757
G1 X89.311 Y53.57 E18.27019
G1 X88.753 Y53.374 E18.29282
G1 X88.227 Y53.104 E18.31545
G1 X87.742 Y52.766 E18.33807
G1 X87.386 Y52.448 E18.35634
G1 X85.386 Y50.448 E18.46459
G1 X84.998 Y50.002 E18.48721
G1 X84.672 Y49.508 E18.50986
G1 X84.417 Y48.975 E18.53247
G1 X84.235 Y48.413 E18.55508
G1 X84.131 Y47.831 E18.57771
G1 X84.114 Y47.429 E18.5931
G1 X22.48 Y47.429 E20.95183
G1 X21.89 Y47.389 E20.97447
G1 X21.311 Y47.27 E20.99709
G1 X20.753 Y47.074 E21.01972
G1 X20.227 Y46.804 E21.04235
G1 X19.742 Y46.466 E21.06497
G1 X19.307 Y46.066 E21.08759
G1 X18.93 Y45.61 E21.11023
G1 X18.617 Y45.108 E21.13287
G1 X18.376 Y44.569 E21.15547
G1 X18.209 Y44.001 E21.17812
G1 X18.12 Y43.417 E21.20073
G1 X18.105 Y43.054 E21.21463
G1 X18.105 Y35.704 E21.49592
G1 X18.145 Y35.114 E21.51855
G1 X18.264 Y34.535 E21.54117
G1 X18.46 Y33.977 E21.5638
G1 X18.73 Y33.451 E21.58643
G1 X19.068 Y32.966 E21.60906
G1 X19.399 Y32.606 E21.62777
G0 F1620 X19.468 Y32.531
G0 X19.924 Y32.154
G0 F4320 X20.262 Y32.345
G1 F1800 X20.756 Y32.067 E21.64946
G1 X21.284 Y31.861 E21.67115
G1 X21.836 Y31.731 E21.69286
G1 X22.48 Y31.679 E21.71758
G1 X79.485 Y31.68 E23.89916
G1 X80.017 Y31.715 E23.91956
G1 X80.797 Y31.819 E23.94968
G1 X81.352 Y31.934 E23.97137
G1 X81.811 Y32.093 E23.98996
G1 X82.525 Y32.39 E24.01955
G1 X83.032 Y32.644 E24.04126
G1 X83.435 Y32.917 E24.05988
G1 X84.061 Y33.399 E24.09012
G1 X84.484 Y33.776 E24.11181
G1 X84.799 Y34.138 E24.13017
G1 X85.273 Y34.756 E24.15998
G1 X85.585 Y35.23 E24.18169
G1 X85.633 Y35.329 E24.1859
G1 X88.48 Y35.329 E24.29486
G1 X89.046 Y35.369 E24.31657
G1 X89.6 Y35.488 E24.33826
G1 X90.132 Y35.684 E24.35996
G1 X90.632 Y35.952 E24.38167
G1 X91.088 Y36.289 E24.40337
G1 X91.326 Y36.508 E24.41574
G1 X95.326 Y40.508 E24.63223
G1 X95.698 Y40.936 E24.65393
G1 X96.006 Y41.412 E24.67563
G1 X96.244 Y41.927 E24.69734
G1 X96.407 Y42.47 E24.71904
G1 X96.492 Y43.031 E24.74075
G1 X96.505 Y43.354 E24.75312
G1 X96.505 Y49.354 E24.98274
G1 X96.465 Y49.92 E25.00446
G1 X96.346 Y50.474 E25.02614
G1 X96.15 Y51.006 E25.04784
G1 X95.882 Y51.506 E25.06955
G1 X95.545 Y51.962 E25.09125
G1 X95.148 Y52.367 E25.11295
G1 X94.698 Y52.713 E25.13468
G1 X94.204 Y52.991 E25.15637
G1 X93.676 Y53.197 E25.17806
G1 X93.124 Y53.327 E25.19976
G1 X92.48 Y53.379 E25.22449
G1 X90.48 Y53.379 E25.30103
G1 X89.914 Y53.339 E25.32275
G1 X89.36 Y53.22 E25.34443
G1 X88.828 Y53.024 E25.36613
G1 X88.328 Y52.756 E25.38784
G1 X87.872 Y52.419 E25.40954
G1 X87.634 Y52.2 E25.42192
G1 X85.634 Y50.2 E25.53016
G1 X85.262 Y49.772 E25.55186
G1 X84.954 Y49.296 E25.57356
G1 X84.716 Y48.781 E25.59527
G1 X84.553 Y48.238 E25.61697
G1 X84.468 Y47.677 E25.63868
G1 X84.462 Y47.11 E25.66038
G1 X84.466 Y47.079 E25.66158
G1 X22.48 Y47.079 E28.03378
G1 X21.914 Y47.039 E28.05549
G1 X21.36 Y46.92 E28.07718
G1 X20.828 Y46.724 E28.09888
G1 X20.328 Y46.456 E28.12059
G1 X19.872 Y46.119 E28.14229
G1 X19.467 Y45.722 E28.16399
G1 X19.121 Y45.272 E28.18571
G1 X18.843 Y44.778 E28.20741
G1 X18.637 Y44.25 E28.2291
G1 X18.507 Y43.698 E28.2508
G1 X18.455 Y43.054 E28.27553
G1 X18.455 Y35.704 E28.55681
G1 X18.495 Y35.138 E28.57852
G1 X18.614 Y34.584 E28.60021
G1 X18.81 Y34.052 E28.62191
G1 X19.078 Y33.552 E28.64362
G1 X19.415 Y33.096 E28.66532
G1 X19.724 Y32.781 E28.6822
G0 F1620 X19.812 Y32.691
G0 X20.262 Y32.345
G0 F4320 X20.598 Y32.548
G1 F1800 X21.082 Y32.305 E28.70293
G1 X21.597 Y32.137 E28.72366
G1 X22.131 Y32.046 E28.74439
G1 X22.48 Y32.029 E28.75776
G1 X79.485 Y32.03 E30.93934
G1 X79.971 Y32.062 E30.95798
G1 X80.751 Y32.166 E30.9881
G1 X81.281 Y32.277 E31.00882
G1 X81.676 Y32.416 E31.02484
G1 X82.39 Y32.713 E31.05444
G1 X82.874 Y32.957 E31.07518
G1 X83.221 Y33.194 E31.09126
G1 X83.847 Y33.676 E31.1215
G1 X84.251 Y34.037 E31.14223
G1 X84.521 Y34.351 E31.15808
G1 X84.995 Y34.969 E31.18789
G1 X85.292 Y35.423 E31.20865
G1 X85.416 Y35.679 E31.21954
G1 X88.48 Y35.679 E31.3368
G1 X89.02 Y35.719 E31.35752
G1 X89.549 Y35.838 E31.37827
G1 X90.054 Y36.033 E31.39899
G1 X90.526 Y36.301 E31.41976
G1 X91.079 Y36.755 E31.44714
G1 X95.079 Y40.755 E31.66363
G1 X95.432 Y41.166 E31.68436
G1 X95.722 Y41.624 E31.70511
G1 X95.941 Y42.119 E31.72582
G1 X96.085 Y42.642 E31.74658
G1 X96.155 Y43.354 E31.77396
G1 X96.155 Y49.354 E32.00358
G1 X96.115 Y49.894 E32.0243
G1 X95.996 Y50.423 E32.04505
G1 X95.801 Y50.928 E32.06577
G1 X95.533 Y51.4 E32.08654
G1 X95.199 Y51.826 E32.10726
G1 X94.806 Y52.199 E32.128
G1 X94.362 Y52.51 E32.14874
G1 X93.878 Y52.753 E32.16947
G1 X93.363 Y52.921 E32.1902
G1 X92.829 Y53.012 E32.21093
G1 X92.48 Y53.029 E32.2243
G1 X90.48 Y53.029 E32.30084
G1 X89.94 Y52.989 E32.32156
G1 X89.411 Y52.87 E32.34231
G1 X88.906 Y52.675 E32.36303
G1 X88.434 Y52.407 E32.3838
G1 X87.881 Y51.953 E32.41118
G1 X85.881 Y49.953 E32.51943
G1 X85.528 Y49.542 E32.54016
G1 X85.238 Y49.084 E32.56091
G1 X85.019 Y48.589 E32.58162
G1 X84.875 Y48.066 E32.60238
G1 X84.809 Y47.529 E32.62309
G1 X84.823 Y46.987 E32.64384
G1 X84.868 Y46.729 E32.65386
G1 X22.48 Y46.729 E35.04145
G1 X21.94 Y46.689 E35.06217
G1 X21.411 Y46.57 E35.08292
G1 X20.906 Y46.375 E35.10364
G1 X20.434 Y46.107 E35.12441
G1 X20.008 Y45.773 E35.14512
G1 X19.635 Y45.38 E35.16586
G1 X19.324 Y44.936 E35.18661
G1 X19.081 Y44.452 E35.20733
G1 X18.913 Y43.937 E35.22806
G1 X18.822 Y43.403 E35.24879
G1 X18.805 Y43.054 E35.26217
G1 X18.805 Y35.704 E35.54345
G1 X18.845 Y35.164 E35.56417
G1 X18.964 Y34.635 E35.58492
G1 X19.159 Y34.13 E35.60564
G1 X19.427 Y33.658 E35.62641
G1 X19.761 Y33.232 E35.64713
G1 X20.044 Y32.963 E35.66207
G0 F1620 X20.154 Y32.859
G0 X20.598 Y32.548
G0 F4320 X20.495 Y33.037
G1 F1800 X20.931 Y32.762 E35.6818
G1 X21.404 Y32.558 E35.70151
G1 X21.903 Y32.429 E35.72124
G1 X22.48 Y32.379 E35.7434
G1 X79.485 Y32.38 E37.92498
G1 X79.924 Y32.409 E37.94182
G1 X80.704 Y32.513 E37.97193
G1 X81.208 Y32.621 E37.99166
G1 X81.542 Y32.739 E38.00521
G1 X82.256 Y33.036 E38.03481
G1 X82.715 Y33.27 E38.05453
G1 X83.008 Y33.471 E38.06812
G1 X83.634 Y33.953 E38.09836
G1 X84.016 Y34.299 E38.11808
G1 X84.243 Y34.564 E38.13144
G1 X84.717 Y35.182 E38.16124
G1 X84.998 Y35.614 E38.18097
G1 X85.19 Y36.029 E38.19846
G1 X88.48 Y36.029 E38.32437
G1 X88.994 Y36.069 E38.3441
G1 X89.495 Y36.188 E38.36381
G1 X89.972 Y36.383 E38.38353
G1 X90.414 Y36.649 E38.40327
G1 X90.831 Y37.003 E38.42421
G1 X94.831 Y41.003 E38.64069
G1 X95.166 Y41.394 E38.6604
G1 X95.437 Y41.833 E38.68014
G1 X95.636 Y42.308 E38.69985
G1 X95.76 Y42.809 E38.7196
G1 X95.805 Y43.354 E38.74053
G1 X95.805 Y49.354 E38.97015
G1 X95.765 Y49.868 E38.98988
G1 X95.646 Y50.369 E39.00959
G1 X95.451 Y50.846 E39.02931
G1 X95.185 Y51.288 E39.04905
G1 X94.854 Y51.682 E39.06874
G1 X94.465 Y52.021 E39.08849
G1 X94.029 Y52.296 E39.10822
G1 X93.556 Y52.5 E39.12793
G1 X93.057 Y52.629 E39.14766
G1 X92.48 Y52.679 E39.16982
G1 X90.48 Y52.679 E39.24636
G1 X89.966 Y52.639 E39.26609
G1 X89.465 Y52.52 E39.2858
G1 X88.988 Y52.325 E39.30552
G1 X88.546 Y52.059 E39.32526
G1 X88.129 Y51.705 E39.3462
G1 X86.129 Y49.705 E39.45444
G1 X85.794 Y49.314 E39.47414
G1 X85.523 Y48.875 E39.49389
G1 X85.324 Y48.4 E39.5136
G1 X85.2 Y47.899 E39.53335
G1 X85.155 Y47.386 E39.55306
G1 X85.19 Y46.872 E39.57277
G1 X85.302 Y46.379 E39.59212
G1 X22.48 Y46.379 E41.99631
G1 X21.966 Y46.339 E42.01604
G1 X21.465 Y46.22 E42.03575
G1 X20.988 Y46.025 E42.05547
G1 X20.546 Y45.759 E42.07522
G1 X20.152 Y45.428 E42.09491
G1 X19.813 Y45.039 E42.11466
G1 X19.538 Y44.603 E42.13438
G1 X19.334 Y44.13 E42.1541
G1 X19.205 Y43.631 E42.17382
G1 X19.155 Y43.054 E42.19598
G1 X19.155 Y35.704 E42.47727
G1 X19.195 Y35.19 E42.497
G1 X19.314 Y34.689 E42.51671
G1 X19.509 Y34.212 E42.53643
G1 X19.775 Y33.77 E42.55617
G1 X19.991 Y33.513 E42.56902
G0 F1620 X20.106 Y33.376
G0 X20.495 Y33.037
G0 F4320 X20.833 Y33.226
G1 F1800 X21.26 Y32.991 E42.58767
G1 X21.719 Y32.828 E42.60631
G1 X22.48 Y32.729 E42.63568
G1 X79.485 Y32.73 E44.81726
G1 X79.878 Y32.756 E44.83233
G1 X80.658 Y32.86 E44.86245
G1 X81.408 Y33.062 E44.89217
G1 X82.122 Y33.359 E44.92176
G1 X82.794 Y33.749 E44.9515
G1 X83.42 Y34.231 E44.98174
G1 X83.966 Y34.777 E45.01129
G1 X84.44 Y35.395 E45.04109
G1 X84.83 Y36.074 E45.07106
G1 X84.955 Y36.379 E45.08367
G1 X88.48 Y36.379 E45.21857
G1 X88.966 Y36.419 E45.23724
G1 X89.439 Y36.538 E45.2559
G1 X89.886 Y36.732 E45.27455
G1 X90.295 Y36.997 E45.2932
G1 X90.584 Y37.25 E45.3079
G1 X94.584 Y41.25 E45.52439
G1 X94.899 Y41.622 E45.54304
G1 X95.149 Y42.04 E45.56168
G1 X95.328 Y42.494 E45.58036
G1 X95.43 Y42.97 E45.59899
G1 X95.455 Y43.354 E45.61372
G1 X95.455 Y49.354 E45.84334
G1 X95.415 Y49.84 E45.862
G1 X95.296 Y50.313 E45.88066
G1 X95.102 Y50.76 E45.89931
G1 X94.837 Y51.169 E45.91796
G1 X94.509 Y51.529 E45.9366
G1 X94.127 Y51.832 E45.95526
G1 X93.7 Y52.067 E45.97391
G1 X93.241 Y52.23 E45.99255
G1 X92.48 Y52.329 E46.02192
G1 X90.48 Y52.329 E46.09846
G1 X89.994 Y52.289 E46.11712
G1 X89.521 Y52.17 E46.13579
G1 X89.074 Y51.976 E46.15444
G1 X88.665 Y51.711 E46.17309
G1 X88.376 Y51.458 E46.18779
G1 X86.376 Y49.458 E46.29603
G1 X86.061 Y49.086 E46.31469
G1 X85.811 Y48.668 E46.33333
G1 X85.632 Y48.214 E46.352
G1 X85.53 Y47.738 E46.37063
G1 X85.507 Y47.251 E46.38929
G1 X85.564 Y46.767 E46.40794
G1 X85.699 Y46.298 E46.42662
G1 X85.827 Y46.029 E46.43802
G1 X22.48 Y46.029 E48.86231
G1 X21.994 Y45.989 E48.88097
