;FLAVOR:Marlin
;TIME:4061
;Filament used: 2.24542m
;Layer height: 0.13125
;MINX:28.899
;MINY:34.422
;MINZ:0.263
;MAXX:86.143
;MAXY:79.635
;MAXZ:24.629
;Generated with Cura_SteamEngine 4.13.0
M140 S65
M105
M190 S65
M104 S205
M105
M109 S205
M82 ;absolute extrusion mode
G21;(metric values)
G90;(absolute positioning)
M82;(set extruder to absolute mode)
M107;(start with the fan off)
G28;(Home the printer)
G92 E0;(Reset the extruder to 0)
G0 Z5 E5 F500;(Move up and prime the nozzle)
G0 X-1 Z0;(Move outside the printable area)
G1 Y60 E8 F500;(Draw a priming/wiping line to the rear)
G1 X-1;(Move a little closer to the print area)
G1 Y10 E16 F500;(draw more priming/wiping)
G1 E15 F250;(Small retract)
G92 E0;(Zero the extruder)
G92 E0
G92 E0
G1 F2400 E-2.5
;LAYER_COUNT:187
;LAYER:0
M107
G0 F4320 X31.312 Y36.148 Z0.263
;TYPE:SKIRT
G1 F2400 E0
G1 F1800 X31.835 Y35.784 E0.02439
G1 X32.487 Y35.452 E0.05239
G1 X33.027 Y35.224 E0.07482
G1 X33.687 Y34.956 E0.10208
G1 X34.291 Y34.754 E0.12645
G1 X34.915 Y34.629 E0.15081
G1 X35.55 Y34.583 E0.17517
G1 X36.084 Y34.612 E0.19564
G1 X36.205 Y34.595 E0.20032
G1 X36.842 Y34.588 E0.22469
G1 X37.474 Y34.661 E0.24904
G1 X38.093 Y34.813 E0.27344
G1 X38.906 Y35.147 E0.30707
G1 X39.957 Y35.689 E0.35233
G1 X40.593 Y35.659 E0.37669
G1 X40.845 Y35.678 E0.38637
G1 X41.424 Y35.608 E0.40868
G1 X42.011 Y35.61 E0.43115
G1 X42.353 Y35.474 E0.44523
G1 X42.97 Y35.315 E0.46962
G1 X43.602 Y35.234 E0.494
G1 X43.925 Y35.224 E0.50637
G1 X71.131 Y35.22 E1.54754
G1 X71.767 Y35.26 E1.57193
G1 X72.392 Y35.379 E1.59628
G1 X72.512 Y35.421 E1.60114
G1 X73.349 Y35.603 E1.63392
G1 X73.617 Y35.57 E1.64426
G1 X74.254 Y35.57 E1.66864
G1 X74.886 Y35.65 E1.69302
G1 X74.994 Y35.653 E1.69715
G1 X75.546 Y35.356 E1.72114
G1 X75.846 Y35.191 E1.73424
G1 X76.437 Y34.951 E1.75865
G1 X77.052 Y34.788 E1.783
G1 X77.136 Y34.777 E1.78624
G1 X77.621 Y34.608 E1.8059
G1 X78.244 Y34.475 E1.83028
G1 X78.879 Y34.422 E1.85467
G1 X79.515 Y34.449 E1.87903
G1 X80.013 Y34.533 E1.89835
G1 X80.157 Y34.529 E1.90387
G1 X80.791 Y34.591 E1.92825
G1 X81.412 Y34.732 E1.95262
G1 X82.01 Y34.95 E1.97698
G1 X82.577 Y35.241 E2.00137
G1 X83.103 Y35.6 E2.02574
G1 X83.693 Y36.142 E2.0564
G1 X84.373 Y36.872 E2.09458
G1 X84.879 Y37.51 E2.12574
G1 X84.99 Y37.676 E2.13338
G1 X85.31 Y38.227 E2.15777
G1 X85.564 Y38.828 E2.18274
G1 X85.727 Y39.296 E2.2017
G1 X85.898 Y39.909 E2.22606
G1 X85.993 Y40.567 E2.2515
G1 X86.011 Y40.796 E2.26029
G1 X86.009 Y41.621 E2.29186
G1 X85.969 Y42.095 E2.31007
G1 X85.876 Y42.725 E2.33444
G1 X85.646 Y43.497 E2.36527
G1 X85.386 Y44.101 E2.39043
G1 X85.495 Y44.302 E2.39918
G1 X85.781 Y45.078 E2.43083
G1 X85.944 Y45.663 E2.45408
G1 X86.076 Y46.286 E2.47845
G1 X86.134 Y46.888 E2.50159
G1 X86.143 Y47.525 E2.52597
G1 X86.091 Y48.042 E2.54586
G1 X85.984 Y48.741 E2.57292
G1 X85.848 Y49.363 E2.59729
G1 X85.635 Y49.964 E2.62169
G1 X85.349 Y50.533 E2.64606
G1 X84.994 Y51.061 E2.67041
G1 X84.576 Y51.541 E2.69477
G1 X84.304 Y51.797 E2.70906
G1 X83.605 Y52.407 E2.74457
G1 X83.1 Y52.795 E2.76894
G1 X82.55 Y53.116 E2.79331
G1 X81.964 Y53.366 E2.81769
G1 X81.44 Y53.521 E2.8386
G1 X81.082 Y53.606 E2.85269
G1 X80.557 Y53.736 E2.87338
G1 X79.93 Y53.851 E2.89778
G1 X79.298 Y53.919 E2.92211
G1 X78.955 Y53.942 E2.93526
G1 X78.318 Y53.972 E2.95967
G1 X77.683 Y53.923 E2.98404
G1 X77.124 Y53.807 E3.00589
G1 X77.124 Y60.884 E3.27673
G1 X77.084 Y61.52 E3.30111
G1 X76.965 Y62.145 E3.32546
G1 X76.768 Y62.751 E3.34985
G1 X76.497 Y63.327 E3.37421
G1 X76.156 Y63.865 E3.39859
G1 X76.033 Y64.014 E3.40598
G1 X76.746 Y64.148 E3.43374
G1 X77.413 Y64.338 E3.46029
G1 X77.438 Y64.347 E3.4613
G1 X78.252 Y64.724 E3.49563
G1 X78.608 Y64.929 E3.51135
G1 X79.178 Y65.311 E3.53761
G1 X79.2 Y65.328 E3.53868
G1 X79.771 Y65.842 E3.56808
G1 X79.995 Y66.077 E3.5805
G1 X80.451 Y66.629 E3.60791
G1 X80.466 Y66.65 E3.60889
G1 X80.848 Y67.276 E3.63696
G1 X81.035 Y67.639 E3.65259
G1 X81.338 Y68.358 E3.68244
G1 X81.346 Y68.382 E3.68341
G1 X81.545 Y69.201 E3.71567
G1 X81.609 Y69.609 E3.73147
G1 X81.67 Y70.398 E3.76176
G1 X81.669 Y72.218 E3.83141
G1 X81.628 Y72.858 E3.85595
G1 X81.56 Y73.39 E3.87648
G1 X81.422 Y74.082 E3.90348
G1 X81.208 Y74.712 E3.92895
G1 X80.997 Y75.221 E3.95003
G1 X80.752 Y75.73 E3.97165
G1 X80.33 Y76.381 E4.00134
G1 X80 Y76.813 E4.02215
G1 X79.556 Y77.321 E4.04797
G1 X79.54 Y77.337 E4.04883
G1 X79.044 Y77.772 E4.07408
G1 X78.616 Y78.101 E4.09474
G1 X77.953 Y78.532 E4.125
G1 X77.45 Y78.775 E4.14638
G1 X76.938 Y78.988 E4.1676
G1 X76.362 Y79.188 E4.19094
G1 X75.611 Y79.342 E4.22028
G1 X75.063 Y79.412 E4.24142
G1 X74.42 Y79.453 E4.26608
G1 X71.215 Y79.453 E4.38873
G1 X70.835 Y79.439 E4.40328
G1 X70.249 Y79.395 E4.42577
G1 X69.468 Y79.274 E4.45602
G1 X68.885 Y79.137 E4.47894
G1 X68.149 Y78.904 E4.50848
G1 X67.598 Y78.682 E4.53121
G1 X66.932 Y78.355 E4.55961
G1 X66.438 Y78.066 E4.58151
G1 X65.805 Y77.628 E4.61097
G1 X65.679 Y77.526 E4.61717
G1 X65.212 Y77.948 E4.64126
G1 X64.784 Y78.278 E4.66195
G1 X64.267 Y78.628 E4.68584
G1 X64.245 Y78.641 E4.68682
G1 X63.601 Y78.962 E4.71435
G1 X63.088 Y79.174 E4.7356
G1 X62.523 Y79.37 E4.75848
G1 X61.773 Y79.524 E4.78779
G1 X61.226 Y79.594 E4.80889
G1 X60.582 Y79.635 E4.83359
G1 X57.377 Y79.635 E4.95624
G1 X56.998 Y79.621 E4.97075
G1 X56.411 Y79.577 E4.99328
G1 X55.632 Y79.457 E5.02345
G1 X55.056 Y79.322 E5.04609
G1 X54.326 Y79.092 E5.07538
G1 X53.767 Y78.868 E5.09842
G1 X53.085 Y78.533 E5.1275
G1 X52.593 Y78.244 E5.14934
G1 X51.967 Y77.81 E5.17849
G1 X51.577 Y77.494 E5.1977
G1 X51.101 Y77.912 E5.22194
G1 X50.671 Y78.244 E5.24273
G1 X49.999 Y78.682 E5.27343
G1 X49.493 Y78.926 E5.29493
G1 X48.98 Y79.139 E5.31619
G1 X48.407 Y79.338 E5.3394
G1 X47.657 Y79.492 E5.3687
G1 X47.11 Y79.562 E5.38981
G1 X46.466 Y79.603 E5.4145
G1 X43.261 Y79.603 E5.53716
G1 X42.882 Y79.589 E5.55167
G1 X42.295 Y79.545 E5.5742
G1 X41.518 Y79.426 E5.60428
G1 X40.945 Y79.292 E5.6268
G1 X40.218 Y79.063 E5.65597
G1 X39.665 Y78.842 E5.67876
G1 X38.979 Y78.506 E5.708
G1 X38.478 Y78.212 E5.73023
G1 X37.854 Y77.78 E5.75927
G1 X37.392 Y77.406 E5.78202
G1 X36.83 Y76.875 E5.81161
G1 X36.44 Y76.446 E5.8338
G1 X35.962 Y75.832 E5.86358
G1 X35.624 Y75.321 E5.88702
G1 X35.253 Y74.656 E5.91617
G1 X35.01 Y74.132 E5.93827
G1 X34.738 Y73.403 E5.96805
G1 X34.574 Y72.834 E5.99071
G1 X34.483 Y72.469 E6.00511
G1 X33.87 Y69.543 E6.11952
G1 X33.777 Y68.886 E6.14491
G1 X33.734 Y68.319 E6.16667
G1 X33.725 Y67.683 E6.19101
G1 X33.81 Y66.961 E6.21883
G1 X33.919 Y66.39 E6.24108
G1 X34.077 Y65.774 E6.26542
G1 X34.321 Y65.161 E6.29067
G1 X34.567 Y64.644 E6.31258
G1 X34.927 Y64.01 E6.34048
G1 X34.941 Y63.989 E6.34145
G1 X35.305 Y63.508 E6.36453
G1 X35.674 Y63.076 E6.38627
G1 X35.962 Y62.765 E6.4025
G1 X36.682 Y62.168 E6.43829
G1 X37.149 Y61.848 E6.45996
G1 X37.684 Y61.527 E6.48383
G1 X37.923 Y61.423 E6.49381
G1 X37.866 Y61.129 E6.50527
G1 X37.823 Y60.469 E6.53058
G1 X37.822 Y53.777 E6.78668
G1 X37.447 Y53.874 E6.80151
G1 X36.816 Y53.956 E6.82586
G1 X36.323 Y53.965 E6.84473
G1 X35.43 Y53.937 E6.87892
G1 X34.955 Y53.937 E6.8971
G1 X34.319 Y53.897 E6.92149
G1 X33.694 Y53.778 E6.94583
G1 X33.088 Y53.581 E6.97022
G1 X32.512 Y53.31 E6.99458
G1 X31.974 Y52.969 E7.01896
G1 X31.563 Y52.637 E7.03918
G1 X30.961 Y52.096 E7.07015
G1 X30.515 Y51.641 E7.09454
G1 X30.09 Y51.074 E7.12165
G1 X29.966 Y50.882 E7.1304
G1 X29.569 Y50.14 E7.16261
G1 X29.377 Y49.695 E7.18115
G1 X29.162 Y49.095 E7.20555
G1 X29.008 Y48.422 E7.23197
G1 X28.92 Y47.791 E7.25635
G1 X28.933 Y46.889 E7.29087
G1 X28.991 Y46.326 E7.31253
G1 X29.096 Y45.698 E7.3369
G1 X29.296 Y45.04 E7.36322
G1 X29.395 Y44.78 E7.37387
G1 X29.616 Y44.295 E7.39426
G1 X29.359 Y43.658 E7.42055
G1 X29.169 Y43.059 E7.4446
G1 X29.014 Y42.441 E7.46898
G1 X28.932 Y41.821 E7.49292
G1 X28.899 Y41.185 E7.51729
G1 X28.947 Y40.55 E7.54166
G1 X29.033 Y40.085 E7.55976
G1 X29.16 Y39.544 E7.58102
G1 X29.332 Y38.968 E7.60403
G1 X29.403 Y38.773 E7.61197
G1 X29.658 Y38.189 E7.63636
G1 X30.131 Y37.439 E7.67029
G1 X30.422 Y37.056 E7.6887
G1 X30.801 Y36.617 E7.7109
G0 F1620 X30.838 Y36.574
G0 X31.312 Y36.148
G0 F4320 X31.563 Y36.396
G1 F1800 X32.072 Y36.051 E7.73443
G1 X32.623 Y35.774 E7.75803
G1 X33.158 Y35.548 E7.78026
G1 X33.818 Y35.28 E7.80752
G1 X34.402 Y35.086 E7.83107
G1 X35.005 Y34.97 E7.85457
G1 X35.618 Y34.933 E7.87807
G1 X36.09 Y34.966 E7.89618
G1 X36.36 Y34.936 E7.90657
G1 X36.974 Y34.948 E7.93008
G1 X37.582 Y35.039 E7.9536
G1 X38.172 Y35.209 E7.9771
G1 X38.745 Y35.458 E8.00101
G1 X39.906 Y36.058 E8.05102
G1 X40.124 Y36.025 E8.05946
G1 X40.739 Y36.013 E8.083
G1 X40.963 Y36.01 E8.09158
G1 X41.574 Y35.951 E8.11507
G1 X42.088 Y35.946 E8.13474
G1 X42.669 Y35.744 E8.15828
G1 X43.27 Y35.62 E8.18176
G1 X43.925 Y35.574 E8.20689
G1 X71.131 Y35.57 E9.24806
G1 X71.745 Y35.61 E9.27161
G1 X72.347 Y35.729 E9.2951
G1 X72.452 Y35.766 E9.29936
G1 X73.333 Y35.958 E9.33386
G1 X73.66 Y35.918 E9.34647
G1 X74.275 Y35.922 E9.37001
G1 X74.868 Y36.005 E9.39292
G1 X75.075 Y36.007 E9.40085
G1 X75.712 Y35.665 E9.42852
G1 X76.017 Y35.497 E9.44184
G1 X76.588 Y35.27 E9.46536
G1 X77.184 Y35.119 E9.48889
G1 X77.219 Y35.115 E9.49023
G1 X77.778 Y34.928 E9.51279
G1 X78.381 Y34.81 E9.53631
G1 X78.994 Y34.771 E9.55981
G1 X79.607 Y34.812 E9.58333
G1 X79.978 Y34.886 E9.5978
G1 X80.231 Y34.883 E9.60749
G1 X80.841 Y34.955 E9.63099
G1 X81.437 Y35.106 E9.65452
G1 X82.008 Y35.333 E9.67804
G1 X82.545 Y35.633 E9.70158
G1 X83.038 Y35.999 E9.72508
G1 X83.437 Y36.38 E9.74619
G1 X84.117 Y37.11 E9.78437
G1 X84.588 Y37.705 E9.81341
G1 X84.699 Y37.871 E9.82105
G1 X85.006 Y38.403 E9.84456
G1 X85.233 Y38.943 E9.86698
G1 X85.396 Y39.411 E9.88594
G1 X85.56 Y40.003 E9.90945
G1 X85.644 Y40.595 E9.93233
G1 X85.662 Y40.824 E9.94113
G1 X85.66 Y41.591 E9.97048
G1 X85.62 Y42.065 E9.98868
G1 X85.529 Y42.673 E10.01221
G1 X85.319 Y43.371 E10.04011
G1 X85.222 Y43.622 E10.0504
G1 X84.986 Y44.094 E10.0706
G1 X85.213 Y44.528 E10.08934
G1 X85.444 Y45.172 E10.11553
G1 X85.607 Y45.757 E10.13877
G1 X85.733 Y46.358 E10.16227
G1 X85.785 Y46.915 E10.18368
G1 X85.792 Y47.529 E10.20718
G1 X85.745 Y47.989 E10.22487
G1 X85.638 Y48.688 E10.25193
G1 X85.505 Y49.288 E10.27545
G1 X85.296 Y49.866 E10.29898
G1 X85.014 Y50.412 E10.32249
G1 X84.663 Y50.916 E10.346
G1 X84.074 Y51.533 E10.37864
G1 X83.375 Y52.143 E10.41415
G1 X82.886 Y52.516 E10.43768
G1 X82.354 Y52.823 E10.46119
G1 X81.786 Y53.057 E10.4847
G1 X81.048 Y53.254 E10.51393
G1 X80.472 Y53.397 E10.53664
G1 X79.868 Y53.506 E10.56013
G1 X79.239 Y53.574 E10.58434
G1 X78.894 Y53.596 E10.59757
G1 X78.28 Y53.622 E10.62109
G1 X77.668 Y53.567 E10.64461
G1 X77.069 Y53.433 E10.6681
G1 X76.774 Y53.326 E10.68011
G1 X76.774 Y60.884 E10.96935
G1 X76.734 Y61.497 E10.99286
G1 X76.615 Y62.1 E11.01638
G1 X76.418 Y62.682 E11.0399
G1 X76.148 Y63.234 E11.06342
G1 X75.808 Y63.746 E11.08694
G1 X75.405 Y64.21 E11.11046
G1 X75.298 Y64.304 E11.11591
G1 X75.829 Y64.335 E11.13626
G1 X76.673 Y64.491 E11.16911
G1 X77.294 Y64.667 E11.19381
G1 X77.319 Y64.676 E11.19483
G1 X78.077 Y65.027 E11.2268
G1 X78.433 Y65.232 E11.24252
G1 X78.964 Y65.588 E11.26698
G1 X78.986 Y65.605 E11.26805
G1 X79.517 Y66.084 E11.29541
G1 X79.741 Y66.319 E11.30784
G1 X80.166 Y66.833 E11.33336
G1 X80.181 Y66.854 E11.33435
G1 X80.536 Y67.436 E11.36044
G1 X80.723 Y67.799 E11.37607
G1 X81.006 Y68.469 E11.4039
G1 X81.014 Y68.493 E11.40487
G1 X81.199 Y69.255 E11.43488
G1 X81.263 Y69.663 E11.45068
G1 X81.32 Y70.398 E11.4789
G1 X81.319 Y72.218 E11.54855
G1 X81.281 Y72.814 E11.5714
G1 X81.213 Y73.346 E11.59193
G1 X81.085 Y73.99 E11.61706
G1 X80.885 Y74.578 E11.64083
G1 X80.674 Y75.087 E11.66191
G1 X80.445 Y75.563 E11.68213
G1 X80.052 Y76.168 E11.70974
G1 X79.722 Y76.6 E11.73054
G1 X79.308 Y77.073 E11.7546
G1 X78.831 Y77.494 E11.77895
G1 X78.403 Y77.823 E11.7996
G1 X77.786 Y78.225 E11.82779
G1 X77.316 Y78.452 E11.84776
G1 X76.804 Y78.665 E11.86898
G1 X76.266 Y78.851 E11.89077
G1 X75.567 Y78.995 E11.91808
G1 X75.019 Y79.065 E11.93922
G1 X74.42 Y79.103 E11.96219
G1 X71.215 Y79.103 E12.08485
G1 X70.861 Y79.09 E12.09841
G1 X70.275 Y79.046 E12.12089
G1 X69.548 Y78.934 E12.14905
G1 X68.965 Y78.797 E12.17196
G1 X68.28 Y78.58 E12.19946
G1 X67.729 Y78.358 E12.2222
G1 X67.109 Y78.053 E12.24864
G1 X66.615 Y77.764 E12.27054
G1 X66.026 Y77.357 E12.29794
G1 X65.652 Y77.054 E12.31636
G1 X65.543 Y77.179 E12.32271
G1 X64.998 Y77.671 E12.35081
G1 X64.57 Y78.001 E12.37149
G1 X64.089 Y78.327 E12.39373
G1 X64.067 Y78.34 E12.39471
G1 X63.468 Y78.639 E12.42033
G1 X62.955 Y78.851 E12.44157
G1 X62.427 Y79.033 E12.46294
G1 X61.729 Y79.177 E12.49022
G1 X61.182 Y79.247 E12.51132
G1 X60.582 Y79.285 E12.53433
G1 X57.377 Y79.285 E12.65699
G1 X57.024 Y79.272 E12.6705
G1 X56.437 Y79.228 E12.69303
G1 X55.712 Y79.116 E12.72111
G1 X55.136 Y78.981 E12.74375
G1 X54.456 Y78.767 E12.77103
G1 X53.897 Y78.543 E12.79408
G1 X53.262 Y78.231 E12.82115
G1 X52.77 Y77.942 E12.84299
G1 X52.188 Y77.539 E12.87008
G1 X51.734 Y77.171 E12.89245
G1 X51.551 Y76.998 E12.90208
G1 X51.34 Y77.236 E12.91426
G1 X50.887 Y77.635 E12.93736
G1 X50.457 Y77.967 E12.95815
G1 X49.832 Y78.375 E12.98671
G1 X49.359 Y78.603 E13.00681
G1 X48.846 Y78.816 E13.02807
G1 X48.311 Y79.001 E13.04973
G1 X47.613 Y79.145 E13.077
G1 X47.066 Y79.215 E13.09811
G1 X46.466 Y79.253 E13.12112
G1 X43.261 Y79.253 E13.24377
G1 X42.908 Y79.24 E13.25729
G1 X42.321 Y79.196 E13.27982
G1 X41.598 Y79.085 E13.30781
G1 X41.025 Y78.951 E13.33033
G1 X40.348 Y78.738 E13.35749
G1 X39.795 Y78.517 E13.38028
G1 X39.157 Y78.204 E13.40748
G1 X38.656 Y77.91 E13.42971
G1 X38.074 Y77.507 E13.4568
G1 X37.612 Y77.133 E13.47955
G1 X37.089 Y76.639 E13.50708
G1 X36.699 Y76.21 E13.52927
G1 X36.254 Y75.639 E13.55697
G1 X35.916 Y75.128 E13.58042
G1 X35.57 Y74.509 E13.60756
G1 X35.327 Y73.985 E13.62966
G1 X35.074 Y73.306 E13.65739
G1 X34.91 Y72.737 E13.68006
G1 X34.825 Y72.397 E13.69347
G1 X34.212 Y69.471 E13.80788
G1 X34.126 Y68.859 E13.83153
G1 X34.083 Y68.292 E13.85329
G1 X34.075 Y67.698 E13.87602
G1 X34.154 Y67.027 E13.90188
G1 X34.263 Y66.456 E13.92413
G1 X34.417 Y65.861 E13.94765
G1 X34.637 Y65.312 E13.97028
G1 X34.883 Y64.795 E13.99219
G1 X35.219 Y64.204 E14.01821
G1 X35.571 Y63.735 E14.04065
G1 X35.94 Y63.303 E14.0624
G1 X36.21 Y63.013 E14.07756
G1 X36.88 Y62.456 E14.1109
G1 X37.347 Y62.136 E14.13257
G1 X37.847 Y61.837 E14.15486
G1 X38.325 Y61.63 E14.1748
G1 X38.286 Y61.497 E14.1801
G1 X38.192 Y60.89 E14.20361
G1 X38.173 Y60.469 E14.21974
G1 X38.172 Y53.294 E14.49433
G1 X37.934 Y53.388 E14.50412
G1 X37.338 Y53.539 E14.52765
G1 X36.728 Y53.611 E14.55115
G1 X36.334 Y53.615 E14.56623
G1 X35.441 Y53.587 E14.60043
G1 X34.955 Y53.587 E14.61902
G1 X34.342 Y53.547 E14.64253
G1 X33.739 Y53.428 E14.66606
G1 X33.157 Y53.231 E14.68957
G1 X32.605 Y52.961 E14.71309
G1 X32.093 Y52.621 E14.73661
G1 X31.797 Y52.376 E14.75131
G1 X31.195 Y51.835 E14.78229
G1 X30.765 Y51.396 E14.8058
G1 X30.384 Y50.884 E14.83023
G1 X30.26 Y50.692 E14.83898
G1 X29.891 Y50.001 E14.86895
G1 X29.699 Y49.556 E14.8875
G1 X29.492 Y48.977 E14.91103
G1 X29.351 Y48.352 E14.93555
G1 X29.268 Y47.743 E14.95908
G1 X29.281 Y46.925 E14.99038
G1 X29.339 Y46.362 E15.01204
G1 X29.441 Y45.756 E15.03556
G1 X29.623 Y45.165 E15.05923
G1 X29.722 Y44.905 E15.06988
G1 X29.978 Y44.346 E15.09341
G1 X30.009 Y44.295 E15.09569
G1 X29.923 Y44.14 E15.10247
G1 X29.692 Y43.553 E15.12661
G1 X29.502 Y42.954 E15.15066
G1 X29.312 Y42.062 E15.18557
G1 X29.28 Y41.782 E15.19635
G1 X29.25 Y41.168 E15.21988
G1 X29.3 Y40.555 E15.24341
G1 X29.374 Y40.165 E15.25861
G1 X29.501 Y39.624 E15.27987
G1 X29.661 Y39.087 E15.30132
G1 X29.732 Y38.892 E15.30926
G1 X29.979 Y38.33 E15.33275
G1 X30.41 Y37.65 E15.36356
G1 X30.701 Y37.267 E15.38197
G1 X31.051 Y36.864 E15.4024
G0 F1620 X31.104 Y36.803
G0 X31.563 Y36.396
G0 F4320 X31.813 Y36.645
G1 F1800 X32.307 Y36.319 E15.42505
G1 X32.759 Y36.096 E15.44434
G1 X33.29 Y35.872 E15.46639
G1 X33.95 Y35.604 E15.49365
G1 X34.512 Y35.42 E15.51629
G1 X35.093 Y35.312 E15.5389
G1 X35.684 Y35.284 E15.56154
G1 X36.073 Y35.318 E15.57649
G1 X36.51 Y35.282 E15.59327
G1 X37.1 Y35.312 E15.61588
G1 X37.681 Y35.423 E15.63851
G1 X38.242 Y35.61 E15.66114
G1 X38.585 Y35.769 E15.67561
G1 X39.841 Y36.418 E15.72972
G1 X40.288 Y36.364 E15.74695
