;FLAVOR:Marlin
;TIME:9620
;Filament used: 5.92392m
;Layer height: 0.175
;MINX:11.539
;MINY:11.539
;MINZ:0.263
;MAXX:109.326
;MAXY:109.287
;MAXZ:2.888
;Generated with Cura_SteamEngine 4.9.1
M140 S65
M105
M190 S65
M104 S205
M105
M109 S205
M82 ;absolute extrusion mode
G21;(metric values)
G90;(absolute positioning)
M82;(set extruder to absolute mode)
M107;(start with the fan off)
G28;(Home the printer)
G92 E0;(Reset the extruder to 0)
G0 Z5 E5 F500;(Move up and prime the nozzle)
G0 X-1 Z0;(Move outside the printable area)
G1 Y60 E8 F500;(Draw a priming/wiping line to the rear)
G1 X-1;(Move a little closer to the print area)
G1 Y10 E16 F500;(draw more priming/wiping)
G1 E15 F250;(Small retract)
G92 E0;(Zero the extruder)
G92 E0
G92 E0
G1 F2400 E-2.5
;LAYER_COUNT:16
;LAYER:0
M107
;MESH:12v_socket_backplate.stl
G0 F4320 X52.012 Y20.868 Z0.263
;TYPE:WALL-INNER
G1 F2400 E0
G1 F1800 X52.911 Y20.786 E0.03455
G1 X53.727 Y20.395 E0.06918
G1 X54.361 Y19.754 E0.10368
G1 X54.734 Y18.937 E0.13805
G1 X54.808 Y18.04 E0.17249
G1 X54.57 Y17.175 E0.20683
G1 X54.046 Y16.436 E0.2415
G1 X53.313 Y15.923 E0.27574
G1 X52.432 Y15.694 E0.31057
G1 X51.534 Y15.776 E0.34508
G1 X50.716 Y16.165 E0.37975
G1 X50.083 Y16.805 E0.4142
G1 X49.71 Y17.626 E0.44871
G1 X49.636 Y18.522 E0.48311
G1 X49.874 Y19.386 E0.51741
G1 X50.394 Y20.126 E0.55202
G1 X51.13 Y20.638 E0.58633
G1 X51.341 Y20.693 E0.59468
G0 F1620 X52.012 Y20.868
G1 F2400 E-1.90532
G0 F4320 X51.059 Y20.791
G0 X52.072 Y18.579
G0 X46.627 Y26.528
G0 X48.535 Y25.06
G0 X50.37 Y32.245
G0 X50.633 Y34.244
G0 X50.633 Y36.258
G0 X50.37 Y38.258
G0 X49.847 Y40.205
G0 X49.075 Y42.068
G0 X48.068 Y43.815
G0 X46.841 Y45.415
G0 X45.415 Y46.841
G0 X43.815 Y48.068
G0 X42.068 Y49.075
G0 X41.013 Y49.511
G0 X35.251 Y51.826
G1 F2400 E0.59468
G1 F1800 X36.335 Y51.79 E0.63619
G1 X37.416 Y51.684 E0.67775
G1 X38.484 Y51.507 E0.71918
G1 X39.542 Y51.261 E0.76075
G1 X40.578 Y50.948 E0.80217
G1 X41.595 Y50.566 E0.84375
G1 X42.583 Y50.117 E0.88528
G1 X43.539 Y49.606 E0.92676
G1 X44.459 Y49.032 E0.96826
G1 X45.342 Y48.403 E1.00975
G1 X46.181 Y47.712 E1.05135
G1 X46.973 Y46.973 E1.0928
G1 X47.712 Y46.181 E1.13426
G1 X48.403 Y45.342 E1.17586
G1 X49.032 Y44.459 E1.21735
G1 X49.606 Y43.539 E1.25884
G1 X50.117 Y42.583 E1.30033
G1 X50.566 Y41.595 E1.34186
G1 X50.948 Y40.578 E1.38344
G1 X51.261 Y39.542 E1.42485
G1 X51.507 Y38.484 E1.46642
G1 X51.684 Y37.416 E1.50785
G1 X51.79 Y36.335 E1.54942
G1 X51.826 Y35.251 E1.59093
G1 X51.79 Y34.167 E1.63244
G1 X51.684 Y33.086 E1.67401
G1 X51.507 Y32.019 E1.7154
G1 X51.261 Y30.961 E1.75697
G1 X50.948 Y29.925 E1.79838
G1 X50.566 Y28.908 E1.83996
G1 X50.118 Y27.92 E1.88148
G1 X49.606 Y26.963 E1.92301
G1 X49.032 Y26.042 E1.96454
G1 X48.403 Y25.161 E2.00597
G1 X47.712 Y24.322 E2.04757
G1 X46.973 Y23.529 E2.08905
G1 X46.18 Y22.791 E2.13051
G1 X45.342 Y22.1 E2.17208
G1 X44.459 Y21.47 E2.21359
G1 X43.539 Y20.897 E2.25507
G1 X42.584 Y20.385 E2.29653
G1 X41.595 Y19.936 E2.3381
G1 X40.578 Y19.554 E2.37968
G1 X39.543 Y19.241 E2.42106
G1 X38.484 Y18.992 E2.46269
G1 X37.415 Y18.819 E2.50413
G1 X36.335 Y18.712 E2.54567
G1 X35.251 Y18.676 E2.58718
G1 X34.167 Y18.712 E2.62868
G1 X33.087 Y18.819 E2.67022
G1 X32.019 Y18.992 E2.71162
G1 X30.96 Y19.241 E2.75326
G1 X29.925 Y19.554 E2.79464
G1 X28.908 Y19.936 E2.83621
G1 X27.919 Y20.385 E2.87778
G1 X26.963 Y20.897 E2.91928
G1 X26.042 Y21.47 E2.96079
G1 X25.161 Y22.1 E3.00224
G1 X24.321 Y22.791 E3.04387
G1 X23.53 Y23.53 E3.0853
G1 X22.791 Y24.321 E3.12672
G1 X22.1 Y25.161 E3.16835
G1 X21.47 Y26.042 E3.2098
G1 X20.897 Y26.963 E3.25131
G1 X20.385 Y27.919 E3.29281
G1 X19.936 Y28.908 E3.33438
G1 X19.554 Y29.925 E3.37595
G1 X19.241 Y30.96 E3.41734
G1 X18.992 Y32.019 E3.45897
G1 X18.819 Y33.087 E3.50037
G1 X18.712 Y34.167 E3.54191
G1 X18.676 Y35.251 E3.58341
G1 X18.712 Y36.335 E3.62492
G1 X18.819 Y37.415 E3.66646
G1 X18.992 Y38.484 E3.7079
G1 X19.241 Y39.543 E3.74953
G1 X19.554 Y40.578 E3.79091
G1 X19.936 Y41.595 E3.83249
G1 X20.385 Y42.584 E3.87406
G1 X20.897 Y43.539 E3.91552
G1 X21.47 Y44.459 E3.957
G1 X22.1 Y45.342 E3.99851
G1 X22.791 Y46.18 E4.04008
G1 X23.529 Y46.973 E4.08154
G1 X24.322 Y47.712 E4.12302
G1 X25.161 Y48.403 E4.16462
G1 X26.042 Y49.032 E4.20605
G1 X26.963 Y49.606 E4.24758
G1 X27.92 Y50.118 E4.28911
G1 X28.908 Y50.566 E4.33063
G1 X29.925 Y50.948 E4.37221
G1 X30.961 Y51.261 E4.41362
G1 X32.019 Y51.507 E4.45519
G1 X33.086 Y51.684 E4.49658
G1 X34.167 Y51.79 E4.53815
G1 X34.557 Y51.803 E4.55309
G0 F1620 X35.251 Y51.826
G1 F2400 E2.05309
G0 F4320 X31.986 Y51.67
G0 X32.454 Y49.31
G0 X18.581 Y52.367
G0 X20.559 Y53.791
G0 X18.071 Y54.809
G1 F2400 E4.55309
G1 F1800 X18.97 Y54.727 E4.58763
G1 X19.786 Y54.336 E4.62226
G1 X20.42 Y53.695 E4.65677
G1 X20.793 Y52.878 E4.69114
G1 X20.867 Y51.981 E4.72558
G1 X20.629 Y51.116 E4.75991
G1 X20.105 Y50.377 E4.79458
G1 X19.372 Y49.865 E4.8288
G1 X18.491 Y49.635 E4.86365
G1 X17.593 Y49.717 E4.89816
G1 X16.774 Y50.105 E4.93284
G1 X16.143 Y50.749 E4.96734
G1 X15.769 Y51.567 E5.00177
G1 X15.695 Y52.46 E5.03606
G1 X15.927 Y53.327 E5.07041
G1 X16.457 Y54.071 E5.10536
G1 X17.189 Y54.579 E5.13946
G1 X17.4 Y54.634 E5.14781
G0 F1620 X18.071 Y54.809
G1 F2400 E2.64781
G0 F4320 X19.015 Y54.889
G0 X18.37 Y52.543
G0 X28.519 Y76.581
G0 X26.99 Y74.723
G0 X24.288 Y80.765
G0 X23.812 Y82.468
G0 X23.6 Y84.217
G0 X23.648 Y85.941
G0 X23.959 Y87.677
G0 X24.55 Y89.388
G0 X25.347 Y90.911
G0 X26.389 Y92.334
G0 X27.665 Y93.61
G0 X29.056 Y94.631
G0 X29.94 Y95.096
G0 X34.905 Y97.569
G1 F2400 E5.14781
G1 F1800 X35.836 Y97.562 E5.18344
G1 X36.804 Y97.483 E5.22061
G1 X37.763 Y97.325 E5.2578
G1 X38.748 Y97.089 E5.29656
G1 X39.633 Y96.804 E5.33215
G1 X40.531 Y96.437 E5.36927
G1 X41.435 Y95.984 E5.40797
G1 X42.232 Y95.51 E5.44346
G1 X43.024 Y94.952 E5.48053
G1 X43.775 Y94.334 E5.51775
G1 X44.475 Y93.66 E5.55494
G1 X45.123 Y92.936 E5.59213
G1 X45.743 Y92.126 E5.63116
G1 X46.267 Y91.316 E5.66808
G1 X46.73 Y90.465 E5.70516
G1 X47.115 Y89.621 E5.74066
G1 X47.439 Y88.738 E5.77666
G1 X47.469 Y88.644 E5.78043
G1 X47.726 Y87.736 E5.81655
G1 X47.915 Y86.781 E5.8538
G1 X48.031 Y85.819 E5.89089
G1 X48.076 Y84.854 E5.92786
G1 X48.054 Y83.92 E5.96361
G1 X47.952 Y82.952 E6.00086
G1 X47.771 Y81.958 E6.03953
G1 X47.535 Y81.06 E6.07506
G1 X47.222 Y80.142 E6.11218
G1 X46.82 Y79.211 E6.15099
G1 X46.39 Y78.389 E6.18649
G1 X45.879 Y77.569 E6.22347
G1 X45.303 Y76.781 E6.26082
G1 X44.672 Y76.045 E6.29792
G1 X43.987 Y75.359 E6.33502
G1 X43.221 Y74.7 E6.37369
G1 X42.471 Y74.146 E6.40938
G1 X41.669 Y73.644 E6.44559
G1 X41.583 Y73.597 E6.44934
G1 X40.787 Y73.179 E6.48374
G1 X39.857 Y72.778 E6.5225
G1 X38.941 Y72.466 E6.55954
G1 X38.039 Y72.23 E6.59522
G1 X37.047 Y72.049 E6.63381
G1 X36.081 Y71.947 E6.67098
G1 X35.109 Y71.924 E6.70819
G1 X34.182 Y71.968 E6.74371
G1 X33.22 Y72.084 E6.78079
G1 X32.266 Y72.273 E6.81801
G1 X31.331 Y72.537 E6.85519
G1 X30.377 Y72.885 E6.89405
G1 X29.497 Y73.286 E6.93106
G1 X28.68 Y73.732 E6.96668
G1 X27.868 Y74.261 E7.00377
G1 X27.096 Y74.851 E7.04096
G1 X26.372 Y75.494 E7.07801
G1 X25.697 Y76.191 E7.11515
G1 X25.094 Y76.918 E7.15129
G1 X25.033 Y76.998 E7.15514
G1 X24.491 Y77.768 E7.19118
G1 X24.016 Y78.567 E7.22675
G1 X23.562 Y79.471 E7.26547
G1 X23.197 Y80.367 E7.30249
G1 X22.911 Y81.254 E7.33816
G1 X22.675 Y82.238 E7.37688
G1 X22.518 Y83.196 E7.41404
G1 X22.439 Y84.163 E7.45117
G1 X22.43 Y85.091 E7.48668
G1 X22.493 Y86.06 E7.52384
G1 X22.627 Y87.019 E7.5609
G1 X22.835 Y87.969 E7.59812
G1 X23.117 Y88.901 E7.63538
G1 X23.452 Y89.771 E7.67106
G1 X23.49 Y89.863 E7.67487
G1 X23.882 Y90.683 E7.70965
G1 X24.362 Y91.524 E7.74671
G1 X24.931 Y92.362 E7.78548
G1 X25.507 Y93.09 E7.821
G1 X26.148 Y93.783 E7.85713
G1 X26.216 Y93.851 E7.86081
G1 X26.909 Y94.492 E7.89694
G1 X27.635 Y95.069 E7.93243
G1 X28.439 Y95.617 E7.96966
G1 X29.315 Y96.118 E8.00828
G1 X30.156 Y96.521 E8.04397
G1 X31.062 Y96.869 E8.08111
G1 X31.959 Y97.144 E8.11702
G1 X32.057 Y97.169 E8.12089
G1 X32.979 Y97.372 E8.15702
G1 X33.939 Y97.506 E8.19412
G1 X34.213 Y97.524 E8.20462
G0 F1620 X34.905 Y97.569
G1 F2400 E5.70462
G0 F4320 X37.797 Y97.487
G0 X37.323 Y95.129
G0 X67.475 Y101.857
G0 X65.278 Y102.897
G0 X67.568 Y104.306
G1 F2400 E8.20462
G1 F1800 X68.466 Y104.224 E8.23913
G1 X69.284 Y103.835 E8.2738
G1 X69.917 Y103.195 E8.30825
G1 X70.29 Y102.374 E8.34276
G1 X70.364 Y101.478 E8.37716
G1 X70.126 Y100.614 E8.41146
G1 X69.606 Y99.874 E8.44607
G1 X68.87 Y99.362 E8.48038
G1 X67.988 Y99.132 E8.51527
G1 X67.089 Y99.214 E8.54982
G1 X66.273 Y99.605 E8.58444
G1 X65.639 Y100.246 E8.61895
G1 X65.266 Y101.063 E8.65332
G1 X65.192 Y101.96 E8.68776
G1 X65.43 Y102.825 E8.7221
G1 X65.954 Y103.564 E8.75677
G1 X66.687 Y104.077 E8.79101
G1 X66.897 Y104.132 E8.79931
G0 F1620 X67.568 Y104.306
G1 F2400 E6.29931
G0 F4320 X69.382 Y103.972
G0 X69.38 Y106.92
G0 X82.297 Y107.055
G1 F2400 E8.79931
G1 F1800 X80.999 Y107.086 E8.849
G1 X38.944 Y107.085 E10.45844
G1 X37.703 Y107.055 E10.50595
G1 X36.527 Y106.97 E10.55107
G1 X35.232 Y106.815 E10.60099
G1 X34.039 Y106.616 E10.64727
G1 X32.819 Y106.35 E10.69506
G1 X31.663 Y106.039 E10.74087
G1 X30.406 Y105.64 E10.79134
G1 X29.314 Y105.234 E10.83593
G1 X28.124 Y104.722 E10.88551
G1 X27.013 Y104.182 E10.93278
G1 X25.95 Y103.603 E10.97911
G1 X24.874 Y102.946 E11.02735
G1 X23.848 Y102.253 E11.07474
G1 X22.874 Y101.521 E11.12136
G1 X21.887 Y100.708 E11.1703
G1 X20.958 Y99.864 E11.21833
G1 X20.134 Y99.04 E11.26293
G1 X19.285 Y98.105 E11.31126
G1 X18.47 Y97.117 E11.36028
G1 X17.743 Y96.144 E11.40676
G1 X17.038 Y95.103 E11.45488
G1 X16.386 Y94.03 E11.50293
G1 X15.807 Y92.972 E11.54908
G1 X15.28 Y91.881 E11.59545
G1 X14.766 Y90.683 E11.64534
G1 X14.342 Y89.542 E11.69192
G1 X13.968 Y88.371 E11.73897
G1 X13.642 Y87.154 E11.78719
G1 X13.377 Y85.931 E11.83508
G1 X13.184 Y84.764 E11.88034
G1 X13.029 Y83.473 E11.9301
G1 X12.945 Y82.299 E11.97515
G1 X12.914 Y81.036 E12.0235
G1 X12.915 Y38.944 E13.63436
G1 X12.945 Y37.686 E13.68251
G1 X13.03 Y36.524 E13.7271
G1 X13.184 Y35.233 E13.77686
G1 X13.377 Y34.068 E13.82205
G1 X13.642 Y32.845 E13.86994
G1 X13.965 Y31.644 E13.91754
G1 X14.354 Y30.422 E13.96661
G1 X14.766 Y29.317 E14.01175
G1 X15.284 Y28.109 E14.06205
G1 X15.816 Y27.016 E14.10857
G1 X16.391 Y25.962 E14.15452
G1 X17.038 Y24.897 E14.20221
G1 X17.757 Y23.834 E14.25132
G1 X18.47 Y22.883 E14.29681
G1 X19.285 Y21.895 E14.34582
G1 X20.136 Y20.958 E14.39426
G1 X20.958 Y20.136 E14.43875
G1 X21.888 Y19.291 E14.48684
G1 X22.883 Y18.47 E14.53621
G1 X23.855 Y17.743 E14.58266
G1 X24.877 Y17.052 E14.62987
G1 X25.944 Y16.4 E14.67773
G1 X27.016 Y15.816 E14.72444
G1 X28.124 Y15.278 E14.77158
G1 X29.31 Y14.769 E14.82097
G1 X30.454 Y14.343 E14.86769
G1 X31.614 Y13.973 E14.91429
G1 X32.819 Y13.65 E14.96203
G1 X34.039 Y13.384 E15.00982
G1 X35.26 Y13.179 E15.0572
G1 X36.493 Y13.031 E15.10472
G1 X37.699 Y12.945 E15.151
G1 X39.001 Y12.914 E15.20084
G1 X81.056 Y12.915 E16.81028
G1 X82.297 Y12.945 E16.85779
G1 X83.473 Y13.03 E16.90291
G1 X84.768 Y13.185 E16.95282
G1 X85.96 Y13.384 E16.99907
G1 X87.181 Y13.65 E17.04689
G1 X88.356 Y13.965 E17.09345
G1 X89.578 Y14.354 E17.14253
G1 X90.683 Y14.766 E17.18766
G1 X91.876 Y15.278 E17.23734
G1 X92.993 Y15.819 E17.28484
G1 X94.045 Y16.395 E17.33074
G1 X95.123 Y17.052 E17.37905
G1 X96.144 Y17.743 E17.42623
G1 X97.117 Y18.47 E17.47272
G1 X98.105 Y19.285 E17.52173
G1 X99.042 Y20.136 E17.57017
G1 X99.864 Y20.958 E17.61466
G1 X100.709 Y21.888 E17.66275
G1 X101.53 Y22.883 E17.71212
G1 X102.243 Y23.834 E17.75761
G1 X102.93 Y24.847 E17.80445
G1 X103.609 Y25.962 E17.85441
G1 X104.184 Y27.016 E17.90036
G1 X104.716 Y28.109 E17.94688
G1 X105.228 Y29.302 E17.99656
G1 X105.657 Y30.454 E18.0436
G1 X106.027 Y31.614 E18.0902
G1 X106.354 Y32.829 E18.13835
G1 X106.612 Y34.013 E18.18473
G1 X106.816 Y35.236 E18.23218
G1 X106.971 Y36.527 E18.28194
G1 X107.055 Y37.686 E18.32641
G1 X107.086 Y38.964 E18.37534
G1 X107.085 Y81.056 E19.98619
G1 X107.055 Y82.294 E20.03359
G1 X106.97 Y83.476 E20.07894
G1 X106.816 Y84.766 E20.12866
G1 X106.623 Y85.931 E20.17385
G1 X106.358 Y87.154 E20.22174
G1 X106.035 Y88.356 E20.26937
G1 X105.648 Y89.573 E20.31824
G1 X105.234 Y90.683 E20.36358
G1 X104.72 Y91.881 E20.41347
G1 X104.193 Y92.972 E20.45984
G1 X103.614 Y94.03 E20.506
G1 X102.962 Y95.103 E20.55405
G1 X102.257 Y96.144 E20.60216
G1 X101.53 Y97.117 E20.64864
G1 X100.715 Y98.105 E20.69766
G1 X99.866 Y99.04 E20.74599
G1 X99.042 Y99.864 E20.79059
G1 X98.113 Y100.708 E20.83862
G1 X97.127 Y101.521 E20.88753
G1 X96.151 Y102.253 E20.93422
G1 X95.126 Y102.946 E20.98157
G1 X94.048 Y103.605 E21.02992
G1 X92.996 Y104.179 E21.07579
G1 X91.876 Y104.722 E21.12342
G1 X90.698 Y105.229 E21.1725
G1 X89.542 Y105.658 E21.21969
G1 X88.385 Y106.027 E21.26616
G1 X87.181 Y106.35 E21.31387
G1 X85.96 Y106.616 E21.36169
G1 X84.768 Y106.815 E21.40794
G1 X83.473 Y106.97 E21.45786
G1 X82.989 Y107.005 E21.47643
G0 F1620 X82.297 Y107.055
G1 F2400 E18.97643
G0 F4320 X83.458 Y106.785
G0 X83.631 Y109.203
G0 X83.808 Y99.054
G0 X83.654 Y101.454
G0 X84.749 Y101.324
G1 F2400 E21.47643
G1 F1800 X85.833 Y101.288 E21.51793
G1 X86.913 Y101.181 E21.55947
G1 X87.981 Y101.008 E21.60087
G1 X89.04 Y100.759 E21.64251
G1 X90.075 Y100.446 E21.68389
G1 X91.092 Y100.064 E21.72546
G1 X92.081 Y99.615 E21.76703
G1 X93.037 Y99.103 E21.80853
G1 X93.958 Y98.53 E21.85004
G1 X94.839 Y97.9 E21.89149
G1 X95.679 Y97.209 E21.93312
G1 X96.47 Y96.47 E21.97455
G1 X97.209 Y95.679 E22.01597
G1 X97.9 Y94.839 E22.0576
G1 X98.53 Y93.958 E22.09905
G1 X99.103 Y93.037 E22.14056
G1 X99.615 Y92.081 E22.18206
G1 X100.064 Y91.092 E22.22363
G1 X100.446 Y90.075 E22.26521
G1 X100.759 Y89.04 E22.30659
G1 X101.008 Y87.981 E22.34822
G1 X101.181 Y86.913 E22.38962
G1 X101.288 Y85.833 E22.43116
G1 X101.324 Y84.749 E22.47267
G1 X101.288 Y83.665 E22.51417
G1 X101.181 Y82.585 E22.55571
G1 X101.008 Y81.516 E22.59715
G1 X100.759 Y80.457 E22.63878
G1 X100.446 Y79.422 E22.68016
G1 X100.064 Y78.405 E22.72174
G1 X99.615 Y77.416 E22.76331
G1 X99.103 Y76.461 E22.80478
G1 X98.53 Y75.541 E22.84625
G1 X97.9 Y74.658 E22.88777
G1 X97.209 Y73.82 E22.92933
G1 X96.471 Y73.027 E22.97079
G1 X95.678 Y72.288 E23.01227
G1 X94.839 Y71.597 E23.05387
G1 X93.958 Y70.968 E23.0953
G1 X93.037 Y70.394 E23.13683
G1 X92.08 Y69.882 E23.17837
G1 X91.092 Y69.434 E23.21988
G1 X90.075 Y69.052 E23.26146
G1 X89.039 Y68.739 E23.30287
G1 X87.981 Y68.493 E23.34444
G1 X86.914 Y68.316 E23.38584
G1 X85.833 Y68.21 E23.4274
G1 X84.749 Y68.174 E23.46891
G1 X83.665 Y68.21 E23.51042
G1 X82.584 Y68.316 E23.55199
G1 X81.516 Y68.493 E23.59342
G1 X80.458 Y68.739 E23.63499
G1 X79.422 Y69.052 E23.67641
G1 X78.405 Y69.434 E23.71798
G1 X77.417 Y69.883 E23.75951
G1 X76.461 Y70.394 E23.801
G1 X75.541 Y70.968 E23.8425
G1 X74.658 Y71.597 E23.88399
G1 X73.819 Y72.288 E23.92558
G1 X73.027 Y73.027 E23.96704
G1 X72.288 Y73.819 E24.00849
G1 X71.597 Y74.658 E24.05009
G1 X70.968 Y75.541 E24.09158
G1 X70.394 Y76.461 E24.13308
G1 X69.883 Y77.417 E24.17456
G1 X69.434 Y78.405 E24.21609
G1 X69.052 Y79.422 E24.25767
G1 X68.739 Y80.458 E24.29909
G1 X68.493 Y81.516 E24.34066
G1 X68.316 Y82.584 E24.38209
G1 X68.21 Y83.665 E24.42366
G1 X68.174 Y84.749 E24.46516
G1 X68.21 Y85.833 E24.50667
G1 X68.316 Y86.914 E24.54824
G1 X68.493 Y87.981 E24.58963
G1 X68.739 Y89.039 E24.6312
G1 X69.052 Y90.075 E24.67262
G1 X69.434 Y91.092 E24.71419
G1 X69.882 Y92.08 E24.75571
G1 X70.394 Y93.037 E24.79725
G1 X70.968 Y93.958 E24.83878
G1 X71.597 Y94.839 E24.8802
G1 X72.288 Y95.678 E24.9218
G1 X73.027 Y96.471 E24.96328
G1 X73.82 Y97.209 E25.00474
G1 X74.658 Y97.9 E25.04631
G1 X75.541 Y98.53 E25.08782
G1 X76.461 Y99.103 E25.1293
G1 X77.416 Y99.615 E25.17077
G1 X78.405 Y100.064 E25.21233
G1 X79.422 Y100.446 E25.25391
G1 X80.457 Y100.759 E25.29529
G1 X81.516 Y101.008 E25.33692
G1 X82.585 Y101.181 E25.37837
G1 X83.665 Y101.288 E25.4199
G1 X84.055 Y101.301 E25.43483
G0 F1620 X84.749 Y101.324
G1 F2400 E22.93483
G0 F4320 X90.648 Y98.99
G0 X92.456 Y98.098
G0 X94.133 Y96.978
G0 X95.648 Y95.648
G0 X96.978 Y94.133
G0 X98.098 Y92.456
G0 X98.99 Y90.648
G0 X99.638 Y88.738
G0 X100.031 Y86.761
G0 X100.164 Y84.749
G0 X100.031 Y82.737
G0 X99.714 Y81.135
G0 X98.032 Y74.557
G0 X96.124 Y76.025
G0 X101.574 Y68.078
