;FLAVOR:Marlin
;TIME:12379
;Filament used: 9.71918m
;Layer height: 0.175
;MINX:14.818
;MINY:47.45
;MINZ:0.263
;MAXX:105.309
;MAXY:72.55
;MAXZ:45.063
;Generated with Cura_SteamEngine 4.13.0
M140 S65
M105
M190 S65
M104 S195
M105
M109 S195
M82 ;absolute extrusion mode
G21;(metric values)
G90;(absolute positioning)
M82;(set extruder to absolute mode)
M107;(start with the fan off)
G28;(Home the printer)
G92 E0;(Reset the extruder to 0)
G0 Z5 E5 F500;(Move up and prime the nozzle)
G0 X-1 Z0;(Move outside the printable area)
G1 Y60 E8 F500;(Draw a priming/wiping line to the rear)
G1 X-1;(Move a little closer to the print area)
G1 Y10 E16 F500;(draw more priming/wiping)
G1 E15 F250;(Small retract)
G92 E0;(Zero the extruder)
G92 E0
G92 E0
G1 F2400 E-2.5
;LAYER_COUNT:257
;LAYER:0
M107
G0 F4320 X17.979 Y47.868 Z0.263
;TYPE:SKIRT
G1 F2400 E0
G1 F1800 X18.578 Y47.652 E0.02437
G1 X19.2 Y47.513 E0.04876
G1 X19.996 Y47.45 E0.07932
G1 X40.003 Y47.45 E0.84498
G1 X40.639 Y47.49 E0.86937
G1 X41.264 Y47.609 E0.89372
G1 X41.87 Y47.806 E0.91811
G1 X42.446 Y48.077 E0.94247
G1 X42.984 Y48.418 E0.96684
G1 X43.592 Y48.936 E0.99741
G1 X43.695 Y49.039 E1.00299
G1 X44.116 Y49.517 E1.02736
G1 X44.474 Y50.044 E1.05175
G1 X44.763 Y50.611 E1.0761
G1 X44.979 Y51.21 E1.10047
G1 X45.118 Y51.832 E1.12486
G1 X45.181 Y52.627 E1.15538
G1 X45.181 Y57.45 E1.33996
G1 X74.86 Y57.45 E2.47577
G1 X74.824 Y56.925 E2.49591
G1 X74.824 Y52.628 E2.66035
G1 X74.864 Y51.992 E2.68474
G1 X74.983 Y51.367 E2.70909
G1 X75.18 Y50.761 E2.73348
G1 X75.451 Y50.185 E2.75784
G1 X75.792 Y49.647 E2.78222
G1 X76.31 Y49.039 E2.81278
G1 X76.413 Y48.936 E2.81836
G1 X76.891 Y48.515 E2.84273
G1 X77.418 Y48.157 E2.86712
G1 X77.985 Y47.868 E2.89147
G1 X78.584 Y47.652 E2.91584
G1 X79.206 Y47.513 E2.94023
G1 X80.002 Y47.45 E2.97079
G1 X99.884 Y47.45 E3.73167
G1 X100.52 Y47.49 E3.75606
G1 X101.145 Y47.609 E3.78041
G1 X101.751 Y47.806 E3.80479
G1 X102.327 Y48.077 E3.82916
G1 X102.865 Y48.418 E3.85353
G1 X103.473 Y48.936 E3.8841
G1 X103.689 Y49.152 E3.89579
G1 X104.11 Y49.63 E3.92017
G1 X104.468 Y50.157 E3.94455
G1 X104.757 Y50.724 E3.9689
G1 X104.973 Y51.323 E3.99327
G1 X105.112 Y51.945 E4.01766
G1 X105.175 Y52.74 E4.04818
G1 X105.176 Y61.401 E4.37964
G1 X105.246 Y61.71 E4.39176
G1 X105.309 Y62.344 E4.41615
G1 X105.291 Y62.981 E4.44053
G1 X105.195 Y63.61 E4.46489
G1 X105.02 Y64.223 E4.48928
G1 X104.769 Y64.808 E4.51364
G1 X104.448 Y65.358 E4.53801
G1 X104.06 Y65.863 E4.56239
G1 X103.612 Y66.315 E4.58674
G1 X103.11 Y66.708 E4.61114
G1 X102.564 Y67.035 E4.6355
G1 X101.981 Y67.291 E4.65986
G1 X101.37 Y67.472 E4.68425
G1 X100.741 Y67.575 E4.70864
G1 X100.236 Y67.6 E4.72799
G1 X90.701 Y67.599 E5.0929
G1 X90.17 Y67.566 E5.11326
G1 X90.142 Y68.007 E5.13017
G1 X90.023 Y68.632 E5.15452
G1 X89.827 Y69.238 E5.17889
G1 X89.556 Y69.814 E5.20325
G1 X89.215 Y70.352 E5.22763
G1 X88.696 Y70.961 E5.25825
G1 X88.593 Y71.064 E5.26383
G1 X88.115 Y71.485 E5.2882
G1 X87.588 Y71.843 E5.31258
G1 X87.021 Y72.132 E5.33694
G1 X86.422 Y72.348 E5.36131
G1 X85.8 Y72.487 E5.3857
G1 X85.004 Y72.55 E5.41626
G1 X19.997 Y72.55 E7.90407
G1 X19.361 Y72.51 E7.92846
G1 X18.736 Y72.391 E7.95281
G1 X18.13 Y72.194 E7.97719
G1 X17.554 Y71.923 E8.00156
G1 X17.016 Y71.582 E8.02593
G1 X16.408 Y71.064 E8.0565
G1 X16.305 Y70.961 E8.06207
G1 X15.884 Y70.483 E8.08645
G1 X15.526 Y69.956 E8.11083
G1 X15.237 Y69.389 E8.13519
G1 X15.021 Y68.79 E8.15956
G1 X14.882 Y68.168 E8.18395
G1 X14.819 Y67.372 E8.21451
G1 X14.818 Y52.628 E8.77876
G1 X14.858 Y51.993 E8.80311
G1 X14.977 Y51.367 E8.82749
G1 X15.174 Y50.761 E8.85188
G1 X15.445 Y50.185 E8.87624
G1 X15.786 Y49.647 E8.90062
G1 X16.304 Y49.039 E8.93119
G1 X16.407 Y48.936 E8.93676
G1 X16.885 Y48.515 E8.96114
G1 X17.365 Y48.189 E8.98334
G0 F1620 X17.412 Y48.157
G0 X17.979 Y47.868
G0 F4320 X18.178 Y48.164
G1 F1800 X18.759 Y47.965 E9.00685
G1 X19.362 Y47.843 E9.03039
G1 X19.996 Y47.8 E9.05471
G1 X40.003 Y47.8 E9.82038
G1 X40.616 Y47.84 E9.84388
G1 X41.219 Y47.959 E9.86741
G1 X41.801 Y48.156 E9.89092
G1 X42.353 Y48.426 E9.91444
G1 X42.865 Y48.766 E9.93796
G1 X43.344 Y49.184 E9.96229
G1 X43.447 Y49.287 E9.96786
G1 X43.852 Y49.749 E9.99138
G1 X44.194 Y50.259 E10.01488
G1 X44.467 Y50.81 E10.03841
G1 X44.666 Y51.391 E10.06191
G1 X44.788 Y51.994 E10.08546
G1 X44.831 Y52.628 E10.10977
G1 X44.832 Y57.8 E10.30771
G1 X75.265 Y57.8 E11.47238
G1 X75.22 Y57.581 E11.48093
G1 X75.174 Y56.925 E11.5061
G1 X75.174 Y52.628 E11.67054
G1 X75.214 Y52.015 E11.69405
G1 X75.333 Y51.412 E11.71758
G1 X75.53 Y50.83 E11.74109
G1 X75.8 Y50.278 E11.76461
G1 X76.14 Y49.766 E11.78813
G1 X76.558 Y49.287 E11.81246
G1 X76.661 Y49.184 E11.81803
G1 X77.123 Y48.779 E11.84154
G1 X77.633 Y48.437 E11.86504
G1 X78.184 Y48.164 E11.88858
G1 X78.765 Y47.965 E11.91208
G1 X79.368 Y47.843 E11.93563
G1 X80.002 Y47.8 E11.95994
G1 X99.884 Y47.8 E12.72083
G1 X100.497 Y47.84 E12.74434
G1 X101.1 Y47.959 E12.76786
G1 X101.682 Y48.156 E12.79137
G1 X102.234 Y48.426 E12.81489
G1 X102.746 Y48.766 E12.83841
G1 X103.225 Y49.184 E12.86274
G1 X103.441 Y49.4 E12.87443
G1 X103.846 Y49.862 E12.89794
G1 X104.188 Y50.372 E12.92144
G1 X104.461 Y50.923 E12.94498
G1 X104.66 Y51.504 E12.96848
G1 X104.782 Y52.107 E12.99202
G1 X104.825 Y52.741 E13.01634
G1 X104.826 Y61.431 E13.34891
G1 X104.917 Y61.873 E13.36618
G1 X104.962 Y62.486 E13.3897
G1 X104.927 Y63.1 E13.41324
G1 X104.813 Y63.703 E13.43672
G1 X104.621 Y64.287 E13.46025
G1 X104.355 Y64.841 E13.48377
G1 X104.02 Y65.356 E13.50728
G1 X103.62 Y65.823 E13.53081
G1 X103.164 Y66.234 E13.5543
G1 X102.658 Y66.583 E13.57783
G1 X102.111 Y66.863 E13.60135
G1 X101.532 Y67.069 E13.62486
G1 X100.931 Y67.199 E13.6484
G1 X100.237 Y67.25 E13.67503
G1 X90.702 Y67.249 E14.03993
G1 X90.088 Y67.209 E14.06348
G1 X89.832 Y67.158 E14.07347
G1 X89.832 Y67.371 E14.08162
G1 X89.792 Y67.984 E14.10513
G1 X89.673 Y68.587 E14.12865
G1 X89.477 Y69.169 E14.15215
G1 X89.207 Y69.721 E14.17567
G1 X88.867 Y70.233 E14.19919
G1 X88.448 Y70.713 E14.22357
G1 X88.345 Y70.816 E14.22915
G1 X87.883 Y71.221 E14.25266
G1 X87.373 Y71.563 E14.27616
G1 X86.822 Y71.836 E14.29969
G1 X86.241 Y72.035 E14.3232
G1 X85.638 Y72.157 E14.34674
G1 X85.004 Y72.2 E14.37106
G1 X19.997 Y72.2 E16.85887
G1 X19.384 Y72.16 E16.88238
G1 X18.781 Y72.041 E16.90591
G1 X18.199 Y71.844 E16.92942
G1 X17.647 Y71.574 E16.95294
G1 X17.135 Y71.234 E16.97646
G1 X16.656 Y70.816 E17.00079
G1 X16.553 Y70.713 E17.00636
G1 X16.148 Y70.251 E17.02988
G1 X15.806 Y69.741 E17.05337
G1 X15.533 Y69.19 E17.07691
G1 X15.334 Y68.609 E17.10041
G1 X15.212 Y68.006 E17.12396
G1 X15.169 Y67.372 E17.14827
G1 X15.168 Y52.628 E17.71253
G1 X15.208 Y52.015 E17.73604
G1 X15.327 Y51.412 E17.75956
G1 X15.523 Y50.83 E17.78306
G1 X15.794 Y50.278 E17.80659
G1 X16.133 Y49.766 E17.83009
G1 X16.552 Y49.287 E17.85445
G1 X16.655 Y49.184 E17.86002
G1 X17.117 Y48.779 E17.88354
G1 X17.561 Y48.481 E17.904
G0 F1620 X17.627 Y48.437
G0 X18.178 Y48.164
G0 F4320 X18.375 Y48.462
G1 F1800 X18.937 Y48.28 E17.92661
G1 X19.519 Y48.176 E17.94923
G1 X19.996 Y48.15 E17.96751
G1 X40.003 Y48.15 E18.73318
G1 X40.593 Y48.19 E18.75581
G1 X41.172 Y48.309 E18.77843
G1 X41.73 Y48.505 E18.80107
G1 X42.256 Y48.775 E18.82369
G1 X42.741 Y49.113 E18.84632
G1 X43.2 Y49.534 E18.87015
G1 X43.588 Y49.98 E18.89278
G1 X43.914 Y50.474 E18.91543
G1 X44.169 Y51.007 E18.93804
G1 X44.351 Y51.569 E18.96065
G1 X44.455 Y52.151 E18.98327
G1 X44.481 Y52.628 E19.00156
G1 X44.482 Y58.15 E19.21288
G1 X75.71 Y58.15 E20.40798
G1 X75.628 Y57.872 E20.41907
G1 X75.539 Y57.288 E20.44168
G1 X75.524 Y56.925 E20.45558
G1 X75.524 Y52.628 E20.62003
G1 X75.564 Y52.038 E20.64266
G1 X75.683 Y51.459 E20.66528
G1 X75.879 Y50.901 E20.68791
G1 X76.149 Y50.375 E20.71054
G1 X76.487 Y49.89 E20.73316
G1 X76.908 Y49.431 E20.757
G1 X77.354 Y49.043 E20.77962
G1 X77.848 Y48.717 E20.80227
G1 X78.381 Y48.462 E20.82488
G1 X78.943 Y48.28 E20.84749
G1 X79.525 Y48.176 E20.87012
G1 X80.002 Y48.15 E20.8884
G1 X99.884 Y48.15 E21.64928
G1 X100.474 Y48.19 E21.67191
G1 X101.053 Y48.309 E21.69454
G1 X101.611 Y48.505 E21.71717
G1 X102.137 Y48.775 E21.7398
G1 X102.622 Y49.113 E21.76242
G1 X103.194 Y49.647 E21.79237
G1 X103.582 Y50.093 E21.81499
G1 X103.908 Y50.587 E21.83764
G1 X104.163 Y51.12 E21.86025
G1 X104.345 Y51.682 E21.88286
G1 X104.449 Y52.264 E21.90549
G1 X104.475 Y52.741 E21.92377
G1 X104.476 Y61.445 E22.25687
G1 X104.584 Y62.032 E22.27971
G1 X104.611 Y62.623 E22.30235
G1 X104.558 Y63.212 E22.32498
G1 X104.426 Y63.788 E22.3476
G1 X104.217 Y64.342 E22.37026
G1 X103.936 Y64.862 E22.39288
G1 X103.587 Y65.339 E22.4155
G1 X103.177 Y65.765 E22.43813
G1 X102.713 Y66.132 E22.46077
G1 X102.204 Y66.433 E22.4834
G1 X101.659 Y66.662 E22.50602
G1 X101.088 Y66.816 E22.52865
G1 X100.237 Y66.9 E22.56138
G1 X90.702 Y66.899 E22.92628
G1 X90.112 Y66.859 E22.94891
G1 X89.532 Y66.74 E22.97157
G1 X89.482 Y66.722 E22.97361
G1 X89.482 Y67.371 E22.99844
G1 X89.442 Y67.961 E23.02108
G1 X89.323 Y68.54 E23.0437
G1 X89.127 Y69.098 E23.06633
G1 X88.858 Y69.624 E23.08894
G1 X88.52 Y70.109 E23.11156
G1 X88.098 Y70.569 E23.13545
G1 X87.652 Y70.957 E23.15808
G1 X87.158 Y71.283 E23.18073
G1 X86.625 Y71.538 E23.20334
G1 X86.063 Y71.72 E23.22595
G1 X85.481 Y71.824 E23.24857
G1 X85.004 Y71.85 E23.26686
G1 X19.997 Y71.85 E25.75467
G1 X19.407 Y71.81 E25.7773
G1 X18.828 Y71.691 E25.79992
G1 X18.27 Y71.495 E25.82256
G1 X17.744 Y71.225 E25.84518
G1 X17.259 Y70.887 E25.86781
G1 X16.8 Y70.466 E25.89164
G1 X16.412 Y70.02 E25.91427
G1 X16.086 Y69.526 E25.93692
G1 X15.831 Y68.993 E25.95953
G1 X15.649 Y68.431 E25.98214
G1 X15.545 Y67.849 E26.00476
G1 X15.519 Y67.372 E26.02304
G1 X15.518 Y52.628 E26.5873
G1 X15.558 Y52.038 E26.60993
G1 X15.677 Y51.459 E26.63255
G1 X15.873 Y50.901 E26.65518
G1 X16.143 Y50.375 E26.67781
G1 X16.481 Y49.89 E26.70043
G1 X16.902 Y49.431 E26.72427
G1 X17.348 Y49.043 E26.74689
G1 X17.756 Y48.774 E26.76559
G0 F1620 X17.842 Y48.717
G0 X18.375 Y48.462
G0 F4320 X18.569 Y48.761
G1 F1800 X19.112 Y48.598 E26.78729
G1 X19.673 Y48.513 E26.80901
G1 X19.996 Y48.5 E26.82138
G1 X40.003 Y48.5 E27.58704
G1 X40.569 Y48.54 E27.60876
G1 X41.123 Y48.659 E27.63044
G1 X41.655 Y48.855 E27.65214
G1 X42.155 Y49.123 E27.67385
G1 X42.611 Y49.46 E27.69555
G1 X42.952 Y49.782 E27.7135
G1 X43.324 Y50.21 E27.7352
G1 X43.632 Y50.686 E27.7569
G1 X43.87 Y51.201 E27.77861
G1 X44.033 Y51.744 E27.80031
G1 X44.118 Y52.305 E27.82202
G1 X44.131 Y52.628 E27.83439
G1 X44.132 Y58.5 E28.05911
G1 X76.204 Y58.5 E29.28651
G1 X76.056 Y58.121 E29.30208
G1 X75.926 Y57.569 E29.32378
G1 X75.874 Y56.925 E29.34851
G1 X75.874 Y52.628 E29.51295
G1 X75.914 Y52.062 E29.53467
G1 X76.033 Y51.508 E29.55635
G1 X76.229 Y50.976 E29.57805
G1 X76.497 Y50.476 E29.59976
G1 X76.834 Y50.02 E29.62146
G1 X77.156 Y49.679 E29.63941
G1 X77.584 Y49.307 E29.66111
G1 X78.06 Y48.999 E29.68281
G1 X78.575 Y48.761 E29.70452
G1 X79.118 Y48.598 E29.72622
G1 X79.679 Y48.513 E29.74793
G1 X80.002 Y48.5 E29.7603
G1 X99.884 Y48.5 E30.52119
G1 X100.45 Y48.54 E30.5429
G1 X101.004 Y48.659 E30.56459
G1 X101.536 Y48.855 E30.58628
G1 X102.036 Y49.123 E30.60799
G1 X102.492 Y49.46 E30.62969
G1 X102.946 Y49.895 E30.65376
G1 X103.318 Y50.323 E30.67546
G1 X103.626 Y50.799 E30.69715
G1 X103.864 Y51.314 E30.71887
G1 X104.027 Y51.857 E30.74056
G1 X104.112 Y52.418 E30.76228
G1 X104.125 Y52.741 E30.77465
G1 X104.126 Y61.512 E31.11031
G1 X104.161 Y61.627 E31.11492
G1 X104.248 Y62.187 E31.1366
G1 X104.255 Y62.754 E31.1583
G1 X104.183 Y63.317 E31.18003
G1 X104.033 Y63.863 E31.2017
G1 X103.807 Y64.384 E31.22343
G1 X103.51 Y64.867 E31.24513
G1 X103.149 Y65.304 E31.26682
G1 X102.729 Y65.685 E31.28852
G1 X102.26 Y66.004 E31.31023
G1 X101.751 Y66.254 E31.33193
G1 X101.212 Y66.43 E31.35363
G1 X100.654 Y66.528 E31.37531
G1 X100.237 Y66.55 E31.39129
G1 X90.702 Y66.549 E31.7562
G1 X90.136 Y66.509 E31.77791
G1 X89.581 Y66.39 E31.79963
G1 X89.132 Y66.224 E31.81795
G1 X89.132 Y67.371 E31.86185
G1 X89.092 Y67.937 E31.88356
G1 X88.973 Y68.491 E31.90525
G1 X88.778 Y69.024 E31.92697
G1 X88.509 Y69.523 E31.94866
G1 X88.173 Y69.98 E31.97037
G1 X87.85 Y70.321 E31.98835
G1 X87.422 Y70.693 E32.01005
G1 X86.946 Y71.001 E32.03175
G1 X86.431 Y71.239 E32.05346
G1 X85.888 Y71.402 E32.07515
G1 X85.327 Y71.487 E32.09687
G1 X85.004 Y71.5 E32.10924
G1 X19.997 Y71.5 E34.59705
G1 X19.431 Y71.46 E34.61877
G1 X18.877 Y71.341 E34.64045
G1 X18.345 Y71.145 E34.66215
G1 X17.845 Y70.877 E34.68386
G1 X17.389 Y70.54 E34.70556
G1 X17.048 Y70.218 E34.72351
G1 X16.676 Y69.79 E34.74521
G1 X16.368 Y69.314 E34.76691
G1 X16.13 Y68.799 E34.78862
G1 X15.967 Y68.256 E34.81032
G1 X15.882 Y67.695 E34.83203
G1 X15.869 Y67.372 E34.8444
G1 X15.868 Y52.628 E35.40866
G1 X15.908 Y52.063 E35.43033
G1 X16.027 Y51.508 E35.45206
G1 X16.223 Y50.976 E35.47375
G1 X16.491 Y50.476 E35.49546
G1 X16.827 Y50.02 E35.51714
G1 X17.15 Y49.679 E35.53512
G1 X17.578 Y49.307 E35.55682
G1 X17.948 Y49.068 E35.57367
G0 F1620 X18.054 Y48.999
G0 X18.569 Y48.761
G0 F4320 X18.761 Y49.064
G1 F1800 X19.284 Y48.92 E35.59443
G1 X19.996 Y48.85 E35.62181
G1 X40.003 Y48.85 E36.38748
G1 X40.543 Y48.89 E36.4082
G1 X41.072 Y49.009 E36.42895
G1 X41.577 Y49.204 E36.44967
G1 X42.049 Y49.472 E36.47044
G1 X42.602 Y49.926 E36.49782
G1 X42.705 Y50.029 E36.5034
G1 X43.058 Y50.44 E36.52413
G1 X43.348 Y50.898 E36.54488
G1 X43.567 Y51.393 E36.56559
G1 X43.711 Y51.916 E36.58635
G1 X43.781 Y52.628 E36.61373
G1 X43.782 Y58.85 E36.85185
G1 X76.773 Y58.85 E38.11441
G1 X76.743 Y58.807 E38.11642
G1 X76.5 Y58.323 E38.13714
G1 X76.332 Y57.808 E38.15788
G1 X76.241 Y57.274 E38.17861
G1 X76.224 Y56.925 E38.19198
G1 X76.224 Y52.628 E38.35642
G1 X76.264 Y52.088 E38.37715
G1 X76.383 Y51.559 E38.3979
G1 X76.578 Y51.054 E38.41861
G1 X76.846 Y50.582 E38.43939
G1 X77.3 Y50.029 E38.46677
G1 X77.403 Y49.926 E38.47234
G1 X77.814 Y49.573 E38.49308
G1 X78.272 Y49.283 E38.51382
G1 X78.767 Y49.064 E38.53454
G1 X79.29 Y48.92 E38.5553
G1 X80.002 Y48.85 E38.58268
G1 X99.884 Y48.85 E39.34356
G1 X100.424 Y48.89 E39.36428
G1 X100.953 Y49.009 E39.38503
G1 X101.458 Y49.204 E39.40575
G1 X101.93 Y49.472 E39.42652
G1 X102.483 Y49.926 E39.4539
G1 X102.699 Y50.142 E39.46559
G1 X103.052 Y50.553 E39.48633
G1 X103.342 Y51.011 E39.50707
G1 X103.561 Y51.506 E39.52779
G1 X103.705 Y52.029 E39.54855
G1 X103.775 Y52.741 E39.57593
G1 X103.776 Y61.57 E39.91381
G1 X103.84 Y61.799 E39.92291
G1 X103.907 Y62.337 E39.94366
G1 X103.895 Y62.879 E39.96441
G1 X103.803 Y63.413 E39.98515
G1 X103.634 Y63.927 E40.00585
G1 X103.391 Y64.412 E40.02661
G1 X103.079 Y64.855 E40.04735
G1 X102.706 Y65.247 E40.06806
G1 X102.278 Y65.581 E40.08884
G1 X101.807 Y65.848 E40.10956
G1 X101.301 Y66.043 E40.13031
G1 X100.773 Y66.161 E40.15101
G1 X100.237 Y66.2 E40.17158
G1 X90.702 Y66.199 E40.53648
G1 X90.161 Y66.159 E40.55724
G1 X89.633 Y66.04 E40.57796
G1 X89.127 Y65.845 E40.59871
G1 X88.782 Y65.648 E40.61391
G1 X88.782 Y67.371 E40.67985
G1 X88.742 Y67.912 E40.70061
G1 X88.623 Y68.44 E40.72133
G1 X88.428 Y68.946 E40.74208
G1 X88.161 Y69.417 E40.7628
G1 X87.706 Y69.971 E40.79024
G1 X87.603 Y70.074 E40.79581
G1 X87.192 Y70.427 E40.81654
G1 X86.734 Y70.717 E40.83729
G1 X86.239 Y70.936 E40.858
G1 X85.716 Y71.08 E40.87876
G1 X85.004 Y71.15 E40.90614
G1 X19.997 Y71.15 E43.39396
G1 X19.457 Y71.11 E43.41468
G1 X18.928 Y70.991 E43.43543
G1 X18.423 Y70.796 E43.45615
G1 X17.951 Y70.528 E43.47692
G1 X17.398 Y70.074 E43.5043
G1 X17.295 Y69.971 E43.50988
G1 X16.942 Y69.56 E43.53061
G1 X16.652 Y69.102 E43.55136
G1 X16.433 Y68.607 E43.57207
G1 X16.289 Y68.084 E43.59283
G1 X16.219 Y67.372 E43.62021
G1 X16.218 Y52.628 E44.18446
G1 X16.258 Y52.088 E44.20519
G1 X16.377 Y51.559 E44.22594
G1 X16.572 Y51.054 E44.24665
G1 X16.84 Y50.583 E44.26739
G1 X17.294 Y50.029 E44.2948
G1 X17.397 Y49.926 E44.30038
G1 X17.808 Y49.573 E44.32111
G1 X18.137 Y49.364 E44.33603
G0 F1620 X18.266 Y49.283
G0 X18.761 Y49.064
G0 F4320 X18.475 Y49.568
G1 F1800 X18.95 Y49.369 E44.35574
G1 X19.451 Y49.245 E44.37549
G1 X19.996 Y49.2 E44.39642
G1 X40.003 Y49.2 E45.16208
G1 X40.517 Y49.24 E45.18181
G1 X41.018 Y49.359 E45.20152
G1 X41.495 Y49.554 E45.22124
G1 X41.937 Y49.82 E45.24099
G1 X42.354 Y50.174 E45.26192
G1 X42.457 Y50.277 E45.26749
