;FLAVOR:Marlin
;TIME:1085
;Filament used: 0.299238m
;Layer height: 0.13125
;MINX:41.581
;MINY:51.173
;MINZ:0.263
;MAXX:76.398
;MAXY:68.741
;MAXZ:38.253
;Generated with Cura_SteamEngine 4.9.1
M140 S65
M105
M190 S65
M104 S195
M105
M109 S195
M82 ;absolute extrusion mode
G21;(metric values)
G90;(absolute positioning)
M82;(set extruder to absolute mode)
M107;(start with the fan off)
G28;(Home the printer)
G92 E0;(Reset the extruder to 0)
G0 Z5 E5 F500;(Move up and prime the nozzle)
G0 X-1 Z0;(Move outside the printable area)
G1 Y60 E8 F500;(Draw a priming/wiping line to the rear)
G1 X-1;(Move a little closer to the print area)
G1 Y10 E16 F500;(draw more priming/wiping)
G1 E15 F250;(Small retract)
G92 E0;(Zero the extruder)
G92 E0
G92 E0
G1 F2400 E-2.5
;LAYER_COUNT:291
;LAYER:0
M107
G0 F4320 X44.329 Y52.215 Z0.263
;TYPE:SKIRT
G1 F2400 E0
G1 F1800 X44.858 Y51.861 E0.02436
G1 X45.428 Y51.575 E0.04877
G1 X46.028 Y51.364 E0.07311
G1 X46.651 Y51.229 E0.0975
G1 X47.285 Y51.173 E0.12186
G1 X47.922 Y51.197 E0.14625
G1 X48.55 Y51.3 E0.17061
G1 X49.412 Y51.581 E0.20531
G1 X50.53 Y52.06 E0.25185
G1 X51.098 Y52.347 E0.27621
G1 X51.592 Y52.677 E0.29894
G1 X52.554 Y53.405 E0.34511
G1 X52.992 Y53.583 E0.36321
G1 X53.608 Y53.825 E0.38853
G1 X55.335 Y54.542 E0.4601
G1 X55.434 Y54.584 E0.46421
G1 X55.939 Y54.822 E0.48558
G1 X56.477 Y55.163 E0.50995
G1 X56.968 Y55.569 E0.53434
G1 X57.404 Y56.033 E0.5587
G1 X57.779 Y56.548 E0.58308
G1 X58.086 Y57.105 E0.60742
G1 X58.151 Y57.269 E0.61417
G1 X58.381 Y57.222 E0.62316
G1 X59.005 Y57.094 E0.64754
G1 X59.64 Y57.046 E0.67191
G1 X59.802 Y56.673 E0.68747
G1 X60.102 Y56.112 E0.71182
G1 X60.47 Y55.592 E0.7362
G1 X60.873 Y55.148 E0.75914
G1 X60.96 Y55.063 E0.7638
G1 X61.443 Y54.647 E0.78819
G1 X61.974 Y54.295 E0.81257
G1 X62.544 Y54.013 E0.83691
G1 X63.146 Y53.804 E0.8613
G1 X63.769 Y53.672 E0.88567
G1 X64.404 Y53.619 E0.91006
G1 X65.04 Y53.646 E0.93442
G1 X65.335 Y53.696 E0.94587
G1 X65.533 Y53.628 E0.95388
G1 X66.625 Y52.737 E1.00782
G1 X67.143 Y52.366 E1.0322
G1 X67.716 Y52.057 E1.05712
G1 X68.593 Y51.654 E1.09405
G1 X69.187 Y51.424 E1.11843
G1 X69.805 Y51.272 E1.14278
G1 X70.438 Y51.197 E1.16718
G1 X71.075 Y51.203 E1.19156
G1 X71.706 Y51.288 E1.21592
G1 X72.321 Y51.452 E1.24028
G1 X72.912 Y51.691 E1.26468
G1 X73.467 Y52.003 E1.28905
G1 X73.979 Y52.382 E1.31342
G1 X74.44 Y52.821 E1.33779
G1 X74.842 Y53.315 E1.36216
G1 X75.048 Y53.628 E1.3765
G1 X75.664 Y54.641 E1.42187
G1 X75.96 Y55.205 E1.44625
G1 X76.183 Y55.802 E1.47064
G1 X76.33 Y56.421 E1.49499
G1 X76.398 Y57.054 E1.51935
G1 X76.386 Y57.691 E1.54373
G1 X76.295 Y58.321 E1.56809
G1 X76.125 Y58.935 E1.59247
G1 X75.879 Y59.523 E1.61687
G1 X75.562 Y60.075 E1.64123
G1 X75.179 Y60.584 E1.66561
G1 X74.734 Y61.04 E1.68999
G1 X74.488 Y61.249 E1.70234
G1 X73.627 Y61.934 E1.74445
G1 X73.104 Y62.299 E1.76886
G1 X72.637 Y62.551 E1.78916
G1 X71.768 Y62.962 E1.82595
G1 X71.176 Y63.197 E1.85033
G1 X70.659 Y63.331 E1.87077
G1 X69.436 Y64.495 E1.93538
G1 X69.316 Y64.636 E1.94247
G1 X68.846 Y65.066 E1.96685
G1 X68.327 Y65.434 E1.9912
G1 X67.765 Y65.734 E2.01558
G1 X67.17 Y65.961 E2.03995
G1 X66.551 Y66.112 E2.06433
G1 X65.918 Y66.184 E2.08871
G1 X65.282 Y66.177 E2.11305
G1 X64.651 Y66.09 E2.13743
G1 X64.333 Y66.004 E2.15004
G1 X64.274 Y66.115 E2.15485
G1 X63.906 Y66.635 E2.17923
G1 X63.492 Y67.088 E2.20271
G1 X63.286 Y67.288 E2.2137
G1 X62.802 Y67.702 E2.23808
G1 X62.27 Y68.053 E2.26247
G1 X61.699 Y68.333 E2.28681
G1 X61.167 Y68.521 E2.3084
G1 X60.548 Y68.671 E2.33277
G1 X59.915 Y68.741 E2.35715
G1 X59.278 Y68.732 E2.38153
G1 X58.768 Y68.666 E2.40121
G1 X58.541 Y68.625 E2.41003
G1 X57.923 Y68.473 E2.43439
G1 X57.328 Y68.244 E2.45879
G1 X56.767 Y67.943 E2.48315
G1 X56.449 Y67.721 E2.498
G1 X56.089 Y67.596 E2.51258
G1 X55.519 Y67.313 E2.53693
G1 X54.989 Y66.96 E2.5613
G1 X54.507 Y66.544 E2.58567
G1 X54.081 Y66.07 E2.61006
G1 X53.718 Y65.547 E2.63442
G1 X53.52 Y65.169 E2.65075
G1 X53.398 Y65.186 E2.65547
G1 X52.761 Y65.196 E2.67985
G1 X52.128 Y65.127 E2.70422
G1 X51.508 Y64.978 E2.72862
G1 X50.913 Y64.753 E2.75296
G1 X50.478 Y64.524 E2.77178
G1 X49.356 Y64.063 E2.8182
G1 X48.847 Y63.848 E2.83935
G1 X48.792 Y63.823 E2.84166
G1 X48.245 Y63.807 E2.8626
G1 X47.616 Y63.707 E2.88697
G1 X46.739 Y63.426 E2.92222
G1 X45.554 Y62.923 E2.97148
G1 X44.985 Y62.637 E2.99586
G1 X44.26 Y62.126 E3.0298
G1 X43.379 Y61.381 E3.07396
G1 X42.919 Y60.94 E3.09834
G1 X42.519 Y60.445 E3.1227
G1 X42.183 Y59.904 E3.14707
G1 X41.918 Y59.325 E3.17144
G1 X41.728 Y58.717 E3.19582
G1 X41.615 Y58.09 E3.2202
G1 X41.581 Y57.454 E3.24457
G1 X41.628 Y56.819 E3.26894
G1 X41.753 Y56.195 E3.2933
G1 X41.956 Y55.591 E3.31768
G1 X42.306 Y54.892 E3.3476
G1 X43.063 Y53.632 E3.40385
G1 X43.424 Y53.108 E3.4282
G1 X43.811 Y52.676 E3.4504
G0 F1620 X43.849 Y52.633
G0 X44.329 Y52.215
G0 F4320 X44.594 Y52.454
G1 F1800 X45.11 Y52.12 E3.47392
G1 X45.664 Y51.856 E3.49741
G1 X46.249 Y51.667 E3.52094
G1 X46.853 Y51.554 E3.54445
G1 X47.467 Y51.521 E3.56798
G1 X48.079 Y51.568 E3.59147
G1 X48.681 Y51.694 E3.61501
G1 X49.274 Y51.903 E3.63907
G1 X50.392 Y52.382 E3.68562
G1 X50.94 Y52.66 E3.70914
G1 X51.381 Y52.957 E3.72949
G1 X52.38 Y53.713 E3.77743
G1 X52.826 Y53.894 E3.79585
G1 X53.474 Y54.148 E3.82249
G1 X55.261 Y54.89 E3.89654
G1 X55.294 Y54.901 E3.89787
G1 X55.846 Y55.171 E3.92138
G1 X56.358 Y55.511 E3.94491
G1 X56.822 Y55.914 E3.96843
G1 X57.229 Y56.374 E3.99193
G1 X57.574 Y56.883 E4.01546
G1 X57.849 Y57.432 E4.03896
G1 X57.915 Y57.622 E4.04666
G1 X58.262 Y57.617 E4.05994
G1 X58.473 Y57.56 E4.06831
G1 X59.075 Y57.438 E4.09181
G1 X59.688 Y57.396 E4.11533
G1 X59.908 Y57.404 E4.12375
G1 X59.963 Y57.209 E4.13151
G1 X60.205 Y56.643 E4.15506
G1 X60.517 Y56.114 E4.17857
G1 X60.896 Y55.631 E4.20206
G1 X61.205 Y55.313 E4.21903
G1 X61.672 Y54.913 E4.24256
G1 X62.186 Y54.577 E4.26606
G1 X62.74 Y54.311 E4.28958
G1 X63.323 Y54.119 E4.31307
G1 X63.927 Y54.004 E4.3366
G1 X64.54 Y53.968 E4.3601
G1 X65.153 Y54.012 E4.38362
G1 X65.346 Y54.052 E4.39117
G1 X65.723 Y53.926 E4.40638
G1 X66.847 Y53.008 E4.46192
G1 X67.347 Y52.651 E4.48543
G1 X67.862 Y52.375 E4.50779
G1 X68.739 Y51.972 E4.54473
G1 X69.313 Y51.752 E4.56825
G1 X69.91 Y51.608 E4.59175
G1 X70.522 Y51.544 E4.6153
G1 X71.136 Y51.559 E4.63881
G1 X71.743 Y51.654 E4.66232
G1 X72.333 Y51.827 E4.68585
G1 X72.895 Y52.075 E4.70936
G1 X73.42 Y52.393 E4.73285
G1 X73.9 Y52.777 E4.75637
G1 X74.326 Y53.221 E4.77992
G1 X74.749 Y53.81 E4.80767
G1 X75.365 Y54.823 E4.85305
G1 X75.65 Y55.368 E4.87658
G1 X75.861 Y55.945 E4.90009
G1 X75.996 Y56.544 E4.92359
G1 X76.051 Y57.156 E4.94711
G1 X76.027 Y57.77 E4.97062
G1 X75.924 Y58.376 E4.99415
G1 X75.742 Y58.963 E5.01767
G1 X75.486 Y59.522 E5.0412
G1 X75.16 Y60.042 E5.06469
G1 X74.769 Y60.516 E5.0882
G1 X74.27 Y60.976 E5.11417
G1 X73.409 Y61.661 E5.15628
G1 X72.904 Y62.011 E5.17979
G1 X72.487 Y62.234 E5.19789
G1 X71.618 Y62.645 E5.23468
G1 X71.047 Y62.871 E5.25818
G1 X70.487 Y63.012 E5.28028
G1 X69.174 Y64.26 E5.34961
G1 X69.019 Y64.439 E5.35867
G1 X68.559 Y64.847 E5.3822
G1 X68.05 Y65.192 E5.40573
G1 X67.501 Y65.468 E5.42925
G1 X66.921 Y65.67 E5.45275
G1 X66.319 Y65.795 E5.47628
G1 X65.706 Y65.841 E5.49981
G1 X65.093 Y65.807 E5.5233
G1 X64.489 Y65.694 E5.54682
G1 X64.16 Y65.586 E5.56007
G1 X63.965 Y65.949 E5.57584
G1 X63.606 Y66.448 E5.59937
G1 X63.248 Y66.837 E5.6196
G1 X63.042 Y67.037 E5.63059
G1 X62.575 Y67.436 E5.65409
G1 X62.059 Y67.77 E5.67762
G1 X61.504 Y68.035 E5.70115
G1 X61.063 Y68.187 E5.719
G1 X60.466 Y68.33 E5.7425
G1 X59.855 Y68.393 E5.766
G1 X59.24 Y68.377 E5.78955
G1 X58.603 Y68.281 E5.8142
G1 X58.007 Y68.132 E5.83771
G1 X57.435 Y67.908 E5.86122
G1 X56.897 Y67.611 E5.88474
G1 X56.608 Y67.408 E5.89826
G1 X56.185 Y67.257 E5.91544
G1 X55.638 Y66.977 E5.93896
G1 X55.132 Y66.628 E5.96248
G1 X54.676 Y66.217 E5.98598
G1 X54.276 Y65.75 E6.00951
G1 X53.941 Y65.235 E6.03302
G1 X53.728 Y64.791 E6.05187
G1 X53.198 Y64.848 E6.07227
G1 X52.583 Y64.834 E6.09581
G1 X51.976 Y64.74 E6.11932
G1 X51.386 Y64.568 E6.14284
G1 X50.823 Y64.321 E6.16636
G1 X50.648 Y64.215 E6.17419
G1 X49.492 Y63.741 E6.22201
G1 X48.983 Y63.526 E6.24315
G1 X48.856 Y63.469 E6.24848
G1 X48.698 Y63.479 E6.25454
G1 X48.085 Y63.436 E6.27806
G1 X47.483 Y63.314 E6.30156
G1 X46.876 Y63.103 E6.32616
G1 X45.691 Y62.6 E6.37542
G1 X45.142 Y62.324 E6.39894
G1 X44.486 Y61.859 E6.42971
G1 X43.605 Y61.114 E6.47387
G1 X43.163 Y60.687 E6.49739
G1 X42.779 Y60.207 E6.52091
G1 X42.461 Y59.681 E6.54443
G1 X42.215 Y59.119 E6.56791
G1 X42.043 Y58.529 E6.59143
G1 X41.949 Y57.921 E6.61498
G1 X41.935 Y57.307 E6.63848
G1 X42.001 Y56.696 E6.662
G1 X42.145 Y56.099 E6.6855
G1 X42.366 Y55.525 E6.70904
G1 X42.606 Y55.073 E6.72863
G1 X43.363 Y53.813 E6.78488
G1 X43.713 Y53.308 E6.80839
G1 X44.072 Y52.91 E6.82891
G0 F1620 X44.125 Y52.852
G0 X44.594 Y52.454
G0 F4320 X44.857 Y52.696
G1 F1800 X45.359 Y52.383 E6.85155
G1 X45.898 Y52.142 E6.87414
G1 X46.466 Y51.975 E6.8968
G1 X47.05 Y51.886 E6.91941
G1 X47.641 Y51.877 E6.94203
G1 X48.228 Y51.948 E6.96465
G1 X48.8 Y52.097 E6.98728
G1 X49.136 Y52.225 E7.00104
G1 X50.254 Y52.704 E7.04758
G1 X50.78 Y52.973 E7.07019
G1 X51.17 Y53.236 E7.08819
G1 X52.206 Y54.019 E7.13789
G1 X52.722 Y54.229 E7.15921
G1 X53.339 Y54.471 E7.18458
G1 X55.165 Y55.23 E7.26025
G1 X55.223 Y55.25 E7.2626
G1 X55.749 Y55.52 E7.28523
G1 X56.234 Y55.858 E7.30785
G1 X56.669 Y56.258 E7.33047
G1 X57.046 Y56.714 E7.35311
G1 X57.359 Y57.216 E7.37575
G1 X57.6 Y57.755 E7.39835
G1 X57.674 Y58.007 E7.4084
G1 X58.294 Y57.97 E7.43217
G1 X58.564 Y57.897 E7.44287
G1 X59.144 Y57.782 E7.4655
G1 X59.734 Y57.746 E7.48812
G1 X60.166 Y57.772 E7.50468
G1 X60.175 Y57.72 E7.5067
G1 X60.356 Y57.157 E7.52933
G1 X60.612 Y56.624 E7.55196
G1 X60.937 Y56.13 E7.57459
G1 X61.363 Y55.649 E7.59918
G1 X61.45 Y55.564 E7.60384
G1 X61.899 Y55.18 E7.62645
G1 X62.397 Y54.86 E7.6491
G1 X62.933 Y54.611 E7.67172
G1 X63.498 Y54.436 E7.69436
G1 X64.081 Y54.339 E7.71697
G1 X64.672 Y54.321 E7.7396
G1 X65.26 Y54.383 E7.76223
G1 X65.356 Y54.407 E7.76602
G1 X65.65 Y54.349 E7.77748
G1 X65.91 Y54.225 E7.78851
G1 X67.068 Y53.279 E7.84573
G1 X67.55 Y52.937 E7.86835
G1 X68.008 Y52.693 E7.88821
G1 X68.885 Y52.29 E7.92515
G1 X69.438 Y52.08 E7.94778
G1 X70.014 Y51.946 E7.97042
G1 X70.603 Y51.891 E7.99306
G1 X71.193 Y51.917 E8.01566
G1 X71.775 Y52.021 E8.03828
G1 X72.338 Y52.203 E8.06093
G1 X72.871 Y52.46 E8.08357
G1 X73.364 Y52.785 E8.10617
G1 X73.809 Y53.175 E8.12882
G1 X74.197 Y53.621 E8.15144
G1 X74.45 Y53.992 E8.16862
G1 X75.066 Y55.005 E8.214
G1 X75.338 Y55.53 E8.23662
G1 X75.538 Y56.086 E8.25924
G1 X75.66 Y56.665 E8.28188
G1 X75.703 Y57.255 E8.30452
G1 X75.666 Y57.845 E8.32714
G1 X75.55 Y58.424 E8.34974
G1 X75.357 Y58.983 E8.37238
G1 X75.09 Y59.511 E8.39502
G1 X74.755 Y59.998 E8.41764
G1 X74.357 Y60.435 E8.44026
G1 X74.052 Y60.702 E8.45577
G1 X73.191 Y61.387 E8.49788
G1 X72.704 Y61.723 E8.52052
G1 X72.338 Y61.918 E8.53639
G1 X71.469 Y62.329 E8.57318
G1 X70.918 Y62.545 E8.59583
G1 X70.344 Y62.685 E8.61844
G1 X70.32 Y62.687 E8.61936
G1 X68.92 Y64.019 E8.69332
G1 X68.722 Y64.241 E8.7047
G1 X68.273 Y64.625 E8.72731
G1 X67.776 Y64.945 E8.74993
G1 X67.24 Y65.196 E8.77258
G1 X66.676 Y65.371 E8.79518
G1 X66.093 Y65.47 E8.81781
G1 X65.502 Y65.488 E8.84044
G1 X64.914 Y65.427 E8.86307
G1 X64.339 Y65.287 E8.88571
G1 X63.986 Y65.149 E8.90022
G1 X63.937 Y65.263 E8.90497
G1 X63.656 Y65.783 E8.92759
G1 X63.308 Y66.26 E8.95018
G1 X62.799 Y66.786 E8.9782
G1 X62.347 Y67.168 E9.00084
G1 X61.849 Y67.486 E9.02346
G1 X61.041 Y67.827 E9.05702
G1 X60.96 Y67.852 E9.06026
G1 X60.385 Y67.988 E9.08288
G1 X59.796 Y68.045 E9.10552
G1 X59.205 Y68.022 E9.12816
G1 X58.665 Y67.936 E9.14908
G1 X58.092 Y67.792 E9.17169
G1 X57.543 Y67.572 E9.19433
G1 X57.029 Y67.28 E9.21695
G1 X56.772 Y67.095 E9.22907
G1 X56.283 Y66.917 E9.24899
G1 X55.76 Y66.641 E9.27162
G1 X55.279 Y66.298 E9.29423
G1 X54.849 Y65.892 E9.31686
G1 X54.478 Y65.432 E9.33947
G1 X54.172 Y64.926 E9.3621
G1 X53.939 Y64.39 E9.38447
G1 X53.594 Y64.461 E9.39795
G1 X53.004 Y64.502 E9.42058
G1 X52.414 Y64.463 E9.44321
G1 X51.835 Y64.344 E9.46583
G1 X51.277 Y64.149 E9.48846
G1 X50.745 Y63.876 E9.51134
G1 X49.629 Y63.418 E9.55751
G1 X49.12 Y63.203 E9.57865
G1 X48.925 Y63.116 E9.58682
G1 X48.521 Y63.124 E9.60229
G1 X47.934 Y63.057 E9.6249
G1 X47.361 Y62.912 E9.64752
G1 X47.013 Y62.781 E9.66175
G1 X45.828 Y62.278 E9.71101
G1 X45.3 Y62.011 E9.73366
G1 X44.712 Y61.592 E9.76129
G1 X43.831 Y60.847 E9.80544
G1 X43.406 Y60.435 E9.8281
G1 X43.041 Y59.97 E9.85072
G1 X42.742 Y59.46 E9.87334
G1 X42.514 Y58.915 E9.89595
G1 X42.362 Y58.343 E9.9186
G1 X42.288 Y57.757 E9.94121
G1 X42.294 Y57.165 E9.96386
G1 X42.38 Y56.58 E9.98649
G1 X42.544 Y56.012 E10.00912
G1 X42.906 Y55.253 E10.0413
G1 X43.663 Y53.993 E10.09755
G1 X44.001 Y53.508 E10.12018
G1 X44.332 Y53.148 E10.13889
G0 F1620 X44.401 Y53.073
G0 X44.857 Y52.696
G0 F4320 X45.118 Y52.939
G1 F1800 X45.605 Y52.65 E10.16056
G1 X46.129 Y52.431 E10.1823
G1 X46.678 Y52.289 E10.204
G1 X47.241 Y52.225 E10.22568
G1 X47.808 Y52.24 E10.24739
G1 X48.367 Y52.336 E10.2691
G1 X48.998 Y52.546 E10.29455
G1 X50.116 Y53.025 E10.34109
G1 X50.62 Y53.285 E10.3628
G1 X50.959 Y53.515 E10.37848
G1 X52.032 Y54.326 E10.42995
G1 X52.545 Y54.535 E10.45115
G1 X53.128 Y54.763 E10.47511
G1 X55.031 Y55.553 E10.55396
G1 X55.148 Y55.6 E10.55878
G1 X55.648 Y55.868 E10.5805
G1 X56.104 Y56.205 E10.60219
G1 X56.509 Y56.602 E10.6239
G1 X56.855 Y57.052 E10.64562
G1 X57.133 Y57.546 E10.66732
G1 X57.339 Y58.074 E10.68901
G1 X57.418 Y58.408 E10.70214
G1 X57.615 Y58.361 E10.70989
G1 X58.179 Y58.309 E10.73157
G1 X58.392 Y58.306 E10.73972
G1 X58.655 Y58.235 E10.75014
G1 X59.212 Y58.126 E10.77187
G1 X60.018 Y58.108 E10.80272
G1 X60.444 Y58.167 E10.81918
G1 X60.557 Y57.648 E10.8395
G1 X60.754 Y57.116 E10.86122
G1 X61.024 Y56.618 E10.88289
G1 X61.361 Y56.162 E10.90459
G1 X61.694 Y55.814 E10.92303
G1 X62.127 Y55.447 E10.94475
G1 X62.607 Y55.145 E10.96645
G1 X63.124 Y54.913 E10.98814
G1 X63.669 Y54.756 E11.00984
G1 X64.231 Y54.677 E11.03156
G1 X64.798 Y54.679 E11.05326
G1 X65.366 Y54.761 E11.07522
G1 X65.749 Y54.689 E11.09014
G1 X66.098 Y54.523 E11.10493
G1 X67.289 Y53.55 E11.16379
G1 X67.753 Y53.223 E11.18551
G1 X68.154 Y53.011 E11.20287
G1 X69.031 Y52.608 E11.2398
G1 X69.562 Y52.408 E11.26152
G1 X70.116 Y52.284 E11.28325
G1 X70.681 Y52.24 E11.30493
G1 X71.247 Y52.276 E11.32664
G1 X71.802 Y52.39 E11.34832
G1 X72.336 Y52.582 E11.37004
G1 X72.837 Y52.847 E11.39173
G1 X73.297 Y53.18 E11.41346
G1 X73.705 Y53.574 E11.43517
G1 X74.151 Y54.174 E11.46378
G1 X74.767 Y55.187 E11.50915
G1 X75.027 Y55.691 E11.53085
G1 X75.213 Y56.226 E11.55253
G1 X75.322 Y56.783 E11.57425
G1 X75.352 Y57.349 E11.59594
G1 X75.302 Y57.914 E11.61765
G1 X75.174 Y58.466 E11.63934
G1 X74.968 Y58.995 E11.66106
G1 X74.691 Y59.49 E11.68277
G1 X74.347 Y59.94 E11.70445
G1 X73.834 Y60.428 E11.73154
G1 X72.973 Y61.113 E11.77365
G1 X72.505 Y61.434 E11.79537
G1 X72.188 Y61.602 E11.8091
G1 X71.319 Y62.013 E11.84589
G1 X70.79 Y62.218 E11.8676
G1 X70.238 Y62.348 E11.8893
G1 X70.163 Y62.355 E11.89218
G1 X68.67 Y63.774 E11.97101
G1 X68.427 Y64.039 E11.98477
G1 X67.989 Y64.399 E12.00647
G1 X67.504 Y64.693 E12.02817
G1 X66.983 Y64.917 E12.04988
G1 X66.436 Y65.065 E12.07156
G1 X65.873 Y65.135 E12.09327
G1 X65.306 Y65.125 E12.11498
G1 X64.746 Y65.036 E12.13668
G1 X64.204 Y64.869 E12.15838
G1 X63.79 Y64.674 E12.17589
G1 X63.619 Y65.117 E12.19407
G1 X63.348 Y65.615 E12.21577
G1 X63.009 Y66.071 E12.23751
G1 X62.555 Y66.535 E12.26235
G1 X62.121 Y66.9 E12.28406
G1 X61.64 Y67.201 E12.30577
G1 X60.938 Y67.493 E12.33487
G1 X60.857 Y67.518 E12.33811
G1 X60.305 Y67.647 E12.35981
G1 X59.74 Y67.696 E12.38151
G1 X58.955 Y67.633 E12.41165
G1 X58.728 Y67.592 E12.42048
G1 X58.178 Y67.452 E12.4422
G1 X57.654 Y67.236 E12.46389
G1 X56.969 Y66.806 E12.49484
G1 X56.914 Y66.778 E12.4972
G1 X56.383 Y66.578 E12.51892
G1 X55.885 Y66.307 E12.54061
G1 X55.431 Y65.968 E12.5623
G1 X55.028 Y65.568 E12.58403
G1 X54.686 Y65.116 E12.60572
G1 X54.411 Y64.62 E12.62742
G1 X54.208 Y64.09 E12.64914
G1 X54.179 Y63.965 E12.65405
G1 X53.945 Y64.039 E12.66345
G1 X53.385 Y64.133 E12.68518
G1 X52.818 Y64.148 E12.70688
