;FLAVOR:Marlin
;TIME:1941
;Filament used: 0.535887m
;Layer height: 0.13125
;MINX:51.277
;MINY:40.447
;MINZ:0.263
;MAXX:68.728
;MAXY:72.384
;MAXZ:38.646
;Generated with Cura_SteamEngine 4.9.1
M140 S65
M105
M190 S65
M104 S195
M105
M109 S195
M82 ;absolute extrusion mode
G21;(metric values)
G90;(absolute positioning)
M82;(set extruder to absolute mode)
M107;(start with the fan off)
G28;(Home the printer)
G92 E0;(Reset the extruder to 0)
G0 Z5 E5 F500;(Move up and prime the nozzle)
G0 X-1 Z0;(Move outside the printable area)
G1 Y60 E8 F500;(Draw a priming/wiping line to the rear)
G1 X-1;(Move a little closer to the print area)
G1 Y10 E16 F500;(draw more priming/wiping)
G1 E15 F250;(Small retract)
G92 E0;(Zero the extruder)
G92 E0
G92 E0
G1 F2400 E-2.5
;LAYER_COUNT:294
;LAYER:0
M107
G0 F4320 X54.794 Y42.808 Z0.263
;TYPE:SKIRT
G1 F2400 E0
G1 F1800 X55.201 Y42.318 E0.02438
G1 X55.666 Y41.883 E0.04875
G1 X56.13 Y41.543 E0.07076
G1 X56.318 Y41.421 E0.07934
G1 X56.873 Y41.108 E0.10372
G1 X57.463 Y40.868 E0.1281
G1 X58.32 Y40.66 E0.16185
G1 X59.362 Y40.502 E0.20218
G1 X59.997 Y40.447 E0.22657
G1 X60.633 Y40.471 E0.25093
G1 X61.262 Y40.574 E0.27532
G1 X61.996 Y40.743 E0.30415
G1 X62.606 Y40.925 E0.32851
G1 X63.189 Y41.182 E0.35289
G1 X63.735 Y41.509 E0.37725
G1 X64.236 Y41.902 E0.40162
G1 X64.684 Y42.356 E0.42603
G1 X65.071 Y42.861 E0.45037
G1 X65.392 Y43.411 E0.47475
G1 X65.642 Y43.997 E0.49913
G1 X65.816 Y44.61 E0.52351
G1 X65.912 Y45.239 E0.54786
G1 X65.929 Y45.876 E0.57225
G1 X65.865 Y46.51 E0.59664
G1 X65.858 Y46.542 E0.59789
G1 X66.146 Y46.691 E0.6103
G1 X66.85 Y47.201 E0.64357
G1 X66.961 Y47.297 E0.64919
G1 X67.415 Y47.743 E0.67354
G1 X67.811 Y48.243 E0.69795
G1 X68.14 Y48.788 E0.72231
G1 X68.399 Y49.37 E0.74669
G1 X68.583 Y49.98 E0.77108
G1 X68.706 Y50.822 E0.80364
G1 X68.728 Y51.177 E0.81725
G1 X68.728 Y51.814 E0.84163
G1 X68.647 Y52.446 E0.86602
G1 X68.489 Y53.062 E0.89035
G1 X68.254 Y53.654 E0.91473
G1 X67.947 Y54.212 E0.9391
G1 X67.489 Y54.825 E0.96839
G1 X67.394 Y54.934 E0.97392
G1 X66.946 Y55.387 E0.9983
G1 X66.445 Y55.781 E1.02269
G1 X65.899 Y56.108 E1.04705
G1 X65.315 Y56.364 E1.07145
G1 X65.024 Y56.498 E1.08371
G1 X65.581 Y56.748 E1.10708
G1 X66.124 Y57.081 E1.13145
G1 X66.823 Y57.671 E1.16646
G1 X67.048 Y57.899 E1.17872
G1 X67.466 Y58.38 E1.20311
G1 X67.821 Y58.909 E1.22749
G1 X68.106 Y59.478 E1.25184
G1 X68.318 Y60.079 E1.27623
G1 X68.453 Y60.701 E1.30059
G1 X68.509 Y61.335 E1.32495
G1 X68.496 Y61.881 E1.34585
G1 X68.423 Y62.514 E1.37023
G1 X68.272 Y63.133 E1.39462
G1 X68.044 Y63.727 E1.41897
G1 X67.743 Y64.289 E1.44337
G1 X67.375 Y64.808 E1.46771
G1 X66.944 Y65.277 E1.49209
G1 X66.322 Y65.807 E1.52336
G1 X66.065 Y65.991 E1.53546
G1 X66.161 Y66.541 E1.55683
G1 X66.191 Y67.177 E1.58119
G1 X66.142 Y67.812 E1.60557
G1 X66.013 Y68.436 E1.62995
G1 X65.807 Y69.039 E1.65434
G1 X65.527 Y69.611 E1.67871
G1 X65.178 Y70.143 E1.70306
G1 X64.765 Y70.628 E1.72744
G1 X64.294 Y71.057 E1.75182
G1 X63.804 Y71.411 E1.77496
G1 X63.257 Y71.736 E1.79931
G1 X62.673 Y71.991 E1.82369
G1 X62.062 Y72.17 E1.84806
G1 X61.703 Y72.238 E1.86204
G1 X61.118 Y72.327 E1.88469
G1 X60.277 Y72.384 E1.91695
G1 X59.435 Y72.371 E1.94917
G1 X58.8 Y72.322 E1.97355
G1 X58.099 Y72.171 E2.00099
G1 X57.768 Y72.075 E2.01418
G1 X57.169 Y71.86 E2.03853
G1 X56.601 Y71.571 E2.06292
G1 X56.074 Y71.213 E2.0873
G1 X55.596 Y70.793 E2.11166
G1 X55.175 Y70.315 E2.13603
G1 X54.816 Y69.789 E2.1604
G1 X54.527 Y69.222 E2.18476
G1 X54.31 Y68.623 E2.20914
G1 X54.17 Y68.001 E2.23354
G1 X54.11 Y67.367 E2.25791
G1 X54.129 Y66.731 E2.28226
G1 X54.184 Y66.383 E2.29575
G1 X53.854 Y66.211 E2.30999
G1 X53.119 Y65.672 E2.34487
G1 X53.01 Y65.576 E2.35043
G1 X52.559 Y65.126 E2.37481
G1 X52.169 Y64.623 E2.39917
G1 X51.844 Y64.075 E2.42355
G1 X51.591 Y63.491 E2.44791
G1 X51.412 Y62.88 E2.47227
G1 X51.299 Y62.081 E2.50315
G1 X51.277 Y61.725 E2.5168
G1 X51.277 Y61.088 E2.54118
G1 X51.358 Y60.456 E2.56557
G1 X51.517 Y59.84 E2.58991
G1 X51.752 Y59.248 E2.61429
G1 X52.059 Y58.69 E2.63866
G1 X52.529 Y58.063 E2.66865
G1 X52.623 Y57.956 E2.6741
G1 X53.073 Y57.504 E2.69851
G1 X53.575 Y57.113 E2.72286
G1 X54.123 Y56.788 E2.74725
G1 X54.697 Y56.538 E2.77121
G1 X54.986 Y56.404 E2.7834
G1 X54.449 Y56.166 E2.80588
G1 X53.904 Y55.836 E2.83026
G1 X53.225 Y55.271 E2.86406
G1 X52.998 Y55.046 E2.87629
G1 X52.575 Y54.571 E2.90064
G1 X52.215 Y54.045 E2.92503
G1 X51.923 Y53.479 E2.9494
G1 X51.704 Y52.881 E2.97377
G1 X51.562 Y52.26 E2.99815
G1 X51.499 Y51.627 E3.0225
G1 X51.506 Y51.091 E3.04301
G1 X51.57 Y50.457 E3.0674
G1 X51.713 Y49.837 E3.09175
G1 X51.933 Y49.239 E3.11613
G1 X52.226 Y48.674 E3.14049
G1 X52.588 Y48.149 E3.1649
G1 X53.012 Y47.674 E3.18926
G1 X53.64 Y47.127 E3.22114
G1 X53.947 Y46.903 E3.23568
G1 X53.856 Y46.422 E3.25441
G1 X53.818 Y45.786 E3.2788
G1 X53.86 Y45.151 E3.30315
G1 X53.981 Y44.525 E3.32755
G1 X54.179 Y43.92 E3.35191
G1 X54.428 Y43.397 E3.37408
G0 F1620 X54.452 Y43.345
G0 X54.794 Y42.808
G0 F4320 X54.912 Y43.254
G1 F1800 X55.277 Y42.759 E3.39762
G1 X55.702 Y42.316 E3.42111
G1 X56.321 Y41.836 E3.45109
G1 X56.509 Y41.714 E3.45967
G1 X57.045 Y41.414 E3.48317
G1 X57.616 Y41.186 E3.5067
G1 X58.373 Y41.006 E3.53648
G1 X59.415 Y40.848 E3.57681
G1 X60.027 Y40.796 E3.60032
G1 X60.641 Y40.823 E3.62384
G1 X61.183 Y40.915 E3.64488
G1 X61.917 Y41.084 E3.6737
G1 X62.506 Y41.261 E3.69724
G1 X63.066 Y41.512 E3.72073
G1 X63.59 Y41.834 E3.74426
G1 X64.067 Y42.222 E3.76779
G1 X64.49 Y42.668 E3.79132
G1 X64.851 Y43.165 E3.81483
G1 X65.145 Y43.704 E3.83832
G1 X65.366 Y44.278 E3.86186
G1 X65.511 Y44.875 E3.88537
G1 X65.578 Y45.486 E3.9089
G1 X65.564 Y46.1 E3.9324
G1 X65.471 Y46.707 E3.9559
G1 X65.518 Y46.754 E3.95844
G1 X66.058 Y47.048 E3.98198
G1 X66.621 Y47.466 E4.00881
G1 X66.732 Y47.562 E4.01443
G1 X67.17 Y47.994 E4.03797
G1 X67.548 Y48.478 E4.06147
G1 X67.859 Y49.007 E4.08496
G1 X68.1 Y49.573 E4.1085
G1 X68.265 Y50.165 E4.13202
G1 X68.357 Y50.844 E4.15824
G1 X68.379 Y51.199 E4.17185
G1 X68.377 Y51.813 E4.19535
G1 X68.295 Y52.422 E4.21887
G1 X68.135 Y53.016 E4.24241
G1 X67.9 Y53.583 E4.2659
G1 X67.592 Y54.115 E4.28942
G1 X67.225 Y54.595 E4.31255
G1 X67.13 Y54.704 E4.31808
G1 X66.697 Y55.14 E4.3416
G1 X66.211 Y55.517 E4.36514
G1 X65.68 Y55.827 E4.38867
G1 X65.201 Y56.028 E4.40855
G1 X64.962 Y56.151 E4.41883
G1 X64.383 Y56.358 E4.44237
G1 X63.782 Y56.488 E4.4659
G1 X63.37 Y56.522 E4.48172
G1 X63.79 Y56.547 E4.49782
G1 X64.394 Y56.661 E4.52134
G1 X64.978 Y56.854 E4.54488
G1 X65.531 Y57.12 E4.56837
G1 X66.046 Y57.456 E4.5919
G1 X66.574 Y57.917 E4.61872
G1 X66.799 Y58.145 E4.63098
G1 X67.201 Y58.61 E4.65451
G1 X67.54 Y59.122 E4.67801
G1 X67.809 Y59.675 E4.70154
G1 X68.004 Y60.257 E4.72503
G1 X68.122 Y60.861 E4.74858
G1 X68.155 Y61.709 E4.78106
G1 X68.147 Y61.863 E4.78696
G1 X68.075 Y62.473 E4.81047
G1 X67.925 Y63.069 E4.83399
G1 X67.698 Y63.641 E4.85754
G1 X67.4 Y64.178 E4.88104
G1 X67.034 Y64.671 E4.90454
G1 X66.416 Y65.278 E4.93769
G1 X66.1 Y65.536 E4.9533
G1 X65.663 Y65.848 E4.97385
G1 X65.748 Y66.164 E4.98638
G1 X65.831 Y66.773 E5.0099
G1 X65.833 Y67.388 E5.03343
G1 X65.756 Y67.997 E5.05693
G1 X65.6 Y68.592 E5.08047
G1 X65.369 Y69.161 E5.10397
G1 X65.065 Y69.695 E5.12748
G1 X64.695 Y70.186 E5.15101
G1 X64.264 Y70.624 E5.17453
G1 X63.784 Y71.001 E5.19789
G1 X63.607 Y71.122 E5.20609
G1 X63.078 Y71.435 E5.22962
G1 X62.513 Y71.677 E5.25314
G1 X61.651 Y71.892 E5.28714
G1 X61.066 Y71.981 E5.30978
G1 X60.282 Y72.034 E5.33986
G1 X59.44 Y72.021 E5.37208
G1 X58.828 Y71.972 E5.39558
G1 X58.197 Y71.835 E5.42029
G1 X57.866 Y71.739 E5.43348
G1 X57.288 Y71.53 E5.457
G1 X56.742 Y71.247 E5.48054
G1 X56.238 Y70.897 E5.50402
G1 X55.783 Y70.483 E5.52756
G1 X55.386 Y70.014 E5.55108
G1 X55.053 Y69.498 E5.57458
G1 X54.79 Y68.943 E5.59808
G1 X54.601 Y68.358 E5.62161
G1 X54.489 Y67.754 E5.64512
G1 X54.457 Y67.14 E5.66865
G1 X54.505 Y66.527 E5.69218
G1 X54.577 Y66.186 E5.70552
G1 X54.482 Y66.149 E5.70942
G1 X53.943 Y65.855 E5.73292
G1 X53.35 Y65.41 E5.76129
G1 X53.241 Y65.314 E5.76685
G1 X52.807 Y64.879 E5.79036
G1 X52.434 Y64.391 E5.81387
G1 X52.127 Y63.858 E5.83741
G1 X51.891 Y63.291 E5.86091
G1 X51.731 Y62.698 E5.88442
G1 X51.648 Y62.059 E5.90908
G1 X51.626 Y61.703 E5.92273
G1 X51.628 Y61.089 E5.94623
G1 X51.71 Y60.48 E5.96974
G1 X51.87 Y59.887 E5.99325
G1 X52.106 Y59.319 E6.01679
G1 X52.413 Y58.787 E6.0403
G1 X52.792 Y58.294 E6.06409
G1 X52.886 Y58.187 E6.06954
G1 X53.321 Y57.752 E6.09309
G1 X53.808 Y57.378 E6.11659
G1 X54.34 Y57.07 E6.14011
G1 X54.809 Y56.875 E6.15955
G1 X55.068 Y56.744 E6.17066
G1 X55.647 Y56.54 E6.19415
G1 X56.248 Y56.413 E6.21766
G1 X56.649 Y56.381 E6.23305
G1 X56.241 Y56.359 E6.24869
G1 X55.637 Y56.247 E6.2722
G1 X55.052 Y56.058 E6.29573
G1 X54.497 Y55.794 E6.31925
G1 X53.981 Y55.46 E6.34277
G1 X53.472 Y55.023 E6.36844
G1 X53.245 Y54.798 E6.38068
G1 X52.837 Y54.338 E6.40421
G1 X52.493 Y53.829 E6.42772
G1 X52.218 Y53.279 E6.45125
G1 X52.016 Y52.699 E6.47475
G1 X51.892 Y52.097 E6.49828
G1 X51.849 Y51.26 E6.53035
G1 X51.855 Y51.104 E6.53633
G1 X51.919 Y50.493 E6.55984
G1 X52.061 Y49.895 E6.58336
G1 X52.28 Y49.321 E6.60687
G1 X52.571 Y48.78 E6.63038
G1 X52.93 Y48.281 E6.6539
G1 X53.551 Y47.657 E6.6876
G1 X53.864 Y47.396 E6.70319
G1 X54.345 Y47.045 E6.72598
G1 X54.274 Y46.794 E6.73596
G1 X54.184 Y46.186 E6.75948
G1 X54.174 Y45.571 E6.78302
G1 X54.243 Y44.961 E6.80652
G1 X54.391 Y44.364 E6.83006
G1 X54.587 Y43.866 E6.85054
G0 F1620 X54.616 Y43.792
G0 X54.912 Y43.254
G0 F4320 X55.385 Y43.185
G1 F1800 X55.77 Y42.736 E6.87317
G1 X56.211 Y42.343 E6.89578
G1 X56.699 Y42.008 E6.91843
G1 X57.216 Y41.72 E6.94108
G1 X57.767 Y41.505 E6.96371
G1 X58.425 Y41.352 E6.98957
G1 X59.467 Y41.194 E7.0299
G1 X60.056 Y41.146 E7.05252
G1 X60.647 Y41.176 E7.07516
G1 X61.105 Y41.257 E7.09296
G1 X61.839 Y41.426 E7.12179
G1 X62.405 Y41.597 E7.14442
G1 X62.942 Y41.843 E7.16702
G1 X63.442 Y42.159 E7.18966
G1 X63.894 Y42.54 E7.21228
G1 X64.291 Y42.978 E7.2349
G1 X64.625 Y43.466 E7.25753
G1 X64.89 Y43.994 E7.28014
G1 X65.082 Y44.554 E7.3028
G1 X65.197 Y45.134 E7.32543
G1 X65.232 Y45.724 E7.34805
G1 X65.187 Y46.314 E7.37069
G1 X65.063 Y46.892 E7.39331
G1 X65.044 Y46.943 E7.3954
G1 X65.452 Y47.11 E7.41227
G1 X65.964 Y47.405 E7.43488
G1 X66.392 Y47.731 E7.45547
G1 X66.503 Y47.827 E7.46109
G1 X66.923 Y48.243 E7.48371
G1 X67.283 Y48.712 E7.50634
G1 X67.577 Y49.225 E7.52897
G1 X67.798 Y49.773 E7.55158
G1 X67.944 Y50.346 E7.57421
G1 X68.008 Y50.865 E7.59422
G1 X68.03 Y51.22 E7.60783
G1 X68.026 Y51.812 E7.63049
G1 X67.943 Y52.397 E7.6531
G1 X67.782 Y52.966 E7.67573
G1 X67.545 Y53.508 E7.69837
G1 X67.238 Y54.013 E7.72099
G1 X66.866 Y54.475 E7.74369
G1 X66.448 Y54.893 E7.76631
G1 X65.978 Y55.251 E7.78892
G1 X65.464 Y55.543 E7.81155
G1 X64.781 Y55.847 E7.84016
G1 X64.222 Y56.039 E7.86278
G1 X63.642 Y56.154 E7.8854
G1 X63.052 Y56.19 E7.90803
G1 X62.243 Y56.108 E7.93914
G1 X62.044 Y56.069 E7.94691
G1 X61.472 Y55.917 E7.96956
G1 X60.927 Y55.688 E7.99218
G1 X60.417 Y55.389 E8.0148
G1 X59.953 Y55.023 E8.03742
G1 X59.849 Y54.915 E8.04316
G1 X59.654 Y55.086 E8.05308
G1 X59.161 Y55.413 E8.07572
G1 X58.629 Y55.67 E8.09833
G1 X57.974 Y55.881 E8.12467
G1 X57.396 Y56.001 E8.14726
G1 X56.806 Y56.042 E8.1699
G1 X56.216 Y56.003 E8.19252
G1 X55.636 Y55.885 E8.21518
G1 X55.078 Y55.69 E8.2378
G1 X54.551 Y55.421 E8.26044
G1 X54.066 Y55.084 E8.28304
G1 X53.491 Y54.549 E8.3131
G1 X53.1 Y54.106 E8.33571
G1 X52.773 Y53.613 E8.35835
G1 X52.515 Y53.081 E8.38098
G1 X52.331 Y52.519 E8.40361
G1 X52.224 Y51.938 E8.42622
G1 X52.199 Y51.274 E8.45165
G1 X52.205 Y51.118 E8.45762
G1 X52.268 Y50.53 E8.48025
G1 X52.409 Y49.956 E8.50287
G1 X52.627 Y49.406 E8.52552
G1 X52.916 Y48.89 E8.54815
G1 X53.273 Y48.419 E8.57077
G1 X53.775 Y47.926 E8.59769
G1 X54.088 Y47.665 E8.61329
G1 X54.567 Y47.318 E8.63593
G1 X54.76 Y47.215 E8.6443
G1 X54.722 Y47.119 E8.64825
G1 X54.582 Y46.544 E8.6709
G1 X54.521 Y45.956 E8.69352
G1 X54.54 Y45.365 E8.71615
G1 X54.638 Y44.782 E8.73877
G1 X54.814 Y44.218 E8.76139
G1 X55.022 Y43.775 E8.78012
G0 F1620 X55.065 Y43.682
G0 X55.385 Y43.185
G0 F4320 X55.527 Y43.594
G1 F1800 X55.87 Y43.142 E8.80183
G1 X56.274 Y42.744 E8.82353
G1 X56.702 Y42.424 E8.84398
G1 X56.89 Y42.302 E8.85256
G1 X57.386 Y42.027 E8.87427
G1 X57.916 Y41.825 E8.89597
G1 X58.478 Y41.698 E8.91802
G1 X59.52 Y41.54 E8.95836
G1 X60.085 Y41.495 E8.98005
G1 X60.651 Y41.53 E9.00175
G1 X61.026 Y41.598 E9.01633
G1 X61.76 Y41.767 E9.04516
G1 X62.302 Y41.932 E9.06684
G1 X62.816 Y42.173 E9.08857
G1 X63.291 Y42.483 E9.11027
G1 X63.717 Y42.857 E9.13197
G1 X64.087 Y43.287 E9.15368
G1 X64.392 Y43.765 E9.17538
G1 X64.628 Y44.281 E9.19709
G1 X64.788 Y44.825 E9.21879
G1 X64.871 Y45.386 E9.2405
G1 X64.873 Y45.953 E9.26219
G1 X64.796 Y46.515 E9.2839
G1 X64.641 Y47.06 E9.30559
G1 X64.593 Y47.168 E9.31011
G1 X64.86 Y47.241 E9.3207
G1 X65.381 Y47.466 E9.34242
G1 X65.865 Y47.761 E9.36411
G1 X66.274 Y48.092 E9.38425
G1 X66.676 Y48.492 E9.40595
G1 X67.017 Y48.945 E9.42765
G1 X67.292 Y49.441 E9.44936
G1 X67.494 Y49.971 E9.47106
G1 X67.619 Y50.524 E9.49276
G1 X67.68 Y51.242 E9.52034
G1 X67.675 Y51.809 E9.54204
G1 X67.591 Y52.37 E9.56375
G1 X67.428 Y52.913 E9.58544
G1 X67.191 Y53.428 E9.60714
G1 X66.884 Y53.905 E9.62885
G1 X66.602 Y54.245 E9.64575
G1 X66.2 Y54.645 E9.66745
G1 X65.746 Y54.985 E9.68916
G1 X65.249 Y55.257 E9.71084
G1 X64.603 Y55.542 E9.73787
G1 X64.064 Y55.719 E9.75958
G1 X63.505 Y55.818 E9.7813
G1 X62.939 Y55.837 E9.80298
G1 X62.31 Y55.765 E9.8272
G1 X62.111 Y55.726 E9.83496
G1 X61.563 Y55.578 E9.85669
G1 X61.042 Y55.354 E9.87839
G1 X60.558 Y55.06 E9.90006
G1 X60.119 Y54.7 E9.92179
G1 X59.866 Y54.424 E9.93612
G1 X59.784 Y54.514 E9.94078
G1 X59.348 Y54.877 E9.96249
G1 X58.866 Y55.176 E9.9842
G1 X58.077 Y55.489 E10.01668
G1 X57.88 Y55.544 E10.02451
G1 X57.325 Y55.657 E10.04619
G1 X56.759 Y55.692 E10.06789
G1 X56.193 Y55.646 E10.08962
G1 X55.64 Y55.522 E10.11131
G1 X55.11 Y55.321 E10.133
G1 X54.613 Y55.047 E10.15472
G1 X53.965 Y54.526 E10.18654
G1 X53.738 Y54.301 E10.19877
G1 X53.364 Y53.874 E10.2205
G1 X53.054 Y53.399 E10.2422
G1 X52.814 Y52.885 E10.26391
G1 X52.648 Y52.343 E10.28561
G1 X52.56 Y51.783 E10.3073
G1 X52.555 Y51.131 E10.33225
G1 X52.617 Y50.568 E10.35393
G1 X52.757 Y50.018 E10.37565
G1 X52.973 Y49.494 E10.39734
G1 X53.261 Y49.005 E10.41906
G1 X53.614 Y48.562 E10.44073
G1 X53.999 Y48.195 E10.46109
G1 X54.312 Y47.934 E10.47669
G1 X54.772 Y47.602 E10.4984
G1 X55.193 Y47.381 E10.51659
G1 X55.009 Y46.858 E10.53781
G1 X54.899 Y46.301 E10.55954
G1 X54.869 Y45.735 E10.58123
G1 X54.918 Y45.17 E10.60293
G1 X55.046 Y44.618 E10.62462
G1 X55.205 Y44.207 E10.64149
G0 F1620 X55.25 Y44.089
G0 X55.527 Y43.594
G0 F4320 X56.002 Y43.531
G1 F1800 X56.367 Y43.13 E10.66224
G1 X56.892 Y42.717 E10.6878
G1 X57.08 Y42.595 E10.69638
G1 X57.556 Y42.335 E10.71713
G1 X58.064 Y42.147 E10.73786
G1 X58.53 Y42.045 E10.75612
G1 X59.572 Y41.887 E10.79645
G1 X60.112 Y41.845 E10.81718
G1 X60.653 Y41.883 E10.83794
G1 X60.948 Y41.939 E10.84943
G1 X61.682 Y42.108 E10.87825
G1 X62.199 Y42.268 E10.89896
G1 X62.688 Y42.502 E10.91971
G1 X63.136 Y42.806 E10.94043
G1 X63.535 Y43.173 E10.96118
G1 X63.876 Y43.594 E10.98191
G1 X64.152 Y44.061 E11.00267
G1 X64.355 Y44.563 E11.02339
G1 X64.483 Y45.089 E11.04411
G1 X64.532 Y45.629 E11.06486
G1 X64.5 Y46.17 E11.0856
G1 X64.39 Y46.701 E11.10635
G1 X64.203 Y47.209 E11.12707
G1 X64.089 Y47.417 E11.13615
G1 X64.292 Y47.445 E11.14399
G1 X64.812 Y47.596 E11.16471
G1 X65.305 Y47.822 E11.18547
G1 X65.934 Y48.26 E11.2148
G1 X66.045 Y48.356 E11.22042
G1 X66.428 Y48.74 E11.24117
G1 X66.75 Y49.176 E11.26192
G1 X67.004 Y49.654 E11.28263
G1 X67.185 Y50.165 E11.30338
G1 X67.309 Y50.909 E11.33224
G1 X67.331 Y51.264 E11.34585
G1 X67.325 Y51.805 E11.36656
G1 X67.238 Y52.34 E11.3873
G1 X67.075 Y52.857 E11.40805
G1 X66.837 Y53.344 E11.42879
G1 X66.433 Y53.906 E11.45528
G1 X66.338 Y54.015 E11.46081
G1 X65.953 Y54.396 E11.48154
G1 X65.516 Y54.716 E11.50227
G1 X65.037 Y54.969 E11.523
G1 X64.426 Y55.236 E11.54852
G1 X63.908 Y55.396 E11.56927
G1 X63.373 Y55.479 E11.58999
G1 X62.831 Y55.481 E11.61073
G1 X62.178 Y55.382 E11.63601
G1 X61.656 Y55.239 E11.65672
G1 X61.16 Y55.021 E11.67745
